; this is my prh header

G56     ; change to 8.5x11 coordinate system

; prh - start of generated gcode
G21 (All units in mm)

(Start cutting path id: path2751)
(Change tool to Default tool)

G00 Z10.000000
G00 X104.775000 Y152.400000

G01 Z0.000000 F1100.0(Penetrate)
G01 X104.775000 Y104.747830 Z0.000000 F1200.000000
G00 Z10.000000

(End cutting path id: path2751)


(Start cutting path id: path2749)
(Change tool to Default tool)

G00 Z10.000000
G00 X85.694124 Y104.747830

G01 Z0.000000 F1100.0(Penetrate)
G01 X127.036030 Y104.747830 Z0.000000 F1200.000000
G00 Z10.000000

(End cutting path id: path2749)


(Start cutting path id: path2634)
(Change tool to Default tool)

G00 Z10.000000
G00 X127.036030 Y104.747830

G01 Z0.000000 F1100.0(Penetrate)
G01 X104.775000 Y152.400000 Z0.000000 F1200.000000
G01 X85.694094 Y104.747860 Z0.000000
G00 Z10.000000

(End cutting path id: path2634)


(Start cutting path id: path2632)
(Change tool to Default tool)

G00 Z10.000000
G00 X85.694124 Y104.747830

G01 Z0.000000 F1100.0(Penetrate)
G01 X104.775000 Y152.400000 Z0.000000 F1200.000000
G00 Z10.000000

(End cutting path id: path2632)


(Start cutting path id: path2593)
(Change tool to Default tool)

G00 Z10.000000
G00 X53.975000 Y127.000000

G01 Z0.000000 F1100.0(Penetrate)
G02 X53.874851 Y126.389726 Z0.000000 I-0.268938 J-0.269220 F1200.000000
G02 X53.293530 Y126.319290 Z0.000000 I-0.390543 J0.789128
G02 X52.442394 Y127.196041 Z0.000000 I0.240570 J1.085052
G02 X52.612060 Y128.361560 Z0.000000 I1.769188 J0.337566
G02 X54.180783 Y129.460220 Z0.000000 I1.833959 J-0.949338
G02 X56.019370 Y129.042270 Z0.000000 I0.350894 J-2.709398
G02 X57.385814 Y126.790847 Z0.000000 I-1.650260 J-2.541959
G02 X56.700840 Y124.277030 Z0.000000 I-3.661218 J-0.352609
G02 X53.765043 Y122.637804 Z0.000000 I-3.238661 J2.351761
G02 X50.567680 Y123.596330 Z0.000000 I-0.351960 J4.637960
G02 X48.650701 Y127.211072 Z0.000000 I3.035597 J3.925525
G02 X49.886210 Y131.084540 Z0.000000 I5.589918 J0.350777
G02 X54.185928 Y133.278793 Z0.000000 I4.615095 J-3.733591
G02 X58.745220 Y131.765250 Z0.000000 I0.349581 J-6.570762
G02 X61.220095 Y126.788419 Z0.000000 I-4.408372 J-5.295960
G02 X59.426690 Y121.554020 Z0.000000 I-7.518148 J-0.348565
G02 X53.763679 Y118.800477 Z0.000000 I-5.984361 J5.107478
G02 X47.841830 Y120.873340 Z0.000000 I-0.347568 J8.502387
G02 X44.806318 Y127.211917 Z0.000000 I5.775837 J6.662153
G02 X47.160360 Y133.807540 Z0.000000 I9.445111 J0.346850
G02 X54.186484 Y137.122231 Z0.000000 I7.350944 J-6.477782
G02 X61.471070 Y134.488240 Z0.000000 I0.346068 J-10.433061
G02 X65.068510 Y126.788029 Z0.000000 I-7.140768 J-8.026520
G02 X62.152530 Y118.831050 Z0.000000 I-11.371372 J-0.345550
G02 X53.763351 Y114.954249 Z0.000000 I-8.716265 J7.846250
G02 X45.115980 Y118.150250 Z0.000000 I-0.344948 J12.363211
G02 X40.955887 Y127.212043 Z0.000000 I8.504286 J9.389957
G02 X44.434514 Y136.530411 Z0.000000 I13.297109 J0.344560
G02 X54.186682 Y140.969885 Z0.000000 I10.080846 J-9.213534
G02 X64.196910 Y137.211221 Z0.000000 I0.344080 J-14.292789
G02 X68.920102 Y126.787909 Z0.000000 I-9.866832 J-10.752813
G02 X64.878390 Y116.108060 Z0.000000 I-15.222682 J-0.343789
G02 X53.763264 Y111.105593 Z0.000000 I-11.444957 J10.580135
G02 X42.390142 Y115.427280 Z0.000000 I-0.343369 J16.222199
G02 X37.103579 Y127.212139 Z0.000000 I11.228942 J12.115362
G02 X41.708675 Y139.253411 Z0.000000 I17.147854 J0.343157
G02 X54.186758 Y144.819144 Z0.000000 I12.808816 J-11.946225
G02 X66.922770 Y139.934231 Z0.000000 I0.342810 J-18.151430
G02 X72.772931 Y126.787834 Z0.000000 I-12.590561 J-13.477676
G02 X67.604240 Y113.385070 Z0.000000 I-19.072998 J-0.342637
G02 X53.763217 Y107.255925 Z0.000000 I-14.172458 J13.311995
G02 X39.664297 Y112.704270 Z0.000000 I-0.342335 J20.080491
G02 X33.250412 Y127.212177 Z0.000000 I13.951919 J14.839814
G02 X38.982830 Y141.976411 Z0.000000 I20.997972 J0.342210
G02 X54.186789 Y148.669094 Z0.000000 I15.535947 J-14.677479
G02 X69.648610 Y142.657201 Z0.000000 I0.341919 J-22.009488
G02 X76.626352 Y126.787804 Z0.000000 I-15.312955 J-16.201823
G02 X70.330090 Y110.662100 Z0.000000 I-22.922809 J-0.341853
G02 X53.763199 Y103.405759 Z0.000000 I-16.899364 J16.042761
G02 X36.938461 Y109.981290 Z0.000000 I-0.341595 J23.938366
G02 X29.396794 Y127.212207 Z0.000000 I16.673932 J17.563770
G02 X36.256978 Y144.699391 Z0.000000 I24.847626 J0.341540
G02 X54.186821 Y152.519441 Z0.000000 I18.262697 J-17.407954
G02 X72.374460 Y145.380201 Z0.000000 I0.341288 J-25.867216
G02 X80.480104 Y126.787782 Z0.000000 I-18.034766 J-18.925624
G02 X73.055940 Y107.939100 Z0.000000 I-26.772466 J-0.341263
G00 Z10.000000

(End cutting path id: path2593)

; prh - end of generated gcode
; this is my prh footer

G54     ; change back to default coordinate system
