; this is my prh header

G56     ; change to 8.5x11 coordinate system

; prh - start of generated gcode
G21 (All units in mm)

(Start cutting path id: path616)
(Change tool to Default tool)

G00 Z10.000000
G00 X139.710280 Y114.303620

G01 Z0.000000 F1100.0(Penetrate)
G01 X139.710280 Y101.596340 Z0.000000 F1200.000000
G00 Z10.000000

(End cutting path id: path616)


(Start cutting path id: path1711)
(Change tool to Default tool)

G00 Z10.000000
G00 X133.350000 Y107.950000

G01 Z0.000000 F1100.0(Penetrate)
G01 X146.070580 Y107.950000 Z0.000000 F1200.000000
G00 Z10.000000

(End cutting path id: path1711)

; prh - end of generated gcode
; this is my prh footer

G54     ; change back to default coordinate system
