; this is my prh header

G55     ; change to 12x9x4 coordinate system

; prh - start of generated gcode
G21 (All units in mm)

(Start cutting path id: path2751)
(Change tool to Default tool)

G00 Z10.000000
G00 X120.686020 Y158.913160

G01 Z0.000000 F1000.0(Penetrate)
G01 X120.686020 Y111.260990 Z0.000000 F1000.000000
G00 Z10.000000

(End cutting path id: path2751)


(Start cutting path id: path2749)
(Change tool to Default tool)

G00 Z10.000000
G00 X101.605140 Y111.260990

G01 Z0.000000 F1000.0(Penetrate)
G01 X142.947050 Y111.260990 Z0.000000 F1000.000000
G00 Z10.000000

(End cutting path id: path2749)


(Start cutting path id: path2634)
(Change tool to Default tool)

G00 Z10.000000
G00 X142.947050 Y111.260990

G01 Z0.000000 F1000.0(Penetrate)
G01 X120.686020 Y158.913160 Z0.000000 F1000.000000
G01 X101.605110 Y111.261020 Z0.000000
G00 Z10.000000

(End cutting path id: path2634)


(Start cutting path id: path2632)
(Change tool to Default tool)

G00 Z10.000000
G00 X101.605140 Y111.260990

G01 Z0.000000 F1000.0(Penetrate)
G01 X120.686020 Y158.913160 Z0.000000 F1000.000000
G00 Z10.000000

(End cutting path id: path2632)


(Start cutting path id: path2593)
(Change tool to Default tool)

G00 Z10.000000
G00 X69.803880 Y133.498200

G01 Z0.000000 F1000.0(Penetrate)
G02 X69.703731 Y132.887926 Z0.000000 I-0.268938 J-0.269221 F1000.000000
G02 X69.122414 Y132.817490 Z0.000000 I-0.390540 J0.789121
G02 X68.271275 Y133.694242 Z0.000000 I0.240570 J1.085055
G02 X68.440945 Y134.859760 Z0.000000 I1.769158 J0.337564
G02 X70.009658 Y135.958418 Z0.000000 I1.833948 J-0.949323
G02 X71.848255 Y135.540470 Z0.000000 I0.350898 J-2.709425
G02 X73.214697 Y133.289049 Z0.000000 I-1.650261 J-2.541957
G02 X72.529720 Y130.775230 Z0.000000 I-3.661214 J-0.352608
G02 X69.593921 Y129.136003 Z0.000000 I-3.238662 J2.351761
G02 X66.396563 Y130.094530 Z0.000000 I-0.351959 J4.637945
G02 X64.479582 Y133.709272 Z0.000000 I3.035593 J3.925526
G02 X65.715094 Y137.582740 Z0.000000 I5.589904 J0.350778
G02 X70.014808 Y139.776995 Z0.000000 I4.615089 J-3.733576
G02 X74.574100 Y138.263450 Z0.000000 I0.349581 J-6.570761
G02 X77.048977 Y133.286620 Z0.000000 I-4.408365 J-5.295959
G02 X75.255567 Y128.052220 Z0.000000 I-7.518139 J-0.348564
G02 X69.592556 Y125.298677 Z0.000000 I-5.984360 J5.107474
G02 X63.670711 Y127.371540 Z0.000000 I-0.347568 J8.502376
G02 X60.635199 Y133.710116 Z0.000000 I5.775834 J6.662151
G02 X62.989245 Y140.305740 Z0.000000 I9.445106 J0.346849
G02 X70.015369 Y143.620432 Z0.000000 I7.350943 J-6.477780
G02 X77.299947 Y140.986440 Z0.000000 I0.346067 J-10.433040
G02 X80.897391 Y133.286229 Z0.000000 I-7.140768 J-8.026526
G02 X77.981413 Y125.329250 Z0.000000 I-11.371362 J-0.345555
G02 X69.592230 Y121.452448 Z0.000000 I-8.716270 J7.846258
G02 X60.944860 Y124.648450 Z0.000000 I-0.344947 J12.363205
G02 X56.784767 Y133.710243 Z0.000000 I8.504286 J9.389957
G02 X60.263394 Y143.028610 Z0.000000 I13.297106 J0.344560
G02 X70.015560 Y147.468084 Z0.000000 I10.080844 J-9.213531
G02 X80.025791 Y143.709420 Z0.000000 I0.344080 J-14.292795
G02 X84.748983 Y133.286110 Z0.000000 I-9.866835 J-10.752814
G02 X80.707271 Y122.606260 Z0.000000 I-15.222676 J-0.343792
G02 X69.592149 Y117.603792 Z0.000000 I-11.444952 J10.580124
G02 X58.219022 Y121.925480 Z0.000000 I-0.343369 J16.222210
G02 X52.932459 Y133.710340 Z0.000000 I11.228942 J12.115362
G02 X57.537555 Y145.751610 Z0.000000 I17.147851 J0.343157
G02 X70.015640 Y151.317341 Z0.000000 I12.808818 J-11.946236
G02 X82.751649 Y146.432430 Z0.000000 I0.342810 J-18.151427
G02 X88.601810 Y133.286035 Z0.000000 I-12.590560 J-13.477675
G02 X83.433116 Y119.883270 Z0.000000 I-19.072990 J-0.342639
G02 X69.592094 Y113.754124 Z0.000000 I-14.172458 J13.311991
G02 X55.493177 Y119.202470 Z0.000000 I-0.342335 J20.080481
G02 X49.079292 Y133.710377 Z0.000000 I13.951919 J14.839814
G02 X54.811710 Y148.474610 Z0.000000 I20.997969 J0.342210
G02 X70.015669 Y155.167291 Z0.000000 I15.535947 J-14.677485
G02 X85.477494 Y149.155400 Z0.000000 I0.341920 J-22.009502
G02 X92.455235 Y133.286004 Z0.000000 I-15.312951 J-16.201821
G02 X86.158975 Y117.160300 Z0.000000 I-22.922816 J-0.341851
G02 X69.592077 Y109.903961 Z0.000000 I-16.899371 J16.042784
G02 X52.767341 Y116.479490 Z0.000000 I-0.341595 J23.938365
G02 X45.225674 Y133.710407 Z0.000000 I16.673932 J17.563769
G02 X52.085858 Y151.197590 Z0.000000 I24.847625 J0.341540
G02 X70.015698 Y159.017639 Z0.000000 I18.262694 J-17.407951
G02 X88.203341 Y151.878400 Z0.000000 I0.341288 J-25.867228
G02 X96.308985 Y133.285983 Z0.000000 I-18.034772 J-18.925628
G02 X88.884822 Y114.437300 Z0.000000 I-26.772457 J-0.341267
G00 Z10.000000

(End cutting path id: path2593)

; prh - end of generated gcode
; this is my prh footer

G54     ; change back to default coordinate system
