; this is my prh header

G55     ; change to 12x9x4 coordinate system

; prh - start of generated gcode
G21 (All units in mm)

(Start cutting path id: path1083-8)
(Change tool to Default tool)

G00 Z10.000000
G00 X266.972660 Y25.487130

G01 Z0.000000 F1000.0(Penetrate)
G01 X266.972660 Y12.779890 Z0.000000 F1000.000000
G00 Z10.000000

(End cutting path id: path1083-8)


(Start cutting path id: path1089-5)
(Change tool to Default tool)

G00 Z10.000000
G00 X260.612400 Y19.133500

G01 Z0.000000 F1000.0(Penetrate)
G01 X260.612400 Y12.779890 Z0.000000 F1000.000000
G00 Z10.000000

(End cutting path id: path1089-5)


(Start cutting path id: path1085-95)
(Change tool to Default tool)

G00 Z10.000000
G00 X254.252100 Y22.310320

G01 Z0.000000 F1000.0(Penetrate)
G01 X254.252100 Y12.779890 Z0.000000 F1000.000000
G00 Z10.000000

(End cutting path id: path1085-95)


(Start cutting path id: path1087-5)
(Change tool to Default tool)

G00 Z10.000000
G00 X247.891800 Y19.133500

G01 Z0.000000 F1000.0(Penetrate)
G01 X247.891800 Y12.779890 Z0.000000 F1000.000000
G00 Z10.000000

(End cutting path id: path1087-5)


(Start cutting path id: path1083-7)
(Change tool to Default tool)

G00 Z10.000000
G00 X241.531510 Y25.487130

G01 Z0.000000 F1000.0(Penetrate)
G01 X241.531510 Y12.779890 Z0.000000 F1000.000000
G00 Z10.000000

(End cutting path id: path1083-7)


(Start cutting path id: path1089-77)
(Change tool to Default tool)

G00 Z10.000000
G00 X235.171220 Y19.133500

G01 Z0.000000 F1000.0(Penetrate)
G01 X235.171220 Y12.779890 Z0.000000 F1000.000000
G00 Z10.000000

(End cutting path id: path1089-77)


(Start cutting path id: path1085-2)
(Change tool to Default tool)

G00 Z10.000000
G00 X228.810940 Y22.310320

G01 Z0.000000 F1000.0(Penetrate)
G01 X228.810940 Y12.779890 Z0.000000 F1000.000000
G00 Z10.000000

(End cutting path id: path1085-2)


(Start cutting path id: path1087-8)
(Change tool to Default tool)

G00 Z10.000000
G00 X222.450640 Y19.133500

G01 Z0.000000 F1000.0(Penetrate)
G01 X222.450640 Y12.779890 Z0.000000 F1000.000000
G00 Z10.000000

(End cutting path id: path1087-8)


(Start cutting path id: path1083-0)
(Change tool to Default tool)

G00 Z10.000000
G00 X216.090360 Y25.487130

G01 Z0.000000 F1000.0(Penetrate)
G01 X216.090360 Y12.779890 Z0.000000 F1000.000000
G00 Z10.000000

(End cutting path id: path1083-0)


(Start cutting path id: path1089-8)
(Change tool to Default tool)

G00 Z10.000000
G00 X209.730070 Y19.133500

G01 Z0.000000 F1000.0(Penetrate)
G01 X209.730070 Y12.779890 Z0.000000 F1000.000000
G00 Z10.000000

(End cutting path id: path1089-8)


(Start cutting path id: path1085-49)
(Change tool to Default tool)

G00 Z10.000000
G00 X203.369760 Y22.310320

G01 Z0.000000 F1000.0(Penetrate)
G01 X203.369760 Y12.779890 Z0.000000 F1000.000000
G00 Z10.000000

(End cutting path id: path1085-49)


(Start cutting path id: path1087-9)
(Change tool to Default tool)

G00 Z10.000000
G00 X197.009480 Y19.133500

G01 Z0.000000 F1000.0(Penetrate)
G01 X197.009480 Y12.779890 Z0.000000 F1000.000000
G00 Z10.000000

(End cutting path id: path1087-9)


(Start cutting path id: path1083-3)
(Change tool to Default tool)

G00 Z10.000000
G00 X190.649180 Y25.487130

G01 Z0.000000 F1000.0(Penetrate)
G01 X190.649180 Y12.779890 Z0.000000 F1000.000000
G00 Z10.000000

(End cutting path id: path1083-3)


(Start cutting path id: path1089-7)
(Change tool to Default tool)

G00 Z10.000000
G00 X184.288890 Y19.133500

G01 Z0.000000 F1000.0(Penetrate)
G01 X184.288890 Y12.779890 Z0.000000 F1000.000000
G00 Z10.000000

(End cutting path id: path1089-7)


(Start cutting path id: path1085-70)
(Change tool to Default tool)

G00 Z10.000000
G00 X177.928610 Y22.310320

G01 Z0.000000 F1000.0(Penetrate)
G01 X177.928610 Y12.779890 Z0.000000 F1000.000000
G00 Z10.000000

(End cutting path id: path1085-70)


(Start cutting path id: path1087-75)
(Change tool to Default tool)

G00 Z10.000000
G00 X171.568300 Y19.133500

G01 Z0.000000 F1000.0(Penetrate)
G01 X171.568300 Y12.779890 Z0.000000 F1000.000000
G00 Z10.000000

(End cutting path id: path1087-75)


(Start cutting path id: path1083-4)
(Change tool to Default tool)

G00 Z10.000000
G00 X165.208010 Y25.487130

G01 Z0.000000 F1000.0(Penetrate)
G01 X165.208010 Y12.779890 Z0.000000 F1000.000000
G00 Z10.000000

(End cutting path id: path1083-4)


(Start cutting path id: path1089-62)
(Change tool to Default tool)

G00 Z10.000000
G00 X158.847740 Y19.133500

G01 Z0.000000 F1000.0(Penetrate)
G01 X158.847740 Y12.779890 Z0.000000 F1000.000000
G00 Z10.000000

(End cutting path id: path1089-62)


(Start cutting path id: path1085-76)
(Change tool to Default tool)

G00 Z10.000000
G00 X152.487450 Y22.310320

G01 Z0.000000 F1000.0(Penetrate)
G01 X152.487450 Y12.779890 Z0.000000 F1000.000000
G00 Z10.000000

(End cutting path id: path1085-76)


(Start cutting path id: path1087-1)
(Change tool to Default tool)

G00 Z10.000000
G00 X146.127150 Y19.133500

G01 Z0.000000 F1000.0(Penetrate)
G01 X146.127150 Y12.779890 Z0.000000 F1000.000000
G00 Z10.000000

(End cutting path id: path1087-1)


(Start cutting path id: path1083-60)
(Change tool to Default tool)

G00 Z10.000000
G00 X139.766870 Y25.487130

G01 Z0.000000 F1000.0(Penetrate)
G01 X139.766870 Y12.779890 Z0.000000 F1000.000000
G00 Z10.000000

(End cutting path id: path1083-60)


(Start cutting path id: path1089-0)
(Change tool to Default tool)

G00 Z10.000000
G00 X133.406570 Y19.133500

G01 Z0.000000 F1000.0(Penetrate)
G01 X133.406570 Y12.779890 Z0.000000 F1000.000000
G00 Z10.000000

(End cutting path id: path1089-0)


(Start cutting path id: path1085-9)
(Change tool to Default tool)

G00 Z10.000000
G00 X127.046270 Y22.310320

G01 Z0.000000 F1000.0(Penetrate)
G01 X127.046270 Y12.779890 Z0.000000 F1000.000000
G00 Z10.000000

(End cutting path id: path1085-9)


(Start cutting path id: path1087-39)
(Change tool to Default tool)

G00 Z10.000000
G00 X120.685980 Y19.133500

G01 Z0.000000 F1000.0(Penetrate)
G01 X120.685980 Y12.779890 Z0.000000 F1000.000000
G00 Z10.000000

(End cutting path id: path1087-39)


(Start cutting path id: path1083-2)
(Change tool to Default tool)

G00 Z10.000000
G00 X114.325690 Y25.487130

G01 Z0.000000 F1000.0(Penetrate)
G01 X114.325690 Y12.779890 Z0.000000 F1000.000000
G00 Z10.000000

(End cutting path id: path1083-2)


(Start cutting path id: path1089-1)
(Change tool to Default tool)

G00 Z10.000000
G00 X107.965400 Y19.133500

G01 Z0.000000 F1000.0(Penetrate)
G01 X107.965400 Y12.779890 Z0.000000 F1000.000000
G00 Z10.000000

(End cutting path id: path1089-1)


(Start cutting path id: path1085-7)
(Change tool to Default tool)

G00 Z10.000000
G00 X101.605110 Y22.310320

G01 Z0.000000 F1000.0(Penetrate)
G01 X101.605110 Y12.779890 Z0.000000 F1000.000000
G00 Z10.000000

(End cutting path id: path1085-7)


(Start cutting path id: path1087-7)
(Change tool to Default tool)

G00 Z10.000000
G00 X95.244817 Y19.133500

G01 Z0.000000 F1000.0(Penetrate)
G01 X95.244817 Y12.779890 Z0.000000 F1000.000000
G00 Z10.000000

(End cutting path id: path1087-7)


(Start cutting path id: path1083-6)
(Change tool to Default tool)

G00 Z10.000000
G00 X88.884524 Y25.487130

G01 Z0.000000 F1000.0(Penetrate)
G01 X88.884524 Y12.779890 Z0.000000 F1000.000000
G00 Z10.000000

(End cutting path id: path1083-6)


(Start cutting path id: path1089-6)
(Change tool to Default tool)

G00 Z10.000000
G00 X82.524237 Y19.133500

G01 Z0.000000 F1000.0(Penetrate)
G01 X82.524237 Y12.779890 Z0.000000 F1000.000000
G00 Z10.000000

(End cutting path id: path1089-6)


(Start cutting path id: path1085-4)
(Change tool to Default tool)

G00 Z10.000000
G00 X76.163946 Y22.310320

G01 Z0.000000 F1000.0(Penetrate)
G01 X76.163946 Y12.779890 Z0.000000 F1000.000000
G00 Z10.000000

(End cutting path id: path1085-4)


(Start cutting path id: path1087-3)
(Change tool to Default tool)

G00 Z10.000000
G00 X69.803655 Y19.133500

G01 Z0.000000 F1000.0(Penetrate)
G01 X69.803655 Y12.779890 Z0.000000 F1000.000000
G00 Z10.000000

(End cutting path id: path1087-3)


(Start cutting path id: path1083-9)
(Change tool to Default tool)

G00 Z10.000000
G00 X63.443360 Y25.487130

G01 Z0.000000 F1000.0(Penetrate)
G01 X63.443360 Y12.779890 Z0.000000 F1000.000000
G00 Z10.000000

(End cutting path id: path1083-9)


(Start cutting path id: path1089)
(Change tool to Default tool)

G00 Z10.000000
G00 X57.083074 Y19.133500

G01 Z0.000000 F1000.0(Penetrate)
G01 X57.083074 Y12.779890 Z0.000000 F1000.000000
G00 Z10.000000

(End cutting path id: path1089)


(Start cutting path id: path1085)
(Change tool to Default tool)

G00 Z10.000000
G00 X50.722782 Y22.310320

G01 Z0.000000 F1000.0(Penetrate)
G01 X50.722782 Y12.779890 Z0.000000 F1000.000000
G00 Z10.000000

(End cutting path id: path1085)


(Start cutting path id: path1087)
(Change tool to Default tool)

G00 Z10.000000
G00 X44.362487 Y19.133500

G01 Z0.000000 F1000.0(Penetrate)
G01 X44.362487 Y12.779890 Z0.000000 F1000.000000
G00 Z10.000000

(End cutting path id: path1087)


(Start cutting path id: path1075)
(Change tool to Default tool)

G00 Z10.000000
G00 X38.002195 Y12.779890

G01 Z0.000000 F1000.0(Penetrate)
G01 X266.972660 Y12.779890 Z0.000000 F1000.000000
G00 Z10.000000

(End cutting path id: path1075)


(Start cutting path id: path1083)
(Change tool to Default tool)

G00 Z10.000000
G00 X38.002195 Y25.487130

G01 Z0.000000 F1000.0(Penetrate)
G01 X38.002195 Y12.779890 Z0.000000 F1000.000000
G00 Z10.000000

(End cutting path id: path1083)

; prh - end of generated gcode
; this is my prh footer

G54     ; change back to default coordinate system
