; this is my prh header

G55     ; change to 12x9x4 coordinate system

; prh - start of generated gcode
G21 (All units in mm)

(Start cutting path id: path2751)
(Change tool to Default tool)

G00 Z10.000000
G00 X120.686020 Y158.913160

G01 Z0.000000 F1000.0(Penetrate)
G01 X120.686020 Y111.260990 Z0.000000 F1000.000000
G00 Z10.000000

(End cutting path id: path2751)


(Start cutting path id: path2749)
(Change tool to Default tool)

G00 Z10.000000
G00 X101.605140 Y111.260990

G01 Z0.000000 F1000.0(Penetrate)
G01 X142.947050 Y111.260990 Z0.000000 F1000.000000
G00 Z10.000000

(End cutting path id: path2749)


(Start cutting path id: path2634)
(Change tool to Default tool)

G00 Z10.000000
G00 X142.947050 Y111.260990

G01 Z0.000000 F1000.0(Penetrate)
G01 X120.686020 Y158.913160 Z0.000000 F1000.000000
G01 X101.605110 Y111.261020 Z0.000000
G00 Z10.000000

(End cutting path id: path2634)


(Start cutting path id: path2632)
(Change tool to Default tool)

G00 Z10.000000
G00 X101.605140 Y111.260990

G01 Z0.000000 F1000.0(Penetrate)
G01 X120.686020 Y158.913160 Z0.000000 F1000.000000
G00 Z10.000000

(End cutting path id: path2632)


(Start cutting path id: path2593)
(Change tool to Default tool)

G00 Z10.000000
G00 X69.803880 Y133.498200

G01 Z0.000000 F1000.0(Penetrate)
G02 X69.703731 Y132.887926 Z0.000000 I-0.268938 J-0.269221 F1000.000000
G02 X69.122414 Y132.817490 Z0.000000 I-0.390540 J0.789121
G02 X68.271275 Y133.694242 Z0.000000 I0.240570 J1.085055
G02 X68.440945 Y134.859760 Z0.000000 I1.769158 J0.337564
G02 X70.009658 Y135.958418 Z0.000000 I1.833948 J-0.949323
G02 X71.848255 Y135.540470 Z0.000000 I0.350898 J-2.709425
G02 X73.214697 Y133.289049 Z0.000000 I-1.650261 J-2.541957
G02 X72.529720 Y130.775230 Z0.000000 I-3.661214 J-0.352608
G02 X69.593921 Y129.136003 Z0.000000 I-3.238662 J2.351761
G02 X66.396563 Y130.094530 Z0.000000 I-0.351959 J4.637945
G02 X64.479582 Y133.709272 Z0.000000 I3.035593 J3.925526
G02 X65.715094 Y137.582740 Z0.000000 I5.589904 J0.350778
G02 X70.014808 Y139.776995 Z0.000000 I4.615089 J-3.733576
G02 X74.574100 Y138.263450 Z0.000000 I0.349581 J-6.570761
G02 X77.048977 Y133.286620 Z0.000000 I-4.408365 J-5.295959
G02 X75.255567 Y128.052220 Z0.000000 I-7.518139 J-0.348564
G02 X69.592556 Y125.298677 Z0.000000 I-5.984360 J5.107474
G02 X63.670711 Y127.371540 Z0.000000 I-0.347568 J8.502376
G02 X60.635199 Y133.710116 Z0.000000 I5.775834 J6.662151
G02 X62.989245 Y140.305740 Z0.000000 I9.445106 J0.346849
G02 X70.015369 Y143.620432 Z0.000000 I7.350943 J-6.477780
G02 X77.299947 Y140.986440 Z0.000000 I0.346067 J-10.433040
G02 X80.897391 Y133.286229 Z0.000000 I-7.140768 J-8.026526
G02 X77.981413 Y125.329250 Z0.000000 I-11.371362 J-0.345555
G02 X69.592230 Y121.452448 Z0.000000 I-8.716270 J7.846258
G02 X60.944860 Y124.648450 Z0.000000 I-0.344947 J12.363205
G02 X56.784767 Y133.710243 Z0.000000 I8.504286 J9.389957
G02 X60.263394 Y143.028610 Z0.000000 I13.297106 J0.344560
G02 X70.015560 Y147.468084 Z0.000000 I10.080844 J-9.213531
G02 X80.025791 Y143.709420 Z0.000000 I0.344080 J-14.292795
G02 X84.748983 Y133.286110 Z0.000000 I-9.866835 J-10.752814
G02 X80.707271 Y122.606260 Z0.000000 I-15.222676 J-0.343792
G02 X69.592149 Y117.603792 Z0.000000 I-11.444952 J10.580124
G02 X58.219022 Y121.925480 Z0.000000 I-0.343369 J16.222210
G02 X52.932459 Y133.710340 Z0.000000 I11.228942 J12.115362
G02 X57.537555 Y145.751610 Z0.000000 I17.147851 J0.343157
G02 X70.015640 Y151.317341 Z0.000000 I12.808818 J-11.946236
G02 X82.751649 Y146.432430 Z0.000000 I0.342810 J-18.151427
G02 X88.601810 Y133.286035 Z0.000000 I-12.590560 J-13.477675
G02 X83.433116 Y119.883270 Z0.000000 I-19.072990 J-0.342639
G02 X69.592094 Y113.754124 Z0.000000 I-14.172458 J13.311991
G02 X55.493177 Y119.202470 Z0.000000 I-0.342335 J20.080481
G02 X49.079292 Y133.710377 Z0.000000 I13.951919 J14.839814
G02 X54.811710 Y148.474610 Z0.000000 I20.997969 J0.342210
G02 X70.015669 Y155.167291 Z0.000000 I15.535947 J-14.677485
G02 X85.477494 Y149.155400 Z0.000000 I0.341920 J-22.009502
G02 X92.455235 Y133.286004 Z0.000000 I-15.312951 J-16.201821
G02 X86.158975 Y117.160300 Z0.000000 I-22.922816 J-0.341851
G02 X69.592077 Y109.903961 Z0.000000 I-16.899371 J16.042784
G02 X52.767341 Y116.479490 Z0.000000 I-0.341595 J23.938365
G02 X45.225674 Y133.710407 Z0.000000 I16.673932 J17.563769
G02 X52.085858 Y151.197590 Z0.000000 I24.847625 J0.341540
G02 X70.015698 Y159.017639 Z0.000000 I18.262694 J-17.407951
G02 X88.203341 Y151.878400 Z0.000000 I0.341288 J-25.867228
G02 X96.308985 Y133.285983 Z0.000000 I-18.034772 J-18.925628
G02 X88.884822 Y114.437300 Z0.000000 I-26.772457 J-0.341267
G00 Z10.000000

(End cutting path id: path2593)

; prh - end of generated gcode
; this is my prh footer

G54     ; change back to default coordinate system
; this is my prh header

G55     ; change to 12x9x4 coordinate system

; prh - start of generated gcode
G21 (All units in mm)

(Start cutting path id: path616)
(Change tool to Default tool)

G00 Z10.000000
G00 X152.487490 Y120.791440

G01 Z0.000000 F1000.0(Penetrate)
G01 X152.487490 Y108.084160 Z0.000000 F1400.000000
G00 Z10.000000

(End cutting path id: path616)


(Start cutting path id: path1711)
(Change tool to Default tool)

G00 Z10.000000
G00 X146.127210 Y114.437820

G01 Z0.000000 F1000.0(Penetrate)
G01 X158.847790 Y114.437820 Z0.000000 F1400.000000
G00 Z10.000000

(End cutting path id: path1711)


(Start cutting path id: path1699)
(Change tool to Default tool)

G00 Z10.000000
G00 X31.641918 Y222.449394

G01 Z0.000000 F1000.0(Penetrate)
G01 X276.513210 Y222.449394 Z0.000000 F1400.000000
G00 Z10.000000

(End cutting path id: path1699)


(Start cutting path id: path1697)
(Change tool to Default tool)

G00 Z10.000000
G00 X28.461773 Y6.426200

G01 Z0.000000 F1000.0(Penetrate)
G01 X276.513210 Y6.426200 Z0.000000 F1400.000000
G01 X276.513210 Y6.426200 Z0.000000
G00 Z10.000000

(End cutting path id: path1697)

; prh - end of generated gcode
; this is my prh footer

G54     ; change back to default coordinate system
; this is my prh header

G55     ; change to 12x9x4 coordinate system

; prh - start of generated gcode
G21 (All units in mm)

(Start cutting path id: path136821)
(Change tool to Default tool)

G00 Z10.000000
G00 X12.700000 Y215.900000

G01 Z0.000000 F1000.0(Penetrate)
G01 X12.700000 Y12.700000 Z0.000000 F1000.000000
G00 Z10.000000

(End cutting path id: path136821)


(Start cutting path id: path628)
(Change tool to Default tool)

G00 Z10.000000
G00 X12.561039 Y12.779820

G01 Z0.000000 F1000.0(Penetrate)
G01 X28.461773 Y12.779820 Z0.000000 F1000.000000
G00 Z10.000000

(End cutting path id: path628)


(Start cutting path id: path650)
(Change tool to Default tool)

G00 Z10.000000
G00 X12.561039 Y15.956640

G01 Z0.000000 F1000.0(Penetrate)
G01 X15.741186 Y15.956640 Z0.000000 F1000.000000
G00 Z10.000000

(End cutting path id: path650)


(Start cutting path id: path65-91)
(Change tool to Default tool)

G00 Z10.000000
G00 X12.561039 Y19.133500

G01 Z0.000000 F1000.0(Penetrate)
G01 X18.921332 Y19.133500 Z0.000000 F1000.000000
G00 Z10.000000

(End cutting path id: path65-91)


(Start cutting path id: path652)
(Change tool to Default tool)

G00 Z10.000000
G00 X12.561039 Y22.310250

G01 Z0.000000 F1000.0(Penetrate)
G01 X15.741186 Y22.310250 Z0.000000 F1000.000000
G00 Z10.000000

(End cutting path id: path652)


(Start cutting path id: path61-7)
(Change tool to Default tool)

G00 Z10.000000
G00 X12.561039 Y25.487130

G01 Z0.000000 F1000.0(Penetrate)
G01 X22.101478 Y25.487130 Z0.000000 F1000.000000
G00 Z10.000000

(End cutting path id: path61-7)


(Start cutting path id: path654)
(Change tool to Default tool)

G00 Z10.000000
G00 X12.561039 Y28.663880

G01 Z0.000000 F1000.0(Penetrate)
G01 X15.741186 Y28.663880 Z0.000000 F1000.000000
G00 Z10.000000

(End cutting path id: path654)


(Start cutting path id: path63-0)
(Change tool to Default tool)

G00 Z10.000000
G00 X12.561039 Y31.840760

G01 Z0.000000 F1000.0(Penetrate)
G01 X18.921332 Y31.840760 Z0.000000 F1000.000000
G01 X18.921332 Y31.840760 Z0.000000
G01 X18.921332 Y31.840760 Z0.000000
G00 Z10.000000

(End cutting path id: path63-0)


(Start cutting path id: path656)
(Change tool to Default tool)

G00 Z10.000000
G00 X12.561039 Y35.017520

G01 Z0.000000 F1000.0(Penetrate)
G01 X15.741186 Y35.017520 Z0.000000 F1000.000000
G00 Z10.000000

(End cutting path id: path656)


(Start cutting path id: path65-5)
(Change tool to Default tool)

G00 Z10.000000
G00 X12.561039 Y44.547990

G01 Z0.000000 F1000.0(Penetrate)
G01 X18.921332 Y44.547990 Z0.000000 F1000.000000
G00 Z10.000000

(End cutting path id: path65-5)


(Start cutting path id: path61-2)
(Change tool to Default tool)

G00 Z10.000000
G00 X12.561039 Y50.901620

G01 Z0.000000 F1000.0(Penetrate)
G01 X22.101478 Y50.901620 Z0.000000 F1000.000000
G00 Z10.000000

(End cutting path id: path61-2)


(Start cutting path id: path63-5)
(Change tool to Default tool)

G00 Z10.000000
G00 X12.561039 Y57.255230

G01 Z0.000000 F1000.0(Penetrate)
G01 X18.921332 Y57.255230 Z0.000000 F1000.000000
G01 X18.921332 Y57.255230 Z0.000000
G01 X18.921332 Y57.255230 Z0.000000
G00 Z10.000000

(End cutting path id: path63-5)


(Start cutting path id: path59-5)
(Change tool to Default tool)

G00 Z10.000000
G00 X28.461773 Y63.608850

G01 Z0.000000 F1000.0(Penetrate)
G01 X12.561039 Y63.608850 Z0.000000 F1000.000000
G00 Z10.000000

(End cutting path id: path59-5)


(Start cutting path id: path65-4)
(Change tool to Default tool)

G00 Z10.000000
G00 X12.561039 Y69.962470

G01 Z0.000000 F1000.0(Penetrate)
G01 X18.921332 Y69.962470 Z0.000000 F1000.000000
G00 Z10.000000

(End cutting path id: path65-4)


(Start cutting path id: path61-4)
(Change tool to Default tool)

G00 Z10.000000
G00 X12.561039 Y76.316110

G01 Z0.000000 F1000.0(Penetrate)
G01 X22.101478 Y76.316110 Z0.000000 F1000.000000
G00 Z10.000000

(End cutting path id: path61-4)


(Start cutting path id: path63-7)
(Change tool to Default tool)

G00 Z10.000000
G00 X12.561039 Y82.669720

G01 Z0.000000 F1000.0(Penetrate)
G01 X18.921332 Y82.669720 Z0.000000 F1000.000000
G01 X18.921332 Y82.669720 Z0.000000
G01 X18.921332 Y82.669720 Z0.000000
G00 Z10.000000

(End cutting path id: path63-7)


(Start cutting path id: path59-82)
(Change tool to Default tool)

G00 Z10.000000
G00 X28.461773 Y89.023340

G01 Z0.000000 F1000.0(Penetrate)
G01 X12.561039 Y89.023340 Z0.000000 F1000.000000
G00 Z10.000000

(End cutting path id: path59-82)


(Start cutting path id: path65-2)
(Change tool to Default tool)

G00 Z10.000000
G00 X12.561039 Y95.376970

G01 Z0.000000 F1000.0(Penetrate)
G01 X18.921332 Y95.376970 Z0.000000 F1000.000000
G00 Z10.000000

(End cutting path id: path65-2)


(Start cutting path id: path61-68)
(Change tool to Default tool)

G00 Z10.000000
G00 X12.561039 Y101.730590

G01 Z0.000000 F1000.0(Penetrate)
G01 X22.101478 Y101.730590 Z0.000000 F1000.000000
G00 Z10.000000

(End cutting path id: path61-68)


(Start cutting path id: path63-4)
(Change tool to Default tool)

G00 Z10.000000
G00 X12.561039 Y108.084220

G01 Z0.000000 F1000.0(Penetrate)
G01 X18.921332 Y108.084220 Z0.000000 F1000.000000
G01 X18.921332 Y108.084220 Z0.000000
G01 X18.921332 Y108.084220 Z0.000000
G00 Z10.000000

(End cutting path id: path63-4)


(Start cutting path id: path59-6)
(Change tool to Default tool)

G00 Z10.000000
G00 X28.461773 Y114.437840

G01 Z0.000000 F1000.0(Penetrate)
G01 X12.561039 Y114.437840 Z0.000000 F1000.000000
G00 Z10.000000

(End cutting path id: path59-6)


(Start cutting path id: path65-9)
(Change tool to Default tool)

G00 Z10.000000
G00 X12.561039 Y120.791460

G01 Z0.000000 F1000.0(Penetrate)
G01 X18.921332 Y120.791460 Z0.000000 F1000.000000
G00 Z10.000000

(End cutting path id: path65-9)


(Start cutting path id: path61-6)
(Change tool to Default tool)

G00 Z10.000000
G00 X12.561039 Y127.145080

G01 Z0.000000 F1000.0(Penetrate)
G01 X22.101478 Y127.145080 Z0.000000 F1000.000000
G00 Z10.000000

(End cutting path id: path61-6)


(Start cutting path id: path63-113)
(Change tool to Default tool)

G00 Z10.000000
G00 X12.561039 Y133.498690

G01 Z0.000000 F1000.0(Penetrate)
G01 X18.921332 Y133.498690 Z0.000000 F1000.000000
G01 X18.921332 Y133.498690 Z0.000000
G01 X18.921332 Y133.498690 Z0.000000
G00 Z10.000000

(End cutting path id: path63-113)


(Start cutting path id: path59-4)
(Change tool to Default tool)

G00 Z10.000000
G00 X28.461773 Y139.852310

G01 Z0.000000 F1000.0(Penetrate)
G01 X12.561039 Y139.852310 Z0.000000 F1000.000000
G00 Z10.000000

(End cutting path id: path59-4)


(Start cutting path id: path65-3)
(Change tool to Default tool)

G00 Z10.000000
G00 X12.561039 Y146.205950

G01 Z0.000000 F1000.0(Penetrate)
G01 X18.921332 Y146.205950 Z0.000000 F1000.000000
G00 Z10.000000

(End cutting path id: path65-3)


(Start cutting path id: path61-55)
(Change tool to Default tool)

G00 Z10.000000
G00 X12.561039 Y152.559560

G01 Z0.000000 F1000.0(Penetrate)
G01 X22.101478 Y152.559560 Z0.000000 F1000.000000
G00 Z10.000000

(End cutting path id: path61-55)


(Start cutting path id: path63-11)
(Change tool to Default tool)

G00 Z10.000000
G00 X12.561039 Y158.913180

G01 Z0.000000 F1000.0(Penetrate)
G01 X18.921332 Y158.913180 Z0.000000 F1000.000000
G01 X18.921332 Y158.913180 Z0.000000
G01 X18.921332 Y158.913180 Z0.000000
G00 Z10.000000

(End cutting path id: path63-11)


(Start cutting path id: path59-8)
(Change tool to Default tool)

G00 Z10.000000
G00 X28.461773 Y165.266810

G01 Z0.000000 F1000.0(Penetrate)
G01 X12.561039 Y165.266810 Z0.000000 F1000.000000
G00 Z10.000000

(End cutting path id: path59-8)


(Start cutting path id: path65-7)
(Change tool to Default tool)

G00 Z10.000000
G00 X12.561039 Y171.620410

G01 Z0.000000 F1000.0(Penetrate)
G01 X18.921332 Y171.620410 Z0.000000 F1000.000000
G00 Z10.000000

(End cutting path id: path65-7)


(Start cutting path id: path61-5)
(Change tool to Default tool)

G00 Z10.000000
G00 X12.561039 Y177.974050

G01 Z0.000000 F1000.0(Penetrate)
G01 X22.101478 Y177.974050 Z0.000000 F1000.000000
G00 Z10.000000

(End cutting path id: path61-5)


(Start cutting path id: path63-1)
(Change tool to Default tool)

G00 Z10.000000
G00 X12.561039 Y184.327670

G01 Z0.000000 F1000.0(Penetrate)
G01 X18.921332 Y184.327670 Z0.000000 F1000.000000
G01 X18.921332 Y184.327670 Z0.000000
G01 X18.921332 Y184.327670 Z0.000000
G00 Z10.000000

(End cutting path id: path63-1)


(Start cutting path id: path636)
(Change tool to Default tool)

G00 Z10.000000
G00 X12.561039 Y193.858100

G01 Z0.000000 F1000.0(Penetrate)
G01 X15.741186 Y193.858100 Z0.000000 F1000.000000
G00 Z10.000000

(End cutting path id: path636)


(Start cutting path id: path65)
(Change tool to Default tool)

G00 Z10.000000
G00 X12.561039 Y197.034918

G01 Z0.000000 F1000.0(Penetrate)
G01 X18.921332 Y197.034918 Z0.000000 F1000.000000
G00 Z10.000000

(End cutting path id: path65)


(Start cutting path id: path634)
(Change tool to Default tool)

G00 Z10.000000
G00 X12.561039 Y200.211719

G01 Z0.000000 F1000.0(Penetrate)
G01 X15.741186 Y200.211719 Z0.000000 F1000.000000
G00 Z10.000000

(End cutting path id: path634)


(Start cutting path id: path61)
(Change tool to Default tool)

G00 Z10.000000
G00 X12.561039 Y203.388528

G01 Z0.000000 F1000.0(Penetrate)
G01 X22.101478 Y203.388528 Z0.000000 F1000.000000
G00 Z10.000000

(End cutting path id: path61)


(Start cutting path id: path632)
(Change tool to Default tool)

G00 Z10.000000
G00 X12.561039 Y206.565346

G01 Z0.000000 F1000.0(Penetrate)
G01 X15.741186 Y206.565346 Z0.000000 F1000.000000
G00 Z10.000000

(End cutting path id: path632)


(Start cutting path id: path63)
(Change tool to Default tool)

G00 Z10.000000
G00 X12.561039 Y209.742153

G01 Z0.000000 F1000.0(Penetrate)
G01 X18.921332 Y209.742153 Z0.000000 F1000.000000
G01 X18.921332 Y209.742153 Z0.000000
G01 X18.921332 Y209.742153 Z0.000000
G00 Z10.000000

(End cutting path id: path63)


(Start cutting path id: path630)
(Change tool to Default tool)

G00 Z10.000000
G00 X12.561039 Y212.918962

G01 Z0.000000 F1000.0(Penetrate)
G01 X15.741186 Y212.918962 Z0.000000 F1000.000000
G00 Z10.000000

(End cutting path id: path630)


(Start cutting path id: path59)
(Change tool to Default tool)

G00 Z10.000000
G00 X28.461773 Y216.095768

G01 Z0.000000 F1000.0(Penetrate)
G01 X12.561039 Y216.095768 Z0.000000 F1000.000000
G00 Z10.000000

(End cutting path id: path59)


(Start cutting path id: path1693)
(Change tool to Default tool)

G00 Z10.000000
G00 X6.200746 Y190.681300

G01 Z0.000000 F1000.0(Penetrate)
G01 X6.200746 Y38.194320 Z0.000000 F1000.000000
G00 Z10.000000

(End cutting path id: path1693)


(Start cutting path id: path59-56)
(Change tool to Default tool)

G00 Z10.000000
G00 X28.461773 Y38.194380

G01 Z0.000000 F1000.0(Penetrate)
G01 X12.561039 Y38.194380 Z0.000000 F1000.000000
G00 Z10.000000

(End cutting path id: path59-56)


(Start cutting path id: path59-1)
(Change tool to Default tool)

G00 Z10.000000
G00 X28.461773 Y190.681300

G01 Z0.000000 F1000.0(Penetrate)
G01 X12.561039 Y190.681300 Z0.000000 F1000.000000
G00 Z10.000000

(End cutting path id: path59-1)

; prh - end of generated gcode
; this is my prh footer

G54     ; change back to default coordinate system
; this is my prh header

G55     ; change to 12x9x4 coordinate system

; prh - start of generated gcode
G21 (All units in mm)

(Start cutting path id: path136821-8)
(Change tool to Default tool)

G00 Z10.000000
G00 X291.989010 Y215.747690

G01 Z0.000000 F1000.0(Penetrate)
G01 X291.989010 Y12.547690 Z0.000000 F1000.000000
G00 Z10.000000

(End cutting path id: path136821-8)


(Start cutting path id: path628-7)
(Change tool to Default tool)

G00 Z10.000000
G00 X292.100000 Y12.627510

G01 Z0.000000 F1000.0(Penetrate)
G01 X279.400000 Y12.627510 Z0.000000 F1000.000000
G00 Z10.000000

(End cutting path id: path628-7)


(Start cutting path id: path650-4)
(Change tool to Default tool)

G00 Z10.000000
G00 X292.100000 Y15.804330

G01 Z0.000000 F1000.0(Penetrate)
G01 X289.559990 Y15.804330 Z0.000000 F1000.000000
G00 Z10.000000

(End cutting path id: path650-4)


(Start cutting path id: path65-91-1)
(Change tool to Default tool)

G00 Z10.000000
G00 X292.100000 Y18.981190

G01 Z0.000000 F1000.0(Penetrate)
G01 X287.020000 Y18.981190 Z0.000000 F1000.000000
G00 Z10.000000

(End cutting path id: path65-91-1)


(Start cutting path id: path652-3)
(Change tool to Default tool)

G00 Z10.000000
G00 X292.100000 Y22.157940

G01 Z0.000000 F1000.0(Penetrate)
G01 X289.559990 Y22.157940 Z0.000000 F1000.000000
G00 Z10.000000

(End cutting path id: path652-3)


(Start cutting path id: path61-7-3)
(Change tool to Default tool)

G00 Z10.000000
G00 X292.100000 Y25.334820

G01 Z0.000000 F1000.0(Penetrate)
G01 X284.480000 Y25.334820 Z0.000000 F1000.000000
G00 Z10.000000

(End cutting path id: path61-7-3)


(Start cutting path id: path654-98)
(Change tool to Default tool)

G00 Z10.000000
G00 X292.100000 Y28.511570

G01 Z0.000000 F1000.0(Penetrate)
G01 X289.559990 Y28.511570 Z0.000000 F1000.000000
G00 Z10.000000

(End cutting path id: path654-98)


(Start cutting path id: path63-0-9)
(Change tool to Default tool)

G00 Z10.000000
G00 X292.100000 Y31.688450

G01 Z0.000000 F1000.0(Penetrate)
G01 X287.020000 Y31.688450 Z0.000000 F1000.000000
G01 X287.020000 Y31.688450 Z0.000000
G01 X287.020000 Y31.688450 Z0.000000
G00 Z10.000000

(End cutting path id: path63-0-9)


(Start cutting path id: path656-2)
(Change tool to Default tool)

G00 Z10.000000
G00 X292.100000 Y34.865210

G01 Z0.000000 F1000.0(Penetrate)
G01 X289.559990 Y34.865210 Z0.000000 F1000.000000
G00 Z10.000000

(End cutting path id: path656-2)


(Start cutting path id: path65-5-4)
(Change tool to Default tool)

G00 Z10.000000
G00 X292.100000 Y44.395680

G01 Z0.000000 F1000.0(Penetrate)
G01 X287.020000 Y44.395680 Z0.000000 F1000.000000
G00 Z10.000000

(End cutting path id: path65-5-4)


(Start cutting path id: path61-2-9)
(Change tool to Default tool)

G00 Z10.000000
G00 X292.100000 Y50.749310

G01 Z0.000000 F1000.0(Penetrate)
G01 X284.480000 Y50.749310 Z0.000000 F1000.000000
G00 Z10.000000

(End cutting path id: path61-2-9)


(Start cutting path id: path63-5-0)
(Change tool to Default tool)

G00 Z10.000000
G00 X292.100000 Y57.102920

G01 Z0.000000 F1000.0(Penetrate)
G01 X287.020000 Y57.102920 Z0.000000 F1000.000000
G01 X287.020000 Y57.102920 Z0.000000
G01 X287.020000 Y57.102920 Z0.000000
G00 Z10.000000

(End cutting path id: path63-5-0)


(Start cutting path id: path59-5-3)
(Change tool to Default tool)

G00 Z10.000000
G00 X279.400000 Y63.456540

G01 Z0.000000 F1000.0(Penetrate)
G01 X292.100000 Y63.456540 Z0.000000 F1000.000000
G00 Z10.000000

(End cutting path id: path59-5-3)


(Start cutting path id: path65-4-3)
(Change tool to Default tool)

G00 Z10.000000
G00 X292.100000 Y69.810160

G01 Z0.000000 F1000.0(Penetrate)
G01 X287.020000 Y69.810160 Z0.000000 F1000.000000
G00 Z10.000000

(End cutting path id: path65-4-3)


(Start cutting path id: path61-4-3)
(Change tool to Default tool)

G00 Z10.000000
G00 X292.100000 Y76.163800

G01 Z0.000000 F1000.0(Penetrate)
G01 X284.480000 Y76.163800 Z0.000000 F1000.000000
G00 Z10.000000

(End cutting path id: path61-4-3)


(Start cutting path id: path63-7-0)
(Change tool to Default tool)

G00 Z10.000000
G00 X292.100000 Y82.517410

G01 Z0.000000 F1000.0(Penetrate)
G01 X287.020000 Y82.517410 Z0.000000 F1000.000000
G01 X287.020000 Y82.517410 Z0.000000
G01 X287.020000 Y82.517410 Z0.000000
G00 Z10.000000

(End cutting path id: path63-7-0)


(Start cutting path id: path59-82-3)
(Change tool to Default tool)

G00 Z10.000000
G00 X279.400000 Y88.871030

G01 Z0.000000 F1000.0(Penetrate)
G01 X292.100000 Y88.871030 Z0.000000 F1000.000000
G00 Z10.000000

(End cutting path id: path59-82-3)


(Start cutting path id: path65-2-6)
(Change tool to Default tool)

G00 Z10.000000
G00 X292.100000 Y95.224660

G01 Z0.000000 F1000.0(Penetrate)
G01 X287.020000 Y95.224660 Z0.000000 F1000.000000
G00 Z10.000000

(End cutting path id: path65-2-6)


(Start cutting path id: path61-68-7)
(Change tool to Default tool)

G00 Z10.000000
G00 X292.100000 Y101.578280

G01 Z0.000000 F1000.0(Penetrate)
G01 X284.480000 Y101.578280 Z0.000000 F1000.000000
G00 Z10.000000

(End cutting path id: path61-68-7)


(Start cutting path id: path63-4-7)
(Change tool to Default tool)

G00 Z10.000000
G00 X292.100000 Y107.931910

G01 Z0.000000 F1000.0(Penetrate)
G01 X287.020000 Y107.931910 Z0.000000 F1000.000000
G01 X287.020000 Y107.931910 Z0.000000
G01 X287.020000 Y107.931910 Z0.000000
G00 Z10.000000

(End cutting path id: path63-4-7)


(Start cutting path id: path59-6-3)
(Change tool to Default tool)

G00 Z10.000000
G00 X279.400000 Y114.285530

G01 Z0.000000 F1000.0(Penetrate)
G01 X292.100000 Y114.285530 Z0.000000 F1000.000000
G00 Z10.000000

(End cutting path id: path59-6-3)


(Start cutting path id: path65-9-4)
(Change tool to Default tool)

G00 Z10.000000
G00 X292.100000 Y120.639150

G01 Z0.000000 F1000.0(Penetrate)
G01 X287.020000 Y120.639150 Z0.000000 F1000.000000
G00 Z10.000000

(End cutting path id: path65-9-4)


(Start cutting path id: path61-6-8)
(Change tool to Default tool)

G00 Z10.000000
G00 X292.100000 Y126.992770

G01 Z0.000000 F1000.0(Penetrate)
G01 X284.480000 Y126.992770 Z0.000000 F1000.000000
G00 Z10.000000

(End cutting path id: path61-6-8)


(Start cutting path id: path63-113-5)
(Change tool to Default tool)

G00 Z10.000000
G00 X292.100000 Y133.346380

G01 Z0.000000 F1000.0(Penetrate)
G01 X287.020000 Y133.346380 Z0.000000 F1000.000000
G01 X287.020000 Y133.346380 Z0.000000
G01 X287.020000 Y133.346380 Z0.000000
G00 Z10.000000

(End cutting path id: path63-113-5)


(Start cutting path id: path59-4-5)
(Change tool to Default tool)

G00 Z10.000000
G00 X279.400000 Y139.700000

G01 Z0.000000 F1000.0(Penetrate)
G01 X292.100000 Y139.700000 Z0.000000 F1000.000000
G00 Z10.000000

(End cutting path id: path59-4-5)


(Start cutting path id: path65-3-0)
(Change tool to Default tool)

G00 Z10.000000
G00 X292.100000 Y146.053640

G01 Z0.000000 F1000.0(Penetrate)
G01 X287.020000 Y146.053640 Z0.000000 F1000.000000
G00 Z10.000000

(End cutting path id: path65-3-0)


(Start cutting path id: path61-55-0)
(Change tool to Default tool)

G00 Z10.000000
G00 X292.100000 Y152.407250

G01 Z0.000000 F1000.0(Penetrate)
G01 X284.480000 Y152.407250 Z0.000000 F1000.000000
G00 Z10.000000

(End cutting path id: path61-55-0)


(Start cutting path id: path63-11-4)
(Change tool to Default tool)

G00 Z10.000000
G00 X292.100000 Y158.760870

G01 Z0.000000 F1000.0(Penetrate)
G01 X287.020000 Y158.760870 Z0.000000 F1000.000000
G01 X287.020000 Y158.760870 Z0.000000
G01 X287.020000 Y158.760870 Z0.000000
G00 Z10.000000

(End cutting path id: path63-11-4)


(Start cutting path id: path59-8-2)
(Change tool to Default tool)

G00 Z10.000000
G00 X279.400000 Y165.114500

G01 Z0.000000 F1000.0(Penetrate)
G01 X292.100000 Y165.114500 Z0.000000 F1000.000000
G00 Z10.000000

(End cutting path id: path59-8-2)


(Start cutting path id: path65-7-1)
(Change tool to Default tool)

G00 Z10.000000
G00 X292.100000 Y171.468100

G01 Z0.000000 F1000.0(Penetrate)
G01 X287.020000 Y171.468100 Z0.000000 F1000.000000
G00 Z10.000000

(End cutting path id: path65-7-1)


(Start cutting path id: path61-5-4)
(Change tool to Default tool)

G00 Z10.000000
G00 X292.100000 Y177.821740

G01 Z0.000000 F1000.0(Penetrate)
G01 X284.480000 Y177.821740 Z0.000000 F1000.000000
G00 Z10.000000

(End cutting path id: path61-5-4)


(Start cutting path id: path63-1-9)
(Change tool to Default tool)

G00 Z10.000000
G00 X292.100000 Y184.175360

G01 Z0.000000 F1000.0(Penetrate)
G01 X287.020000 Y184.175360 Z0.000000 F1000.000000
G01 X287.020000 Y184.175360 Z0.000000
G01 X287.020000 Y184.175360 Z0.000000
G00 Z10.000000

(End cutting path id: path63-1-9)


(Start cutting path id: path59-1-5)
(Change tool to Default tool)

G00 Z10.000000
G00 X279.400000 Y190.528990

G01 Z0.000000 F1000.0(Penetrate)
G01 X292.100000 Y190.528990 Z0.000000 F1000.000000
G00 Z10.000000

(End cutting path id: path59-1-5)


(Start cutting path id: path636-1)
(Change tool to Default tool)

G00 Z10.000000
G00 X292.100000 Y193.705790

G01 Z0.000000 F1000.0(Penetrate)
G01 X289.559990 Y193.705790 Z0.000000 F1000.000000
G00 Z10.000000

(End cutting path id: path636-1)


(Start cutting path id: path65-0)
(Change tool to Default tool)

G00 Z10.000000
G00 X292.100000 Y196.882610

G01 Z0.000000 F1000.0(Penetrate)
G01 X287.020000 Y196.882610 Z0.000000 F1000.000000
G00 Z10.000000

(End cutting path id: path65-0)


(Start cutting path id: path634-6)
(Change tool to Default tool)

G00 Z10.000000
G00 X292.100000 Y200.059409

G01 Z0.000000 F1000.0(Penetrate)
G01 X289.559990 Y200.059409 Z0.000000 F1000.000000
G00 Z10.000000

(End cutting path id: path634-6)


(Start cutting path id: path61-0)
(Change tool to Default tool)

G00 Z10.000000
G00 X292.100000 Y203.236218

G01 Z0.000000 F1000.0(Penetrate)
G01 X284.480000 Y203.236218 Z0.000000 F1000.000000
G00 Z10.000000

(End cutting path id: path61-0)


(Start cutting path id: path632-2)
(Change tool to Default tool)

G00 Z10.000000
G00 X292.100000 Y206.413036

G01 Z0.000000 F1000.0(Penetrate)
G01 X289.559990 Y206.413036 Z0.000000 F1000.000000
G00 Z10.000000

(End cutting path id: path632-2)


(Start cutting path id: path63-07)
(Change tool to Default tool)

G00 Z10.000000
G00 X292.100000 Y209.589843

G01 Z0.000000 F1000.0(Penetrate)
G01 X287.020000 Y209.589843 Z0.000000 F1000.000000
G01 X287.020000 Y209.589843 Z0.000000
G01 X287.020000 Y209.589843 Z0.000000
G00 Z10.000000

(End cutting path id: path63-07)


(Start cutting path id: path630-3)
(Change tool to Default tool)

G00 Z10.000000
G00 X292.100000 Y212.766652

G01 Z0.000000 F1000.0(Penetrate)
G01 X289.559990 Y212.766652 Z0.000000 F1000.000000
G00 Z10.000000

(End cutting path id: path630-3)


(Start cutting path id: path59-61)
(Change tool to Default tool)

G00 Z10.000000
G00 X279.400000 Y215.943458

G01 Z0.000000 F1000.0(Penetrate)
G01 X292.100000 Y215.943458 Z0.000000 F1000.000000
G00 Z10.000000

(End cutting path id: path59-61)


(Start cutting path id: path1695)
(Change tool to Default tool)

G00 Z10.000000
G00 X298.774240 Y190.681300

G01 Z0.000000 F1000.0(Penetrate)
G01 X298.774240 Y38.194320 Z0.000000 F1000.000000
G00 Z10.000000

(End cutting path id: path1695)


(Start cutting path id: path59-56-4)
(Change tool to Default tool)

G00 Z10.000000
G00 X279.400000 Y38.042070

G01 Z0.000000 F1000.0(Penetrate)
G01 X292.100000 Y38.042070 Z0.000000 F1000.000000
G00 Z10.000000

(End cutting path id: path59-56-4)

; prh - end of generated gcode
; this is my prh footer

G54     ; change back to default coordinate system
; this is my prh header

G55     ; change to 12x9x4 coordinate system

; prh - start of generated gcode
G21 (All units in mm)

(Start cutting path id: path1083-8)
(Change tool to Default tool)

G00 Z10.000000
G00 X266.972660 Y25.487130

G01 Z0.000000 F1000.0(Penetrate)
G01 X266.972660 Y12.779890 Z0.000000 F1000.000000
G00 Z10.000000

(End cutting path id: path1083-8)


(Start cutting path id: path1089-5)
(Change tool to Default tool)

G00 Z10.000000
G00 X260.612400 Y19.133500

G01 Z0.000000 F1000.0(Penetrate)
G01 X260.612400 Y12.779890 Z0.000000 F1000.000000
G00 Z10.000000

(End cutting path id: path1089-5)


(Start cutting path id: path1085-95)
(Change tool to Default tool)

G00 Z10.000000
G00 X254.252100 Y22.310320

G01 Z0.000000 F1000.0(Penetrate)
G01 X254.252100 Y12.779890 Z0.000000 F1000.000000
G00 Z10.000000

(End cutting path id: path1085-95)


(Start cutting path id: path1087-5)
(Change tool to Default tool)

G00 Z10.000000
G00 X247.891800 Y19.133500

G01 Z0.000000 F1000.0(Penetrate)
G01 X247.891800 Y12.779890 Z0.000000 F1000.000000
G00 Z10.000000

(End cutting path id: path1087-5)


(Start cutting path id: path1083-7)
(Change tool to Default tool)

G00 Z10.000000
G00 X241.531510 Y25.487130

G01 Z0.000000 F1000.0(Penetrate)
G01 X241.531510 Y12.779890 Z0.000000 F1000.000000
G00 Z10.000000

(End cutting path id: path1083-7)


(Start cutting path id: path1089-77)
(Change tool to Default tool)

G00 Z10.000000
G00 X235.171220 Y19.133500

G01 Z0.000000 F1000.0(Penetrate)
G01 X235.171220 Y12.779890 Z0.000000 F1000.000000
G00 Z10.000000

(End cutting path id: path1089-77)


(Start cutting path id: path1085-2)
(Change tool to Default tool)

G00 Z10.000000
G00 X228.810940 Y22.310320

G01 Z0.000000 F1000.0(Penetrate)
G01 X228.810940 Y12.779890 Z0.000000 F1000.000000
G00 Z10.000000

(End cutting path id: path1085-2)


(Start cutting path id: path1087-8)
(Change tool to Default tool)

G00 Z10.000000
G00 X222.450640 Y19.133500

G01 Z0.000000 F1000.0(Penetrate)
G01 X222.450640 Y12.779890 Z0.000000 F1000.000000
G00 Z10.000000

(End cutting path id: path1087-8)


(Start cutting path id: path1083-0)
(Change tool to Default tool)

G00 Z10.000000
G00 X216.090360 Y25.487130

G01 Z0.000000 F1000.0(Penetrate)
G01 X216.090360 Y12.779890 Z0.000000 F1000.000000
G00 Z10.000000

(End cutting path id: path1083-0)


(Start cutting path id: path1089-8)
(Change tool to Default tool)

G00 Z10.000000
G00 X209.730070 Y19.133500

G01 Z0.000000 F1000.0(Penetrate)
G01 X209.730070 Y12.779890 Z0.000000 F1000.000000
G00 Z10.000000

(End cutting path id: path1089-8)


(Start cutting path id: path1085-49)
(Change tool to Default tool)

G00 Z10.000000
G00 X203.369760 Y22.310320

G01 Z0.000000 F1000.0(Penetrate)
G01 X203.369760 Y12.779890 Z0.000000 F1000.000000
G00 Z10.000000

(End cutting path id: path1085-49)


(Start cutting path id: path1087-9)
(Change tool to Default tool)

G00 Z10.000000
G00 X197.009480 Y19.133500

G01 Z0.000000 F1000.0(Penetrate)
G01 X197.009480 Y12.779890 Z0.000000 F1000.000000
G00 Z10.000000

(End cutting path id: path1087-9)


(Start cutting path id: path1083-3)
(Change tool to Default tool)

G00 Z10.000000
G00 X190.649180 Y25.487130

G01 Z0.000000 F1000.0(Penetrate)
G01 X190.649180 Y12.779890 Z0.000000 F1000.000000
G00 Z10.000000

(End cutting path id: path1083-3)


(Start cutting path id: path1089-7)
(Change tool to Default tool)

G00 Z10.000000
G00 X184.288890 Y19.133500

G01 Z0.000000 F1000.0(Penetrate)
G01 X184.288890 Y12.779890 Z0.000000 F1000.000000
G00 Z10.000000

(End cutting path id: path1089-7)


(Start cutting path id: path1085-70)
(Change tool to Default tool)

G00 Z10.000000
G00 X177.928610 Y22.310320

G01 Z0.000000 F1000.0(Penetrate)
G01 X177.928610 Y12.779890 Z0.000000 F1000.000000
G00 Z10.000000

(End cutting path id: path1085-70)


(Start cutting path id: path1087-75)
(Change tool to Default tool)

G00 Z10.000000
G00 X171.568300 Y19.133500

G01 Z0.000000 F1000.0(Penetrate)
G01 X171.568300 Y12.779890 Z0.000000 F1000.000000
G00 Z10.000000

(End cutting path id: path1087-75)


(Start cutting path id: path1083-4)
(Change tool to Default tool)

G00 Z10.000000
G00 X165.208010 Y25.487130

G01 Z0.000000 F1000.0(Penetrate)
G01 X165.208010 Y12.779890 Z0.000000 F1000.000000
G00 Z10.000000

(End cutting path id: path1083-4)


(Start cutting path id: path1089-62)
(Change tool to Default tool)

G00 Z10.000000
G00 X158.847740 Y19.133500

G01 Z0.000000 F1000.0(Penetrate)
G01 X158.847740 Y12.779890 Z0.000000 F1000.000000
G00 Z10.000000

(End cutting path id: path1089-62)


(Start cutting path id: path1085-76)
(Change tool to Default tool)

G00 Z10.000000
G00 X152.487450 Y22.310320

G01 Z0.000000 F1000.0(Penetrate)
G01 X152.487450 Y12.779890 Z0.000000 F1000.000000
G00 Z10.000000

(End cutting path id: path1085-76)


(Start cutting path id: path1087-1)
(Change tool to Default tool)

G00 Z10.000000
G00 X146.127150 Y19.133500

G01 Z0.000000 F1000.0(Penetrate)
G01 X146.127150 Y12.779890 Z0.000000 F1000.000000
G00 Z10.000000

(End cutting path id: path1087-1)


(Start cutting path id: path1083-60)
(Change tool to Default tool)

G00 Z10.000000
G00 X139.766870 Y25.487130

G01 Z0.000000 F1000.0(Penetrate)
G01 X139.766870 Y12.779890 Z0.000000 F1000.000000
G00 Z10.000000

(End cutting path id: path1083-60)


(Start cutting path id: path1089-0)
(Change tool to Default tool)

G00 Z10.000000
G00 X133.406570 Y19.133500

G01 Z0.000000 F1000.0(Penetrate)
G01 X133.406570 Y12.779890 Z0.000000 F1000.000000
G00 Z10.000000

(End cutting path id: path1089-0)


(Start cutting path id: path1085-9)
(Change tool to Default tool)

G00 Z10.000000
G00 X127.046270 Y22.310320

G01 Z0.000000 F1000.0(Penetrate)
G01 X127.046270 Y12.779890 Z0.000000 F1000.000000
G00 Z10.000000

(End cutting path id: path1085-9)


(Start cutting path id: path1087-39)
(Change tool to Default tool)

G00 Z10.000000
G00 X120.685980 Y19.133500

G01 Z0.000000 F1000.0(Penetrate)
G01 X120.685980 Y12.779890 Z0.000000 F1000.000000
G00 Z10.000000

(End cutting path id: path1087-39)


(Start cutting path id: path1083-2)
(Change tool to Default tool)

G00 Z10.000000
G00 X114.325690 Y25.487130

G01 Z0.000000 F1000.0(Penetrate)
G01 X114.325690 Y12.779890 Z0.000000 F1000.000000
G00 Z10.000000

(End cutting path id: path1083-2)


(Start cutting path id: path1089-1)
(Change tool to Default tool)

G00 Z10.000000
G00 X107.965400 Y19.133500

G01 Z0.000000 F1000.0(Penetrate)
G01 X107.965400 Y12.779890 Z0.000000 F1000.000000
G00 Z10.000000

(End cutting path id: path1089-1)


(Start cutting path id: path1085-7)
(Change tool to Default tool)

G00 Z10.000000
G00 X101.605110 Y22.310320

G01 Z0.000000 F1000.0(Penetrate)
G01 X101.605110 Y12.779890 Z0.000000 F1000.000000
G00 Z10.000000

(End cutting path id: path1085-7)


(Start cutting path id: path1087-7)
(Change tool to Default tool)

G00 Z10.000000
G00 X95.244817 Y19.133500

G01 Z0.000000 F1000.0(Penetrate)
G01 X95.244817 Y12.779890 Z0.000000 F1000.000000
G00 Z10.000000

(End cutting path id: path1087-7)


(Start cutting path id: path1083-6)
(Change tool to Default tool)

G00 Z10.000000
G00 X88.884524 Y25.487130

G01 Z0.000000 F1000.0(Penetrate)
G01 X88.884524 Y12.779890 Z0.000000 F1000.000000
G00 Z10.000000

(End cutting path id: path1083-6)


(Start cutting path id: path1089-6)
(Change tool to Default tool)

G00 Z10.000000
G00 X82.524237 Y19.133500

G01 Z0.000000 F1000.0(Penetrate)
G01 X82.524237 Y12.779890 Z0.000000 F1000.000000
G00 Z10.000000

(End cutting path id: path1089-6)


(Start cutting path id: path1085-4)
(Change tool to Default tool)

G00 Z10.000000
G00 X76.163946 Y22.310320

G01 Z0.000000 F1000.0(Penetrate)
G01 X76.163946 Y12.779890 Z0.000000 F1000.000000
G00 Z10.000000

(End cutting path id: path1085-4)


(Start cutting path id: path1087-3)
(Change tool to Default tool)

G00 Z10.000000
G00 X69.803655 Y19.133500

G01 Z0.000000 F1000.0(Penetrate)
G01 X69.803655 Y12.779890 Z0.000000 F1000.000000
G00 Z10.000000

(End cutting path id: path1087-3)


(Start cutting path id: path1083-9)
(Change tool to Default tool)

G00 Z10.000000
G00 X63.443360 Y25.487130

G01 Z0.000000 F1000.0(Penetrate)
G01 X63.443360 Y12.779890 Z0.000000 F1000.000000
G00 Z10.000000

(End cutting path id: path1083-9)


(Start cutting path id: path1089)
(Change tool to Default tool)

G00 Z10.000000
G00 X57.083074 Y19.133500

G01 Z0.000000 F1000.0(Penetrate)
G01 X57.083074 Y12.779890 Z0.000000 F1000.000000
G00 Z10.000000

(End cutting path id: path1089)


(Start cutting path id: path1085)
(Change tool to Default tool)

G00 Z10.000000
G00 X50.722782 Y22.310320

G01 Z0.000000 F1000.0(Penetrate)
G01 X50.722782 Y12.779890 Z0.000000 F1000.000000
G00 Z10.000000

(End cutting path id: path1085)


(Start cutting path id: path1087)
(Change tool to Default tool)

G00 Z10.000000
G00 X44.362487 Y19.133500

G01 Z0.000000 F1000.0(Penetrate)
G01 X44.362487 Y12.779890 Z0.000000 F1000.000000
G00 Z10.000000

(End cutting path id: path1087)


(Start cutting path id: path1075)
(Change tool to Default tool)

G00 Z10.000000
G00 X38.002195 Y12.779890

G01 Z0.000000 F1000.0(Penetrate)
G01 X266.972660 Y12.779890 Z0.000000 F1000.000000
G00 Z10.000000

(End cutting path id: path1075)


(Start cutting path id: path1083)
(Change tool to Default tool)

G00 Z10.000000
G00 X38.002195 Y25.487130

G01 Z0.000000 F1000.0(Penetrate)
G01 X38.002195 Y12.779890 Z0.000000 F1000.000000
G00 Z10.000000

(End cutting path id: path1083)

; prh - end of generated gcode
; this is my prh footer

G54     ; change back to default coordinate system
; this is my prh header

G55     ; change to 12x9x4 coordinate system

; prh - start of generated gcode
G21 (All units in mm)

(Start cutting path id: path1800)
(Change tool to Default tool)

G00 Z10.000000
G00 X123.866140 Y47.089440

G01 Z0.000000 F1000.0(Penetrate)
G01 X111.145540 Y33.746840 Z0.000000 F1000.000000
G00 Z10.000000

(End cutting path id: path1800)


(Start cutting path id: path1798)
(Change tool to Default tool)

G00 Z10.000000
G00 X111.145540 Y47.089440

G01 Z0.000000 F1000.0(Penetrate)
G01 X98.424969 Y33.746840 Z0.000000 F1000.000000
G00 Z10.000000

(End cutting path id: path1798)


(Start cutting path id: path1794)
(Change tool to Default tool)

G00 Z10.000000
G00 X98.424969 Y60.432050

G01 Z0.000000 F1000.0(Penetrate)
G01 X72.983804 Y33.746840 Z0.000000 F1000.000000
G00 Z10.000000

(End cutting path id: path1794)


(Start cutting path id: path1790)
(Change tool to Default tool)

G00 Z10.000000
G00 X60.263219 Y47.089440

G01 Z0.000000 F1000.0(Penetrate)
G01 X85.704384 Y73.774620 Z0.000000 F1000.000000
G00 Z10.000000

(End cutting path id: path1790)


(Start cutting path id: path1788)
(Change tool to Default tool)

G00 Z10.000000
G00 X98.424969 Y73.774620

G01 Z0.000000 F1000.0(Penetrate)
G01 X60.263219 Y33.746840 Z0.000000 F1000.000000
G00 Z10.000000

(End cutting path id: path1788)


(Start cutting path id: path1772)
(Change tool to Default tool)

G00 Z10.000000
G00 X60.263219 Y47.089440

G01 Z0.000000 F1000.0(Penetrate)
G01 X123.866140 Y47.089440 Z0.000000 F1000.000000
G00 Z10.000000

(End cutting path id: path1772)


(Start cutting path id: path1796)
(Change tool to Default tool)

G00 Z10.000000
G00 X111.145540 Y60.432050

G01 Z0.000000 F1000.0(Penetrate)
G01 X85.704384 Y33.746840 Z0.000000 F1000.000000
G00 Z10.000000

(End cutting path id: path1796)


(Start cutting path id: path1770)
(Change tool to Default tool)

G00 Z10.000000
G00 X60.263219 Y60.432050

G01 Z0.000000 F1000.0(Penetrate)
G01 X123.866140 Y60.432050 Z0.000000 F1000.000000
G00 Z10.000000

(End cutting path id: path1770)


(Start cutting path id: path1782)
(Change tool to Default tool)

G00 Z10.000000
G00 X111.145540 Y100.459850

G01 Z0.000000 F1000.0(Penetrate)
G01 X123.866140 Y87.117270 Z0.000000 F1000.000000
G00 Z10.000000

(End cutting path id: path1782)


(Start cutting path id: path1758)
(Change tool to Default tool)

G00 Z10.000000
G00 X111.145540 Y100.459850

G01 Z0.000000 F1000.0(Penetrate)
G01 X111.145540 Y33.746840 Z0.000000 F1000.000000
G00 Z10.000000

(End cutting path id: path1758)


(Start cutting path id: path1786)
(Change tool to Default tool)

G00 Z10.000000
G00 X85.704384 Y87.117270

G01 Z0.000000 F1000.0(Penetrate)
G01 X60.263219 Y60.432050 Z0.000000 F1000.000000
G00 Z10.000000

(End cutting path id: path1786)


(Start cutting path id: path1792)
(Change tool to Default tool)

G00 Z10.000000
G00 X60.263219 Y73.774620

G01 Z0.000000 F1000.0(Penetrate)
G01 X72.983804 Y87.117270 Z0.000000 F1000.000000
G00 Z10.000000

(End cutting path id: path1792)


(Start cutting path id: path1766)
(Change tool to Default tool)

G00 Z10.000000
G00 X60.263219 Y87.117270

G01 Z0.000000 F1000.0(Penetrate)
G01 X123.866140 Y87.117270 Z0.000000 F1000.000000
G00 Z10.000000

(End cutting path id: path1766)


(Start cutting path id: path1780)
(Change tool to Default tool)

G00 Z10.000000
G00 X98.424969 Y100.459850

G01 Z0.000000 F1000.0(Penetrate)
G01 X123.866140 Y73.774620 Z0.000000 F1000.000000
G00 Z10.000000

(End cutting path id: path1780)


(Start cutting path id: path1760)
(Change tool to Default tool)

G00 Z10.000000
G00 X98.424969 Y100.459850

G01 Z0.000000 F1000.0(Penetrate)
G01 X98.424969 Y33.746840 Z0.000000 F1000.000000
G00 Z10.000000

(End cutting path id: path1760)


(Start cutting path id: path1768)
(Change tool to Default tool)

G00 Z10.000000
G00 X60.263219 Y73.774620

G01 Z0.000000 F1000.0(Penetrate)
G01 X123.866140 Y73.774620 Z0.000000 F1000.000000
G00 Z10.000000

(End cutting path id: path1768)


(Start cutting path id: path1778)
(Change tool to Default tool)

G00 Z10.000000
G00 X85.704384 Y100.459850

G01 Z0.000000 F1000.0(Penetrate)
G01 X123.866140 Y60.432050 Z0.000000 F1000.000000
G00 Z10.000000

(End cutting path id: path1778)


(Start cutting path id: path1762)
(Change tool to Default tool)

G00 Z10.000000
G00 X85.704384 Y100.459850

G01 Z0.000000 F1000.0(Penetrate)
G01 X85.704384 Y33.746840 Z0.000000 F1000.000000
G00 Z10.000000

(End cutting path id: path1762)


(Start cutting path id: path1784)
(Change tool to Default tool)

G00 Z10.000000
G00 X72.983804 Y100.459850

G01 Z0.000000 F1000.0(Penetrate)
G01 X60.263219 Y87.117270 Z0.000000 F1000.000000
G00 Z10.000000

(End cutting path id: path1784)


(Start cutting path id: path1774)
(Change tool to Default tool)

G00 Z10.000000
G00 X60.263219 Y100.459850

G01 Z0.000000 F1000.0(Penetrate)
G01 X123.866140 Y33.746840 Z0.000000 F1000.000000
G00 Z10.000000

(End cutting path id: path1774)


(Start cutting path id: path1776)
(Change tool to Default tool)

G00 Z10.000000
G00 X72.983804 Y100.459850

G01 Z0.000000 F1000.0(Penetrate)
G01 X123.866140 Y47.089440 Z0.000000 F1000.000000
G00 Z10.000000

(End cutting path id: path1776)


(Start cutting path id: path1764)
(Change tool to Default tool)

G00 Z10.000000
G00 X72.983804 Y100.459850

G01 Z0.000000 F1000.0(Penetrate)
G01 X72.983804 Y33.746840 Z0.000000 F1000.000000
G00 Z10.000000

(End cutting path id: path1764)


(Start cutting path id: path1756)
(Change tool to Default tool)

G00 Z10.000000
G00 X60.263219 Y100.459850

G01 Z0.000000 F1000.0(Penetrate)
G01 X123.866140 Y100.459850 Z0.000000 F1000.000000
G01 X123.866140 Y33.746840 Z0.000000
G01 X60.263219 Y33.746840 Z0.000000
G01 X60.263219 Y100.459850 Z0.000000
G00 Z10.000000

(End cutting path id: path1756)

; prh - end of generated gcode
; this is my prh footer

G54     ; change back to default coordinate system
; this is my prh header

G55     ; change to 12x9x4 coordinate system

; prh - start of generated gcode
G21 (All units in mm)

(Start cutting path id: path840)
(Change tool to Default tool)

G00 Z10.000000
G00 X140.317631 Y167.768445

G01 Z0.000000 F1000.0(Penetrate)
G01 X140.317631 Y165.267020 Z0.000000 F1000.000000
G00 Z10.000000

(End cutting path id: path840)


(Start cutting path id: path618)
(Change tool to Default tool)

G00 Z10.000000
G00 X142.821680 Y165.267020

G01 Z0.000000 F1000.0(Penetrate)
G03 X136.114330 Y190.276467 Z0.000000 I-49.979573 J0.000000 F1000.000000
G03 X117.781180 Y208.592972 Z0.000000 I-43.345655 J-25.051887
G03 X92.740680 Y215.296461 Z0.000000 I-25.040500 J-43.416932
G03 X67.700180 Y208.592972 Z0.000000 I0.000000 J-50.120421
G03 X49.367030 Y190.276467 Z0.000000 I25.012505 J-43.368392
G03 X42.659680 Y165.267020 Z0.000000 I43.272223 J-25.009447
G01 X142.821680 Y165.267020 Z0.000000
G00 Z10.000000

(End cutting path id: path618)


(Start cutting path id: path762)
(Change tool to Default tool)

G00 Z10.000000
G00 X142.774014 Y167.449232

G01 Z0.000000 F1000.0(Penetrate)
G01 X144.775348 Y167.536522 Z0.000000 F1000.000000
G00 Z10.000000

(End cutting path id: path762)


(Start cutting path id: path756)
(Change tool to Default tool)

G00 Z10.000000
G00 X142.631107 Y169.627291

G01 Z0.000000 F1000.0(Penetrate)
G01 X145.624532 Y169.888907 Z0.000000 F1000.000000
G00 Z10.000000

(End cutting path id: path756)


(Start cutting path id: path758)
(Change tool to Default tool)

G00 Z10.000000
G00 X142.393230 Y171.797050

G01 Z0.000000 F1000.0(Penetrate)
G01 X144.379332 Y172.058251 Z0.000000 F1000.000000
G00 Z10.000000

(End cutting path id: path758)


(Start cutting path id: path760)
(Change tool to Default tool)

G00 Z10.000000
G00 X142.060837 Y173.954378

G01 Z0.000000 F1000.0(Penetrate)
G01 X145.020047 Y174.475619 Z0.000000 F1000.000000
G00 Z10.000000

(End cutting path id: path760)


(Start cutting path id: path752)
(Change tool to Default tool)

G00 Z10.000000
G00 X141.635606 Y176.090459

G01 Z0.000000 F1000.0(Penetrate)
G01 X143.591403 Y176.523395 Z0.000000 F1000.000000
G00 Z10.000000

(End cutting path id: path752)


(Start cutting path id: path754)
(Change tool to Default tool)

G00 Z10.000000
G00 X144.985174 Y179.251215

G01 Z0.000000 F1000.0(Penetrate)
G01 X138.212741 Y177.438449 Z0.000000 F1000.000000
G01 X144.985174 Y179.251215 Z0.000000
G00 Z10.000000

(End cutting path id: path754)


(Start cutting path id: path750)
(Change tool to Default tool)

G00 Z10.000000
G00 X140.503779 Y180.310880

G01 Z0.000000 F1000.0(Penetrate)
G01 X142.414302 Y180.912633 Z0.000000 F1000.000000
G00 Z10.000000

(End cutting path id: path750)


(Start cutting path id: path744)
(Change tool to Default tool)

G00 Z10.000000
G00 X139.801426 Y182.377775

G01 Z0.000000 F1000.0(Penetrate)
G01 X142.625071 Y183.404420 Z0.000000 F1000.000000
G00 Z10.000000

(End cutting path id: path744)


(Start cutting path id: path746)
(Change tool to Default tool)

G00 Z10.000000
G00 X139.009491 Y184.412098

G01 Z0.000000 F1000.0(Penetrate)
G01 X140.860244 Y185.177905 Z0.000000 F1000.000000
G00 Z10.000000

(End cutting path id: path746)


(Start cutting path id: path748)
(Change tool to Default tool)

G00 Z10.000000
G00 X138.129480 Y186.409978

G01 Z0.000000 F1000.0(Penetrate)
G01 X140.852809 Y187.678555 Z0.000000 F1000.000000
G00 Z10.000000

(End cutting path id: path748)


(Start cutting path id: path740)
(Change tool to Default tool)

G00 Z10.000000
G00 X137.165299 Y188.363330

G01 Z0.000000 F1000.0(Penetrate)
G01 X138.942285 Y189.287187 Z0.000000 F1000.000000
G00 Z10.000000

(End cutting path id: path740)


(Start cutting path id: path742)
(Change tool to Default tool)

G00 Z10.000000
G00 X139.581813 Y192.282410

G01 Z0.000000 F1000.0(Penetrate)
G01 X133.509814 Y188.780415 Z0.000000 F1000.000000
G01 X139.581813 Y192.282410 Z0.000000
G00 Z10.000000

(End cutting path id: path742)


(Start cutting path id: path738)
(Change tool to Default tool)

G00 Z10.000000
G00 X134.978567 Y192.147313

G01 Z0.000000 F1000.0(Penetrate)
G01 X136.668082 Y193.222526 Z0.000000 F1000.000000
G00 Z10.000000

(End cutting path id: path738)


(Start cutting path id: path732)
(Change tool to Default tool)

G00 Z10.000000
G00 X133.764633 Y193.962189

G01 Z0.000000 F1000.0(Penetrate)
G01 X136.226070 Y195.683899 Z0.000000 F1000.000000
G00 Z10.000000

(End cutting path id: path732)


(Start cutting path id: path734)
(Change tool to Default tool)

G00 Z10.000000
G00 X132.472609 Y195.722441

G01 Z0.000000 F1000.0(Penetrate)
G01 X134.061886 Y196.940658 Z0.000000 F1000.000000
G00 Z10.000000

(End cutting path id: path734)


(Start cutting path id: path736)
(Change tool to Default tool)

G00 Z10.000000
G00 X131.104952 Y197.424719

G01 Z0.000000 F1000.0(Penetrate)
G01 X133.406808 Y199.354182 Z0.000000 F1000.000000
G00 Z10.000000

(End cutting path id: path736)


(Start cutting path id: path728)
(Change tool to Default tool)

G00 Z10.000000
G00 X129.667530 Y199.062227

G01 Z0.000000 F1000.0(Penetrate)
G01 X131.144604 Y200.414035 Z0.000000 F1000.000000
G00 Z10.000000

(End cutting path id: path728)


(Start cutting path id: path730)
(Change tool to Default tool)

G00 Z10.000000
G00 X130.986305 Y203.472552

G01 Z0.000000 F1000.0(Penetrate)
G01 X126.028538 Y198.519982 Z0.000000 F1000.000000
G01 X130.986305 Y203.472552 Z0.000000
G00 Z10.000000

(End cutting path id: path730)


(Start cutting path id: path726)
(Change tool to Default tool)

G00 Z10.000000
G00 X126.574913 Y202.151899

G01 Z0.000000 F1000.0(Penetrate)
G01 X127.928283 Y203.627295 Z0.000000 F1000.000000
G00 Z10.000000

(End cutting path id: path726)


(Start cutting path id: path720)
(Change tool to Default tool)

G00 Z10.000000
G00 X124.932126 Y203.591074

G01 Z0.000000 F1000.0(Penetrate)
G01 X126.863613 Y205.890517 Z0.000000 F1000.000000
G00 Z10.000000

(End cutting path id: path720)


(Start cutting path id: path722)
(Change tool to Default tool)

G00 Z10.000000
G00 X123.228061 Y204.957298

G01 Z0.000000 F1000.0(Penetrate)
G01 X124.447556 Y206.544909 Z0.000000 F1000.000000
G00 Z10.000000

(End cutting path id: path722)


(Start cutting path id: path724)
(Change tool to Default tool)

G00 Z10.000000
G00 X121.465962 Y206.247968

G01 Z0.000000 F1000.0(Penetrate)
G01 X123.189478 Y208.706825 Z0.000000 F1000.000000
G00 Z10.000000

(End cutting path id: path724)


(Start cutting path id: path716)
(Change tool to Default tool)

G00 Z10.000000
G00 X119.653255 Y207.458036

G01 Z0.000000 F1000.0(Penetrate)
G01 X120.729758 Y209.145677 Z0.000000 F1000.000000
G00 Z10.000000

(End cutting path id: path716)


(Start cutting path id: path718)
(Change tool to Default tool)

G00 Z10.000000
G00 X119.784420 Y212.059049

G01 Z0.000000 F1000.0(Penetrate)
G01 X116.278750 Y205.993416 Z0.000000 F1000.000000
G01 X119.784420 Y212.059049 Z0.000000
G00 Z10.000000

(End cutting path id: path718)


(Start cutting path id: path714)
(Change tool to Default tool)

G00 Z10.000000
G00 X115.865513 Y209.642842

G01 Z0.000000 F1000.0(Penetrate)
G01 X116.790509 Y211.417874 Z0.000000 F1000.000000
G00 Z10.000000

(End cutting path id: path714)


(Start cutting path id: path708)
(Change tool to Default tool)

G00 Z10.000000
G00 X113.905825 Y210.608239

G01 Z0.000000 F1000.0(Penetrate)
G01 X115.175734 Y213.328713 Z0.000000 F1000.000000
G00 Z10.000000

(End cutting path id: path708)


(Start cutting path id: path710)
(Change tool to Default tool)

G00 Z10.000000
G00 X111.905849 Y211.487328

G01 Z0.000000 F1000.0(Penetrate)
G01 X112.672459 Y213.336140 Z0.000000 F1000.000000
G00 Z10.000000

(End cutting path id: path710)


(Start cutting path id: path712)
(Change tool to Default tool)

G00 Z10.000000
G00 X109.869391 Y212.278432

G01 Z0.000000 F1000.0(Penetrate)
G01 X110.897114 Y215.099117 Z0.000000 F1000.000000
G00 Z10.000000

(End cutting path id: path712)


(Start cutting path id: path704)
(Change tool to Default tool)

G00 Z10.000000
G00 X107.804934 Y212.978597

G01 Z0.000000 F1000.0(Penetrate)
G01 X108.407508 Y214.887060 Z0.000000 F1000.000000
G00 Z10.000000

(End cutting path id: path704)


(Start cutting path id: path706)
(Change tool to Default tool)

G00 Z10.000000
G00 X106.739550 Y217.456746

G01 Z0.000000 F1000.0(Penetrate)
G01 X104.924881 Y210.691412 Z0.000000 F1000.000000
G01 X106.739550 Y217.456746 Z0.000000
G00 Z10.000000

(End cutting path id: path706)


(Start cutting path id: path702)
(Change tool to Default tool)

G00 Z10.000000
G00 X103.580193 Y214.109644

G01 Z0.000000 F1000.0(Penetrate)
G01 X104.013773 Y216.063349 Z0.000000 F1000.000000
G00 Z10.000000

(End cutting path id: path702)


(Start cutting path id: path696)
(Change tool to Default tool)

G00 Z10.000000
G00 X101.437155 Y214.535475

G01 Z0.000000 F1000.0(Penetrate)
G01 X101.958942 Y217.491582 Z0.000000 F1000.000000
G00 Z10.000000

(End cutting path id: path696)


(Start cutting path id: path698)
(Change tool to Default tool)

G00 Z10.000000
G00 X99.277563 Y214.867519

G01 Z0.000000 F1000.0(Penetrate)
G01 X99.539038 Y216.851539 Z0.000000 F1000.000000
G00 Z10.000000

(End cutting path id: path698)


(Start cutting path id: path700)
(Change tool to Default tool)

G00 Z10.000000
G00 X97.105527 Y215.105147

G01 Z0.000000 F1000.0(Penetrate)
G01 X97.367417 Y218.095434 Z0.000000 F1000.000000
G00 Z10.000000

(End cutting path id: path700)


(Start cutting path id: path692)
(Change tool to Default tool)

G00 Z10.000000
G00 X94.930008 Y215.247693

G01 Z0.000000 F1000.0(Penetrate)
G01 X95.017580 Y217.246921 Z0.000000 F1000.000000
G00 Z10.000000

(End cutting path id: path692)


(Start cutting path id: path694)
(Change tool to Default tool)

G00 Z10.000000
G00 X92.740680 Y219.297801

G01 Z0.000000 F1000.0(Penetrate)
G01 X92.740680 Y212.293811 Z0.000000 F1000.000000
G01 X92.740680 Y219.297801 Z0.000000
G00 Z10.000000

(End cutting path id: path694)


(Start cutting path id: path690)
(Change tool to Default tool)

G00 Z10.000000
G00 X90.556178 Y215.247904

G01 Z0.000000 F1000.0(Penetrate)
G01 X90.468797 Y217.247140 Z0.000000 F1000.000000
G00 Z10.000000

(End cutting path id: path690)


(Start cutting path id: path684)
(Change tool to Default tool)

G00 Z10.000000
G00 X88.375833 Y215.105147

G01 Z0.000000 F1000.0(Penetrate)
G01 X88.113943 Y218.095434 Z0.000000 F1000.000000
G00 Z10.000000

(End cutting path id: path684)


(Start cutting path id: path686)
(Change tool to Default tool)

G00 Z10.000000
G00 X86.203797 Y214.867519

G01 Z0.000000 F1000.0(Penetrate)
G01 X85.942322 Y216.851539 Z0.000000 F1000.000000
G00 Z10.000000

(End cutting path id: path686)


(Start cutting path id: path688)
(Change tool to Default tool)

G00 Z10.000000
G00 X84.044205 Y214.535475

G01 Z0.000000 F1000.0(Penetrate)
G01 X83.522418 Y217.491582 Z0.000000 F1000.000000
G00 Z10.000000

(End cutting path id: path688)


(Start cutting path id: path680)
(Change tool to Default tool)

G00 Z10.000000
G00 X81.905883 Y214.110689

G01 Z0.000000 F1000.0(Penetrate)
G01 X81.472492 Y216.064436 Z0.000000 F1000.000000
G00 Z10.000000

(End cutting path id: path680)


(Start cutting path id: path682)
(Change tool to Default tool)

G00 Z10.000000
G00 X78.741810 Y217.456746

G01 Z0.000000 F1000.0(Penetrate)
G01 X80.556479 Y210.691412 Z0.000000 F1000.000000
G01 X78.741810 Y217.456746 Z0.000000
G00 Z10.000000

(End cutting path id: path682)


(Start cutting path id: path678)
(Change tool to Default tool)

G00 Z10.000000
G00 X77.681033 Y212.980049

G01 Z0.000000 F1000.0(Penetrate)
G01 X77.078649 Y214.888569 Z0.000000 F1000.000000
G00 Z10.000000

(End cutting path id: path678)


(Start cutting path id: path672)
(Change tool to Default tool)

G00 Z10.000000
G00 X75.611969 Y212.278432

G01 Z0.000000 F1000.0(Penetrate)
G01 X74.584246 Y215.099117 Z0.000000 F1000.000000
G00 Z10.000000

(End cutting path id: path672)


(Start cutting path id: path674)
(Change tool to Default tool)

G00 Z10.000000
G00 X73.575511 Y211.487328

G01 Z0.000000 F1000.0(Penetrate)
G01 X72.808901 Y213.336140 Z0.000000 F1000.000000
G00 Z10.000000

(End cutting path id: path674)


(Start cutting path id: path676)
(Change tool to Default tool)

G00 Z10.000000
G00 X71.575535 Y210.608239

G01 Z0.000000 F1000.0(Penetrate)
G01 X70.305626 Y213.328713 Z0.000000 F1000.000000
G00 Z10.000000

(End cutting path id: path676)


(Start cutting path id: path668)
(Change tool to Default tool)

G00 Z10.000000
G00 X69.620132 Y209.645069

G01 Z0.000000 F1000.0(Penetrate)
G01 X68.695306 Y211.420191 Z0.000000 F1000.000000
G00 Z10.000000

(End cutting path id: path668)


(Start cutting path id: path670)
(Change tool to Default tool)

G00 Z10.000000
G00 X65.696940 Y212.059049

G01 Z0.000000 F1000.0(Penetrate)
G01 X69.202610 Y205.993416 Z0.000000 F1000.000000
G01 X65.696940 Y212.059049 Z0.000000
G00 Z10.000000

(End cutting path id: path670)


(Start cutting path id: path666)
(Change tool to Default tool)

G00 Z10.000000
G00 X65.832179 Y207.460629

G01 Z0.000000 F1000.0(Penetrate)
G01 X64.755838 Y209.148373 Z0.000000 F1000.000000
G00 Z10.000000

(End cutting path id: path666)


(Start cutting path id: path660)
(Change tool to Default tool)

G00 Z10.000000
G00 X64.015398 Y206.247968

G01 Z0.000000 F1000.0(Penetrate)
G01 X62.291882 Y208.706825 Z0.000000 F1000.000000
G00 Z10.000000

(End cutting path id: path660)


(Start cutting path id: path662)
(Change tool to Default tool)

G00 Z10.000000
G00 X62.253299 Y204.957298

G01 Z0.000000 F1000.0(Penetrate)
G01 X61.033804 Y206.544909 Z0.000000 F1000.000000
G00 Z10.000000

(End cutting path id: path662)


(Start cutting path id: path664)
(Change tool to Default tool)

G00 Z10.000000
G00 X60.549234 Y203.591074

G01 Z0.000000 F1000.0(Penetrate)
G01 X58.617747 Y205.890517 Z0.000000 F1000.000000
G00 Z10.000000

(End cutting path id: path664)


(Start cutting path id: path656-7)
(Change tool to Default tool)

G00 Z10.000000
G00 X58.910008 Y202.155159

G01 Z0.000000 F1000.0(Penetrate)
G01 X57.556781 Y203.630685 Z0.000000 F1000.000000
G00 Z10.000000

(End cutting path id: path656-7)


(Start cutting path id: path658)
(Change tool to Default tool)

G00 Z10.000000
G00 X54.495055 Y203.472552

G01 Z0.000000 F1000.0(Penetrate)
G01 X59.452822 Y198.519982 Z0.000000 F1000.000000
G01 X54.495055 Y203.472552 Z0.000000
G00 Z10.000000

(End cutting path id: path658)


(Start cutting path id: path654-9)
(Change tool to Default tool)

G00 Z10.000000
G00 X55.817094 Y199.065784

G01 Z0.000000 F1000.0(Penetrate)
G01 X54.340150 Y200.417735 Z0.000000 F1000.000000
G00 Z10.000000

(End cutting path id: path654-9)


(Start cutting path id: path648)
(Change tool to Default tool)

G00 Z10.000000
G00 X54.376408 Y197.424719

G01 Z0.000000 F1000.0(Penetrate)
G01 X52.074552 Y199.354182 Z0.000000 F1000.000000
G00 Z10.000000

(End cutting path id: path648)


(Start cutting path id: path650-5)
(Change tool to Default tool)

G00 Z10.000000
G00 X53.008751 Y195.722441

G01 Z0.000000 F1000.0(Penetrate)
G01 X51.419474 Y196.940658 Z0.000000 F1000.000000
G00 Z10.000000

(End cutting path id: path650-5)


(Start cutting path id: path652-8)
(Change tool to Default tool)

G00 Z10.000000
G00 X51.716727 Y193.962189

G01 Z0.000000 F1000.0(Penetrate)
G01 X49.255290 Y195.683899 Z0.000000 F1000.000000
G00 Z10.000000

(End cutting path id: path652-8)


(Start cutting path id: path644)
(Change tool to Default tool)

G00 Z10.000000
G00 X50.505388 Y192.151382

G01 Z0.000000 F1000.0(Penetrate)
G01 X48.815977 Y193.226757 Z0.000000 F1000.000000
G00 Z10.000000

(End cutting path id: path644)


(Start cutting path id: path646)
(Change tool to Default tool)

G00 Z10.000000
G00 X45.899547 Y192.282410

G01 Z0.000000 F1000.0(Penetrate)
G01 X51.971546 Y188.780415 Z0.000000 F1000.000000
G01 X45.899547 Y192.282410 Z0.000000
G00 Z10.000000

(End cutting path id: path646)


(Start cutting path id: path642)
(Change tool to Default tool)

G00 Z10.000000
G00 X48.318290 Y188.367611

G01 Z0.000000 F1000.0(Penetrate)
G01 X46.541395 Y189.291637 Z0.000000 F1000.000000
G00 Z10.000000

(End cutting path id: path642)


(Start cutting path id: path636-5)
(Change tool to Default tool)

G00 Z10.000000
G00 X47.351880 Y186.409978

G01 Z0.000000 F1000.0(Penetrate)
G01 X44.628551 Y187.678555 Z0.000000 F1000.000000
G00 Z10.000000

(End cutting path id: path636-5)


(Start cutting path id: path638)
(Change tool to Default tool)

G00 Z10.000000
G00 X46.471869 Y184.412098

G01 Z0.000000 F1000.0(Penetrate)
G01 X44.621116 Y185.177905 Z0.000000 F1000.000000
G00 Z10.000000

(End cutting path id: path638)


(Start cutting path id: path640)
(Change tool to Default tool)

G00 Z10.000000
G00 X45.679934 Y182.377775

G01 Z0.000000 F1000.0(Penetrate)
G01 X42.856289 Y183.404420 Z0.000000 F1000.000000
G00 Z10.000000

(End cutting path id: path640)


(Start cutting path id: path632-4)
(Change tool to Default tool)

G00 Z10.000000
G00 X44.979034 Y180.315482

G01 Z0.000000 F1000.0(Penetrate)
G01 X43.068568 Y180.917425 Z0.000000 F1000.000000
G00 Z10.000000

(End cutting path id: path632-4)


(Start cutting path id: path634-0)
(Change tool to Default tool)

G00 Z10.000000
G00 X40.496186 Y179.251215

G01 Z0.000000 F1000.0(Penetrate)
G01 X47.268619 Y177.438449 Z0.000000 F1000.000000
G01 X40.496186 Y179.251215 Z0.000000
G00 Z10.000000

(End cutting path id: path634-0)


(Start cutting path id: path630-7)
(Change tool to Default tool)

G00 Z10.000000
G00 X43.846800 Y176.095170

G01 Z0.000000 F1000.0(Penetrate)
G01 X41.891045 Y176.528295 Z0.000000 F1000.000000
G00 Z10.000000

(End cutting path id: path630-7)


(Start cutting path id: path628-0)
(Change tool to Default tool)

G00 Z10.000000
G00 X43.420523 Y173.954378

G01 Z0.000000 F1000.0(Penetrate)
G01 X40.461313 Y174.475619 Z0.000000 F1000.000000
G00 Z10.000000

(End cutting path id: path628-0)


(Start cutting path id: path626)
(Change tool to Default tool)

G00 Z10.000000
G00 X43.088130 Y171.797050

G01 Z0.000000 F1000.0(Penetrate)
G01 X41.102028 Y172.058251 Z0.000000 F1000.000000
G00 Z10.000000

(End cutting path id: path626)


(Start cutting path id: path624)
(Change tool to Default tool)

G00 Z10.000000
G00 X42.850253 Y169.627291

G01 Z0.000000 F1000.0(Penetrate)
G01 X39.856828 Y169.888907 Z0.000000 F1000.000000
G00 Z10.000000

(End cutting path id: path624)


(Start cutting path id: path622)
(Change tool to Default tool)

G00 Z10.000000
G00 X42.707557 Y167.454053

G01 Z0.000000 F1000.0(Penetrate)
G01 X40.706232 Y167.541533 Z0.000000 F1000.000000
G00 Z10.000000

(End cutting path id: path622)


(Start cutting path id: path620)
(Change tool to Default tool)

G00 Z10.000000
G00 X38.653199 Y165.267020

G01 Z0.000000 F1000.0(Penetrate)
G01 X45.664539 Y165.267020 Z0.000000 F1000.000000
G01 X38.653199 Y165.267020 Z0.000000
G00 Z10.000000

(End cutting path id: path620)


(Start cutting path id: path766)
(Change tool to Default tool)

G00 Z10.000000
G00 X45.163729 Y165.267020

G01 Z0.000000 F1000.0(Penetrate)
G01 X45.163729 Y167.768445 Z0.000000 F1000.000000
G00 Z10.000000

(End cutting path id: path766)


(Start cutting path id: path764)
(Change tool to Default tool)

G00 Z10.000000
G00 X47.667779 Y165.267020

G01 Z0.000000 F1000.0(Penetrate)
G01 X47.667779 Y170.269870 Z0.000000 F1000.000000
G00 Z10.000000

(End cutting path id: path764)


(Start cutting path id: path768)
(Change tool to Default tool)

G00 Z10.000000
G00 X50.171829 Y165.267020

G01 Z0.000000 F1000.0(Penetrate)
G01 X50.171829 Y167.768445 Z0.000000 F1000.000000
G00 Z10.000000

(End cutting path id: path768)


(Start cutting path id: path770)
(Change tool to Default tool)

G00 Z10.000000
G00 X52.675879 Y165.267020

G01 Z0.000000 F1000.0(Penetrate)
G01 X52.675879 Y170.269870 Z0.000000 F1000.000000
G00 Z10.000000

(End cutting path id: path770)


(Start cutting path id: path772)
(Change tool to Default tool)

G00 Z10.000000
G00 X55.179929 Y165.267020

G01 Z0.000000 F1000.0(Penetrate)
G01 X55.179929 Y167.768445 Z0.000000 F1000.000000
G00 Z10.000000

(End cutting path id: path772)


(Start cutting path id: path774)
(Change tool to Default tool)

G00 Z10.000000
G00 X57.683979 Y165.267020

G01 Z0.000000 F1000.0(Penetrate)
G01 X57.683979 Y170.269870 Z0.000000 F1000.000000
G00 Z10.000000

(End cutting path id: path774)


(Start cutting path id: path776)
(Change tool to Default tool)

G00 Z10.000000
G00 X60.188029 Y165.267020

G01 Z0.000000 F1000.0(Penetrate)
G01 X60.188029 Y167.768445 Z0.000000 F1000.000000
G00 Z10.000000

(End cutting path id: path776)


(Start cutting path id: path778)
(Change tool to Default tool)

G00 Z10.000000
G00 X62.692079 Y165.267020

G01 Z0.000000 F1000.0(Penetrate)
G01 X62.692079 Y170.269870 Z0.000000 F1000.000000
G00 Z10.000000

(End cutting path id: path778)


(Start cutting path id: path780)
(Change tool to Default tool)

G00 Z10.000000
G00 X65.196129 Y165.267020

G01 Z0.000000 F1000.0(Penetrate)
G01 X65.196129 Y167.768445 Z0.000000 F1000.000000
G00 Z10.000000

(End cutting path id: path780)


(Start cutting path id: path782)
(Change tool to Default tool)

G00 Z10.000000
G00 X67.700179 Y165.267020

G01 Z0.000000 F1000.0(Penetrate)
G01 X67.700179 Y170.269870 Z0.000000 F1000.000000
G00 Z10.000000

(End cutting path id: path782)


(Start cutting path id: path784)
(Change tool to Default tool)

G00 Z10.000000
G00 X70.204229 Y165.267020

G01 Z0.000000 F1000.0(Penetrate)
G01 X70.204229 Y167.768445 Z0.000000 F1000.000000
G00 Z10.000000

(End cutting path id: path784)


(Start cutting path id: path786)
(Change tool to Default tool)

G00 Z10.000000
G00 X72.708279 Y165.267020

G01 Z0.000000 F1000.0(Penetrate)
G01 X72.708279 Y170.269870 Z0.000000 F1000.000000
G00 Z10.000000

(End cutting path id: path786)


(Start cutting path id: path788)
(Change tool to Default tool)

G00 Z10.000000
G00 X75.212329 Y165.267020

G01 Z0.000000 F1000.0(Penetrate)
G01 X75.212329 Y167.768445 Z0.000000 F1000.000000
G00 Z10.000000

(End cutting path id: path788)


(Start cutting path id: path790)
(Change tool to Default tool)

G00 Z10.000000
G00 X77.716379 Y165.267020

G01 Z0.000000 F1000.0(Penetrate)
G01 X77.716379 Y170.269870 Z0.000000 F1000.000000
G00 Z10.000000

(End cutting path id: path790)


(Start cutting path id: path792)
(Change tool to Default tool)

G00 Z10.000000
G00 X80.220429 Y165.267020

G01 Z0.000000 F1000.0(Penetrate)
G01 X80.220429 Y167.768445 Z0.000000 F1000.000000
G00 Z10.000000

(End cutting path id: path792)


(Start cutting path id: path794)
(Change tool to Default tool)

G00 Z10.000000
G00 X82.724479 Y165.267020

G01 Z0.000000 F1000.0(Penetrate)
G01 X82.724479 Y170.269870 Z0.000000 F1000.000000
G00 Z10.000000

(End cutting path id: path794)


(Start cutting path id: path796)
(Change tool to Default tool)

G00 Z10.000000
G00 X85.228529 Y165.267020

G01 Z0.000000 F1000.0(Penetrate)
G01 X85.228529 Y167.768445 Z0.000000 F1000.000000
G00 Z10.000000

(End cutting path id: path796)


(Start cutting path id: path798)
(Change tool to Default tool)

G00 Z10.000000
G00 X87.732579 Y165.267020

G01 Z0.000000 F1000.0(Penetrate)
G01 X87.732579 Y170.269870 Z0.000000 F1000.000000
G00 Z10.000000

(End cutting path id: path798)


(Start cutting path id: path800)
(Change tool to Default tool)

G00 Z10.000000
G00 X90.236629 Y165.267020

G01 Z0.000000 F1000.0(Penetrate)
G01 X90.236629 Y167.768445 Z0.000000 F1000.000000
G00 Z10.000000

(End cutting path id: path800)


(Start cutting path id: path802)
(Change tool to Default tool)

G00 Z10.000000
G00 X92.740679 Y165.267020

G01 Z0.000000 F1000.0(Penetrate)
G01 X92.740679 Y170.269870 Z0.000000 F1000.000000
G00 Z10.000000

(End cutting path id: path802)


(Start cutting path id: path804)
(Change tool to Default tool)

G00 Z10.000000
G00 X95.244729 Y165.267020

G01 Z0.000000 F1000.0(Penetrate)
G01 X95.244729 Y167.768445 Z0.000000 F1000.000000
G00 Z10.000000

(End cutting path id: path804)


(Start cutting path id: path806)
(Change tool to Default tool)

G00 Z10.000000
G00 X97.748779 Y165.267020

G01 Z0.000000 F1000.0(Penetrate)
G01 X97.748779 Y170.269870 Z0.000000 F1000.000000
G00 Z10.000000

(End cutting path id: path806)


(Start cutting path id: path808)
(Change tool to Default tool)

G00 Z10.000000
G00 X100.252829 Y165.267020

G01 Z0.000000 F1000.0(Penetrate)
G01 X100.252829 Y167.768445 Z0.000000 F1000.000000
G00 Z10.000000

(End cutting path id: path808)


(Start cutting path id: path810)
(Change tool to Default tool)

G00 Z10.000000
G00 X102.756879 Y165.267020

G01 Z0.000000 F1000.0(Penetrate)
G01 X102.756879 Y170.269870 Z0.000000 F1000.000000
G00 Z10.000000

(End cutting path id: path810)


(Start cutting path id: path812)
(Change tool to Default tool)

G00 Z10.000000
G00 X105.260929 Y165.267020

G01 Z0.000000 F1000.0(Penetrate)
G01 X105.260929 Y167.768445 Z0.000000 F1000.000000
G00 Z10.000000

(End cutting path id: path812)


(Start cutting path id: path814)
(Change tool to Default tool)

G00 Z10.000000
G00 X107.764979 Y165.267020

G01 Z0.000000 F1000.0(Penetrate)
G01 X107.764979 Y170.269870 Z0.000000 F1000.000000
G00 Z10.000000

(End cutting path id: path814)


(Start cutting path id: path816)
(Change tool to Default tool)

G00 Z10.000000
G00 X110.269029 Y165.267020

G01 Z0.000000 F1000.0(Penetrate)
G01 X110.269029 Y167.768445 Z0.000000 F1000.000000
G00 Z10.000000

(End cutting path id: path816)


(Start cutting path id: path818)
(Change tool to Default tool)

G00 Z10.000000
G00 X112.773079 Y165.267020

G01 Z0.000000 F1000.0(Penetrate)
G01 X112.773079 Y170.269870 Z0.000000 F1000.000000
G00 Z10.000000

(End cutting path id: path818)


(Start cutting path id: path820)
(Change tool to Default tool)

G00 Z10.000000
G00 X115.277129 Y165.267020

G01 Z0.000000 F1000.0(Penetrate)
G01 X115.277129 Y167.768445 Z0.000000 F1000.000000
G00 Z10.000000

(End cutting path id: path820)


(Start cutting path id: path822)
(Change tool to Default tool)

G00 Z10.000000
G00 X117.781179 Y165.267020

G01 Z0.000000 F1000.0(Penetrate)
G01 X117.781179 Y170.269870 Z0.000000 F1000.000000
G00 Z10.000000

(End cutting path id: path822)


(Start cutting path id: path824)
(Change tool to Default tool)

G00 Z10.000000
G00 X120.285229 Y165.267020

G01 Z0.000000 F1000.0(Penetrate)
G01 X120.285229 Y167.768445 Z0.000000 F1000.000000
G00 Z10.000000

(End cutting path id: path824)


(Start cutting path id: path826)
(Change tool to Default tool)

G00 Z10.000000
G00 X122.789279 Y165.267020

G01 Z0.000000 F1000.0(Penetrate)
G01 X122.789279 Y170.269870 Z0.000000 F1000.000000
G00 Z10.000000

(End cutting path id: path826)


(Start cutting path id: path828)
(Change tool to Default tool)

G00 Z10.000000
G00 X125.293329 Y165.267020

G01 Z0.000000 F1000.0(Penetrate)
G01 X125.293329 Y167.768445 Z0.000000 F1000.000000
G00 Z10.000000

(End cutting path id: path828)


(Start cutting path id: path830)
(Change tool to Default tool)

G00 Z10.000000
G00 X127.797379 Y165.267020

G01 Z0.000000 F1000.0(Penetrate)
G01 X127.797379 Y170.269870 Z0.000000 F1000.000000
G00 Z10.000000

(End cutting path id: path830)


(Start cutting path id: path832)
(Change tool to Default tool)

G00 Z10.000000
G00 X130.301429 Y165.267020

G01 Z0.000000 F1000.0(Penetrate)
G01 X130.301429 Y167.768445 Z0.000000 F1000.000000
G00 Z10.000000

(End cutting path id: path832)


(Start cutting path id: path834)
(Change tool to Default tool)

G00 Z10.000000
G00 X132.805479 Y165.267020

G01 Z0.000000 F1000.0(Penetrate)
G01 X132.805479 Y170.269870 Z0.000000 F1000.000000
G00 Z10.000000

(End cutting path id: path834)


(Start cutting path id: path836)
(Change tool to Default tool)

G00 Z10.000000
G00 X135.309529 Y165.267020

G01 Z0.000000 F1000.0(Penetrate)
G01 X135.309529 Y167.768445 Z0.000000 F1000.000000
G00 Z10.000000

(End cutting path id: path836)


(Start cutting path id: path838)
(Change tool to Default tool)

G00 Z10.000000
G00 X137.813579 Y165.267020

G01 Z0.000000 F1000.0(Penetrate)
G01 X137.813579 Y170.269870 Z0.000000 F1000.000000
G00 Z10.000000

(End cutting path id: path838)

; prh - end of generated gcode
; this is my prh footer

G54     ; change back to default coordinate system
; this is my prh header

G55     ; change to 12x9x4 coordinate system

; prh - start of generated gcode
G21 (All units in mm)

(Start cutting path id: path150)
(Change tool to Default tool)

G00 Z10.000000
G00 X163.964788 Y31.803213

G01 Z0.000000 F1100.0(Penetrate)
G03 X168.218856 Y31.253091 Z0.000000 I17.494985 J118.564591 F2000.000000
G03 X173.051331 Y31.083132 Z0.000000 I3.538893 J31.835725
G03 X178.252045 Y31.586395 Z0.000000 I-1.882995 J46.582611
G02 X183.201989 Y32.176695 Z0.000000 I11.193299 J-72.812124
G02 X187.690701 Y32.322997 Z0.000000 I3.644661 J-42.889597
G03 X191.742850 Y32.283264 Z0.000000 I4.052148 J206.607974
G03 X196.281578 Y32.385391 Z0.000000 I0.000000 J100.906260
G03 X200.038132 Y32.576579 Z0.000000 I-14.446515 J320.853855
G02 X203.210640 Y32.735899 Z0.000000 I13.594502 J-239.037551
G02 X206.122918 Y32.763315 Z0.000000 I1.857635 J-42.634884
G02 X209.763244 Y32.608917 Z0.000000 I-2.545233 J-103.002534
G03 X212.808412 Y32.629863 Z0.000000 I1.366384 J22.719055
G03 X214.866984 Y32.880951 Z0.000000 I-1.617192 J21.823066
G02 X219.821016 Y33.376819 Z0.000000 I6.063890 J-35.587185
G02 X227.943350 Y33.398880 Z0.000000 I4.455311 J-145.100292
G03 X236.575128 Y33.190082 Z0.000000 I101.129698 J4002.205416
G03 X242.226178 Y33.193435 Z0.000000 I2.754946 J118.945920
G03 X244.188179 Y33.430111 Z0.000000 I-0.251697 J10.337156
G03 X246.434750 Y34.014646 Z0.000000 I-6.372258 J29.100284
G02 X250.164181 Y34.816980 Z0.000000 I6.769348 J-22.396667
G02 X254.557355 Y35.123906 Z0.000000 I4.731617 J-36.131628
G02 X259.114183 Y35.057002 Z0.000000 I0.883037 J-95.072388
G02 X263.019500 Y34.801714 Z0.000000 I-2.855797 J-73.685961
G02 X265.772165 Y34.523426 Z0.000000 I-14.188366 J-154.096094
G02 X268.671279 Y34.202348 Z0.000000 I-265.319205 J-2408.895645
G02 X271.529848 Y33.883520 Z0.000000 I-922.768861 J-8286.478390
G00 Z10.000000

(End cutting path id: path150)


(Start cutting path id: path44)
(Change tool to Default tool)

G00 Z10.000000
G00 X256.284582 Y36.515879

G01 Z0.000000 F1100.0(Penetrate)
G02 X255.971149 Y36.465677 Z0.000000 I-0.614386 J2.832290 F2000.000000
G02 X254.644588 Y36.388186 Z0.000000 I-1.510841 J14.470633
G02 X253.021977 Y36.384160 Z0.000000 I-1.008915 J79.649902
G03 X248.301932 Y36.402343 Z0.000000 I-4.720046 J-612.632872
G03 X243.360932 Y36.382377 Z0.000000 I0.000000 J-611.392889
G03 X235.062101 Y36.269131 Z0.000000 I6.027968 J-745.868557
G03 X226.657554 Y36.074197 Z0.000000 I20.544762 J-1067.062174
G03 X216.817785 Y35.800845 Z0.000000 I207.002676 J-7628.654472
G02 X205.187144 Y35.735870 Z0.000000 I-103.947714 J17565.857804
G02 X194.349705 Y35.698835 Z0.000000 I-15.493205 J2948.008457
G02 X183.287268 Y35.698944 Z0.000000 I-5.496439 J3480.552320
G03 X175.678818 Y35.687557 Z0.000000 I-1.965105 J-1228.858549
G03 X168.828007 Y35.613796 Z0.000000 I2.595473 J-559.241981
G03 X164.357718 Y35.528663 Z0.000000 I17.563005 J-1039.633501
G00 Z10.000000

(End cutting path id: path44)


(Start cutting path id: path108)
(Change tool to Default tool)

G00 Z10.000000
G00 X148.574878 Y32.283264

G01 Z0.000000 F1100.0(Penetrate)
G02 X149.719456 Y32.296712 Z0.000000 I4.856796 J-364.667407 F2000.000000
G02 X151.828597 Y32.311338 Z0.000000 I3.308800 J-325.049940
G03 X154.342770 Y32.335430 Z0.000000 I-0.752683 J209.745257
G03 X157.804354 Y32.551368 Z0.000000 I-0.578278 J37.123491
G03 X160.967024 Y33.057143 Z0.000000 I-3.509932 J32.089184
G03 X163.964788 Y33.723410 Z0.000000 I-30.249949 J143.182007
G03 X171.802115 Y33.199177 Z0.000000 I55.729696 J774.317969
G03 X179.430575 Y32.929648 Z0.000000 I8.915178 J144.237097
G03 X187.031684 Y33.068890 Z0.000000 I1.247862 J139.419532
G03 X194.222002 Y33.428176 Z0.000000 I-37.766129 J827.935274
G02 X201.633196 Y33.811027 Z0.000000 I77.081407 J-1420.210997
G02 X207.357461 Y34.042887 Z0.000000 I16.466806 J-335.762486
G02 X212.303603 Y34.150123 Z0.000000 I7.718540 J-241.887689
G03 X218.315591 Y34.232023 Z0.000000 I-15.899481 J1387.821113
G03 X225.994552 Y34.380598 Z0.000000 I-16.711133 J1062.210418
G03 X233.386247 Y34.586540 Z0.000000 I-17.347440 J755.390875
G03 X239.121871 Y34.813989 Z0.000000 I-13.653024 J416.723241
G02 X243.255704 Y34.988584 Z0.000000 I22.331887 J-479.720737
G02 X248.397651 Y35.151291 Z0.000000 I15.707004 J-415.050804
G02 X252.980272 Y35.248537 Z0.000000 I13.808430 J-542.680178
G03 X256.776327 Y35.320221 Z0.000000 I-17.051650 J1003.530710
G03 X259.487473 Y35.461437 Z0.000000 I-0.901898 J43.410890
G03 X262.520326 Y35.780668 Z0.000000 I-5.841913 J70.067424
G02 X265.922217 Y36.123426 Z0.000000 I8.254672 J-64.874775
G02 X269.262717 Y36.268123 Z0.000000 I4.011793 J-53.984979
G02 X272.598619 Y36.288807 Z0.000000 I3.335902 J-268.990394
G00 Z10.000000

(End cutting path id: path108)


(Start cutting path id: path14)
(Change tool to Default tool)

G00 Z10.000000
G00 X270.997668 Y52.565444

G01 Z0.000000 F1100.0(Penetrate)
G02 X270.377240 Y52.444795 Z0.000000 I-6.030038 J29.353365 F2000.000000
G02 X268.591946 Y52.142517 Z0.000000 I-11.849421 J64.561041
G02 X266.338161 Y51.808042 Z0.000000 I-25.843958 J166.383372
G02 X262.206557 Y51.269060 Z0.000000 I-26.917417 J190.232343
G02 X258.235885 Y50.835324 Z0.000000 I-23.519283 J196.917253
G02 X253.788244 Y50.432092 Z0.000000 I-26.461198 J267.136305
G02 X249.555936 Y50.127165 Z0.000000 I-17.102507 J207.854169
G02 X244.040590 Y49.864675 Z0.000000 I-12.003988 J194.149221
G02 X238.112393 Y49.721461 Z0.000000 I-10.737132 J321.684900
G02 X230.890638 Y49.623446 Z0.000000 I-39.381218 J2635.507496
G02 X223.912645 Y49.804514 Z0.000000 I45.051491 J1870.740714
G02 X216.364936 Y50.077575 Z0.000000 I12.568085 J451.846747
G02 X208.535662 Y50.499070 Z0.000000 I18.705528 J420.380174
G02 X200.677868 Y51.087603 Z0.000000 I21.311736 J337.294700
G02 X192.910378 Y51.847453 Z0.000000 I30.361532 J350.448705
G03 X186.848883 Y52.506153 Z0.000000 I-909.940683 J-8345.247482
G03 X181.183845 Y53.113508 Z0.000000 I-302.750858 J-2797.151740
G02 X175.992179 Y53.720449 Z0.000000 I26.064722 J245.460435
G02 X170.002508 Y54.548592 Z0.000000 I36.474459 J285.882012
G02 X165.623203 Y55.229724 Z0.000000 I50.883483 J341.571427
G03 X161.955373 Y55.822966 Z0.000000 I-640.739587 J-3949.859379
G03 X161.052426 Y55.861472 Z0.000000 I-0.614895 J-3.812933
G03 X160.429097 Y55.502636 Z0.000000 I0.062283 J-0.828999
G03 X160.270740 Y55.115716 Z0.000000 I0.816924 J-0.560211
G00 Z10.000000

(End cutting path id: path14)


(Start cutting path id: path12)
(Change tool to Default tool)

G00 Z10.000000
G00 X160.086547 Y53.945586

G01 Z0.000000 F1100.0(Penetrate)
G02 X159.982152 Y53.557582 Z0.000000 I-37.173516 J9.793688 F2000.000000
G02 X159.907026 Y53.340001 Z0.000000 I-1.724332 J0.473618
G02 X159.810236 Y53.282793 Z0.000000 I-0.086741 J0.036273
G02 X158.203667 Y53.550269 Z0.000000 I1.504255 J13.993747
G02 X155.540305 Y54.166886 Z0.000000 I65.036085 J286.971541
G02 X150.284620 Y55.411430 Z0.000000 I1719.144703 J7271.632900
G03 X150.505694 Y54.862983 Z0.000000 I16.795986 J6.451542
G03 X150.760808 Y54.389877 Z0.000000 I2.611774 J1.103016
G03 X151.066045 Y54.035610 Z0.000000 I1.605030 J1.074264
G03 X151.759348 Y53.470822 Z0.000000 I5.509083 J6.054732
G03 X152.656545 Y52.835338 Z0.000000 I24.921316 J34.233645
G02 X153.895908 Y51.961299 Z0.000000 I-39.333089 J-57.088901
G02 X154.964525 Y51.141762 Z0.000000 I-13.531710 J-18.750850
G02 X155.985813 Y50.190863 Z0.000000 I-6.643421 J-8.159082
G02 X156.860434 Y49.137414 Z0.000000 I-8.049866 J-7.573160
G02 X158.157259 Y47.206386 Z0.000000 I-23.757434 J-17.355801
G02 X159.458715 Y44.980972 Z0.000000 I-48.876883 J-30.077229
G02 X161.036706 Y41.951985 Z0.000000 I-56.478261 J-31.348628
G02 X162.508248 Y38.744676 Z0.000000 I-67.111301 J-32.732506
G03 X163.347393 Y36.822391 Z0.000000 I189.739363 J81.683578
G03 X164.033148 Y35.391554 Z0.000000 I24.064927 J10.653802
G03 X164.345933 Y34.824898 Z0.000000 I10.535085 J5.445561
G03 X164.760981 Y34.124033 Z0.000000 I134.374332 J79.102135
G03 X165.263424 Y33.281535 Z0.000000 I881.726610 J525.267211
G00 Z10.000000

(End cutting path id: path12)


(Start cutting path id: path22)
(Change tool to Default tool)

G00 Z10.000000
G00 X168.866120 Y52.175398

G01 Z0.000000 F1100.0(Penetrate)
G02 X153.515610 Y55.245752 Z0.000000 I5399.073429 J27033.055713 F2000.000000
G02 X145.689039 Y56.843897 Z0.000000 I210.288838 J1049.807759
G02 X140.861743 Y57.991085 Z0.000000 I17.950165 J86.263272
G02 X140.729998 Y58.099474 Z0.000000 I0.053250 J0.198986
G02 X140.672651 Y58.377971 Z0.000000 I0.513045 J0.250796
G02 X140.737363 Y58.610246 Z0.000000 I0.544064 J-0.026423
G02 X140.854157 Y58.677013 Z0.000000 I0.111879 J-0.060172
G02 X142.863619 Y58.461198 Z0.000000 I-0.572871 J-14.796991
G02 X145.909057 Y57.890071 Z0.000000 I-26.431299 J-149.345666
G02 X152.914561 Y56.475223 Z0.000000 I-188.489381 J-951.340748
G02 X160.478668 Y54.900673 Z0.000000 I-334.576360 J-1626.254464
G02 X165.171827 Y53.907666 Z0.000000 I-518.048587 J-2459.993410
G03 X168.237590 Y53.274408 Z0.000000 I56.566781 J266.116495
G03 X168.575352 Y53.240870 Z0.000000 I0.337762 J1.684043
G03 X169.001975 Y53.285990 Z0.000000 I-0.000000 J2.039497
G02 X169.439061 Y53.347208 Z0.000000 I0.645417 J-3.017196
G02 X169.943861 Y53.332101 Z0.000000 I0.175751 J-2.568796
G02 X170.389712 Y53.198391 Z0.000000 I-0.183037 J-1.420524
G02 X170.717803 Y52.931833 Z0.000000 I-0.411050 J-0.841131
G02 X170.868593 Y52.659288 Z0.000000 I-0.794272 J-0.617429
G02 X170.925216 Y52.352241 Z0.000000 I-0.873706 J-0.319866
G02 X170.883323 Y52.141557 Z0.000000 I-0.515035 J-0.007097
G02 X170.753877 Y51.969709 Z0.000000 I-0.418362 J0.180457
G02 X170.593047 Y51.872006 Z0.000000 I-0.424705 J0.517888
G02 X170.419874 Y51.822877 Z0.000000 I-0.278020 J0.650219
G02 X170.222703 Y51.808179 Z0.000000 I-0.197171 J1.315152
G02 X170.029931 Y51.819210 Z0.000000 I0.000000 J1.689915
G02 X169.675057 Y51.880884 Z0.000000 I0.355934 J3.099888
G02 X169.282538 Y51.984525 Z0.000000 I1.633016 J6.979782
G02 X168.743318 Y52.145388 Z0.000000 I23.056854 J78.271790
G00 Z10.000000

(End cutting path id: path22)


(Start cutting path id: path26)
(Change tool to Default tool)

G00 Z10.000000
G00 X164.077262 Y55.625769

G01 Z0.000000 F1100.0(Penetrate)
G03 X163.120746 Y58.770577 Z0.000000 I-634.138355 J-191.159861 F2000.000000
G03 X162.482203 Y60.681675 Z0.000000 I-38.976279 J-11.960661
G03 X161.814168 Y62.106309 Z0.000000 I-8.130009 J-2.943354
G03 X161.449039 Y62.532511 Z0.000000 I-1.361774 J-0.797136
G03 X160.992823 Y62.782201 Z0.000000 I-0.904470 J-1.110955
G03 X158.618709 Y63.426371 Z0.000000 I-7.224987 J-21.930952
G03 X155.143348 Y64.139317 Z0.000000 I-39.992179 J-186.120787
G03 X149.707013 Y65.199438 Z0.000000 I-1241.587809 J-6352.428635
G03 X144.718641 Y66.165159 Z0.000000 I-482.799475 J-2480.506751
G03 X141.970924 Y66.660715 Z0.000000 I-22.390273 J-116.282032
G03 X139.514904 Y66.996345 Z0.000000 I-6.665427 J-39.621353
G03 X139.155324 Y67.015233 Z0.000000 I-0.359580 J-3.413242
G01 X139.148828 Y66.973757 Z0.000000
G03 X139.416377 Y66.901937 Z0.000000 I0.873688 J2.720480
G01 X141.941947 Y58.901161 Z0.000000
G03 X141.818124 Y59.796425 Z0.000000 I-132.254560 J-17.835688
G03 X141.731484 Y60.248662 Z0.000000 I-4.705182 J-0.667010
G03 X141.589926 Y60.470582 Z0.000000 I-0.394603 J-0.095600
G03 X141.433834 Y60.532379 Z0.000000 I-0.179399 J-0.225110
G03 X141.114560 Y60.558062 Z0.000000 I-15.129948 J-186.086050
G03 X140.802692 Y60.525180 Z0.000000 I-0.067817 J-0.852191
G03 X140.643255 Y60.391189 Z0.000000 I0.074507 J-0.250509
G03 X140.584856 Y60.163464 Z0.000000 I0.502248 J-0.250150
G03 X140.597450 Y59.854354 Z0.000000 I1.919599 J-0.076597
G03 X140.657525 Y59.574684 Z0.000000 I1.575026 J0.192036
G03 X140.762991 Y59.364701 Z0.000000 I0.683313 J0.211723
G03 X140.860622 Y59.262645 Z0.000000 I0.430775 J0.314374
G03 X140.985607 Y59.172686 Z0.000000 I0.946532 J1.183250
G02 X141.071085 Y59.085267 Z0.000000 I-0.149484 J-0.231666
G02 X141.108973 Y58.967472 Z0.000000 I-0.223973 J-0.137031
G02 X141.114539 Y58.815723 Z0.000000 I-2.065741 J-0.151749
G00 Z10.000000

(End cutting path id: path26)


(Start cutting path id: path38)
(Change tool to Default tool)

G00 Z10.000000
G00 X142.159038 Y58.686102

G01 Z0.000000 F1100.0(Penetrate)
G01 X162.436040 Y119.133950 Z0.000000 F2000.000000
G01 X192.190052 Y208.575227 Z0.000000
G01 X164.322848 Y121.119917 Z0.000000
G00 Z10.000000

(End cutting path id: path38)


(Start cutting path id: path130)
(Change tool to Default tool)

G00 Z10.000000
G00 X183.481463 Y133.887131

G01 Z0.000000 F1100.0(Penetrate)
G01 X182.268778 Y53.789571 Z0.000000 F2000.000000
G00 Z10.000000

(End cutting path id: path130)


(Start cutting path id: path18)
(Change tool to Default tool)

G00 Z10.000000
G00 X180.590215 Y53.368571

G01 Z0.000000 F1100.0(Penetrate)
G01 X180.613420 Y53.403944 Z0.000000 F2000.000000
G02 X182.041858 Y53.425439 Z0.000000 I0.871931 J-10.469779
G02 X184.614285 Y53.262132 Z0.000000 I-6.548232 J-123.489952
G02 X189.263943 Y52.914667 Z0.000000 I-223.426735 J-3021.104868
G02 X193.632715 Y52.582371 Z0.000000 I-294.871105 J-3905.620454
G02 X195.545688 Y52.426689 Z0.000000 I-15.506866 J-202.375417
G02 X196.661363 Y52.243745 Z0.000000 I-0.636864 J-7.377273
G02 X196.753955 Y52.158106 Z0.000000 I-0.030713 J-0.126080
G03 X196.843194 Y51.924358 Z0.000000 I2.591335 J0.855409
G03 X197.036375 Y51.485311 Z0.000000 I55.738507 J24.262845
G00 Z10.000000

(End cutting path id: path18)


(Start cutting path id: path114)
(Change tool to Default tool)

G00 Z10.000000
G00 X198.489482 Y49.595124

G01 Z0.000000 F1100.0(Penetrate)
G01 X192.712649 Y135.589389 Z0.000000 F2000.000000
G01 X203.511152 Y138.142789 Z0.000000
G00 Z10.000000

(End cutting path id: path114)


(Start cutting path id: path138)
(Change tool to Default tool)

G00 Z10.000000
G00 X236.255138 Y119.587838

G01 Z0.000000 F1100.0(Penetrate)
G01 X236.255138 Y119.758011 Z0.000000 F2000.000000
G01 X231.204245 Y119.758011 Z0.000000
G00 Z10.000000

(End cutting path id: path138)


(Start cutting path id: path136)
(Change tool to Default tool)

G00 Z10.000000
G00 X237.432209 Y119.816822

G01 Z0.000000 F1100.0(Penetrate)
G01 X237.474190 Y120.268791 Z0.000000 F2000.000000
G01 X244.441114 Y121.119917 Z0.000000
G00 Z10.000000

(End cutting path id: path136)


(Start cutting path id: path126)
(Change tool to Default tool)

G00 Z10.000000
G00 X237.328328 Y168.329864

G01 Z0.000000 F1100.0(Penetrate)
G01 X231.160529 Y119.843225 Z0.000000 F2000.000000
G01 X232.257058 Y73.567697 Z0.000000
G00 Z10.000000

(End cutting path id: path126)


(Start cutting path id: path132)
(Change tool to Default tool)

G00 Z10.000000
G00 X232.684612 Y70.902209

G01 Z0.000000 F1100.0(Penetrate)
G03 X225.897969 Y107.372885 Z0.000000 I-7860.763491 J-1443.902792 F2000.000000
G03 X219.895911 Y136.669027 Z0.000000 I-931.332828 J-175.544241
G03 X213.025610 Y164.077752 Z0.000000 I-497.031927 J-110.021155
G03 X207.643319 Y180.882972 Z0.000000 I-232.203294 J-65.104384
G03 X201.083763 Y196.892715 Z0.000000 I-192.375217 J-69.471827
G03 X195.235518 Y209.222339 Z0.000000 I-528.451818 J-243.105939
G00 Z10.000000

(End cutting path id: path132)


(Start cutting path id: path128)
(Change tool to Default tool)

G00 Z10.000000
G00 X195.235518 Y208.742288

G01 Z0.000000 F1100.0(Penetrate)
G01 X201.551651 Y137.930122 Z0.000000 F2000.000000
G01 X203.293324 Y49.197879 Z0.000000
G00 Z10.000000

(End cutting path id: path128)


(Start cutting path id: path48)
(Change tool to Default tool)

G00 Z10.000000
G00 X200.071284 Y55.709296

G01 Z0.000000 F1100.0(Penetrate)
G03 X199.505560 Y54.155925 Z0.000000 I359.975830 J-131.979770 F2000.000000
G03 X199.200447 Y53.248077 Z0.000000 I19.681941 J-7.119969
G03 X199.063649 Y52.556965 Z0.000000 I3.185282 J-0.989585
G03 X199.098775 Y52.375580 Z0.000000 I0.331900 J-0.029820
G03 X199.223637 Y52.258911 Z0.000000 I0.224311 J0.114914
G03 X200.230911 Y51.957220 Z0.000000 I1.814006 J4.224157
G03 X201.741553 Y51.724050 Z0.000000 I5.711789 J31.995037
G03 X204.512638 Y51.368432 Z0.000000 I90.694814 J695.745979
G03 X204.619747 Y51.432089 Z0.000000 I-0.050385 J0.206714
G03 X205.042363 Y52.070508 Z0.000000 I-1.863443 J1.692639
G03 X205.579137 Y53.348507 Z0.000000 I-18.272787 J8.426501
G03 X206.058334 Y54.645263 Z0.000000 I-70.108510 J26.644473
G03 X206.231691 Y55.346698 Z0.000000 I-3.324309 J1.193729
G03 X206.181618 Y55.446711 Z0.000000 I-0.097505 J0.013724
G03 X206.017204 Y55.512408 Z0.000000 I-0.347559 J-0.631220
G03 X205.296288 Y55.687940 Z0.000000 I-5.197041 J-19.776237
G03 X204.412779 Y55.881655 Z0.000000 I-18.497803 J-82.254355
G03 X203.141062 Y56.127664 Z0.000000 I-6.978356 J-32.663926
G03 X201.895675 Y56.314913 Z0.000000 I-4.735837 J-27.262780
G03 X201.246881 Y56.390249 Z0.000000 I-3.786854 J-29.781053
G03 X200.760630 Y56.424591 Z0.000000 I-0.753810 J-7.213682
G03 X200.629978 Y56.418563 Z0.000000 I-0.029098 J-0.788249
G03 X200.479648 Y56.380449 Z0.000000 I0.084359 J-0.648268
G03 X200.310724 Y56.255341 Z0.000000 I0.141320 J-0.367409
G03 X200.192433 Y56.045636 Z0.000000 I0.632334 J-0.494903
G03 X200.071284 Y55.709280 Z0.000000 I9.613329 J-3.652553
G01 X200.071284 Y55.709296 Z0.000000
G00 Z10.000000

(End cutting path id: path48)


(Start cutting path id: path60)
(Change tool to Default tool)

G00 Z10.000000
G00 X204.828455 Y58.956126

G01 Z0.000000 F1100.0(Penetrate)
G02 X206.948837 Y61.440512 Z0.000000 I7478.322664 J-6380.475652 F2000.000000
G02 X208.084883 Y62.764134 Z0.000000 I254.545692 J-217.323578
G02 X208.904835 Y63.475969 Z0.000000 I2.870422 J-2.478232
G02 X209.868300 Y63.875452 Z0.000000 I1.590614 J-2.474635
G02 X211.557398 Y64.206264 Z0.000000 I8.474834 J-38.794230
G02 X214.532156 Y64.622656 Z0.000000 I7.860237 J-45.320368
G02 X217.144603 Y64.796478 Z0.000000 I3.479701 J-32.579173
G02 X219.650824 Y64.773872 Z0.000000 I0.934778 J-35.303130
G02 X222.342932 Y64.560789 Z0.000000 I-1.728795 J-38.954398
G02 X224.392283 Y64.187731 Z0.000000 I-1.778528 J-15.585622
G02 X226.190216 Y63.515005 Z0.000000 I-2.109236 J-8.376112
G02 X226.946585 Y63.033925 Z0.000000 I-2.091115 J-4.122849
G02 X227.513331 Y62.420606 Z0.000000 I-1.601996 J-2.048861
G02 X227.623899 Y62.097586 Z0.000000 I-0.564506 J-0.373660
G02 X227.562560 Y61.807889 Z0.000000 I-0.526082 J-0.039952
G02 X227.024189 Y60.915458 Z0.000000 I-9.237971 J4.964327
G02 X226.114430 Y59.570105 Z0.000000 I-303.121526 J203.997514
G02 X225.204911 Y58.305175 Z0.000000 I-24.253170 J16.479224
G02 X224.536498 Y57.591933 Z0.000000 I-3.783792 J2.876153
G02 X224.372880 Y57.501335 Z0.000000 I-0.295253 J0.340177
G02 X224.181890 Y57.467191 Z0.000000 I-0.238079 J0.780480
G02 X223.598805 Y57.444707 Z0.000000 I-0.876979 J15.171508
G02 X222.791066 Y57.433654 Z0.000000 I-1.302142 J65.636194
G02 X221.528057 Y57.491977 Z0.000000 I-0.088739 J11.782863
G02 X220.413731 Y57.675614 Z0.000000 I0.886708 J8.853371
G02 X219.467130 Y57.926902 Z0.000000 I3.374263 J14.619421
G02 X218.484065 Y58.247629 Z0.000000 I6.409437 J21.312620
G02 X217.870598 Y58.475603 Z0.000000 I6.318797 J17.942980
G02 X217.332754 Y58.704991 Z0.000000 I3.469359 J8.879818
G02 X217.193039 Y58.778035 Z0.000000 I0.691679 J1.493141
G01 X217.177436 Y58.849605 Z0.000000
G02 X217.899576 Y59.771027 Z0.000000 I8.794836 J-6.149028
G02 X219.240698 Y61.295569 Z0.000000 I313.919784 J-274.799466
G02 X221.915095 Y64.319991 Z0.000000 I10664.474437 J-9427.549520
G00 Z10.000000

(End cutting path id: path60)


(Start cutting path id: path62)
(Change tool to Default tool)

G00 Z10.000000
G00 X220.986303 Y64.490163

G01 Z0.000000 F1100.0(Penetrate)
G01 X216.283641 Y59.326728 Z0.000000 F2000.000000
G01 X206.793358 Y58.881238 Z0.000000
G00 Z10.000000

(End cutting path id: path62)


(Start cutting path id: path64)
(Change tool to Default tool)

G00 Z10.000000
G00 X206.133237 Y58.971251

G01 Z0.000000 F1100.0(Penetrate)
G01 X210.303719 Y63.922739 Z0.000000 F2000.000000
G00 Z10.000000

(End cutting path id: path64)


(Start cutting path id: path66)
(Change tool to Default tool)

G00 Z10.000000
G00 X208.947119 Y63.646709

G01 Z0.000000 F1100.0(Penetrate)
G02 X209.244777 Y63.968335 Z0.000000 I2.559286 J-2.070014 F2000.000000
G02 X209.872965 Y64.397991 Z0.000000 I1.666041 J-1.761816
G02 X210.625243 Y64.669527 Z0.000000 I1.784842 J-3.766979
G02 X212.734491 Y65.072225 Z0.000000 I4.315626 J-16.879081
G02 X215.105344 Y65.290644 Z0.000000 I4.307941 J-33.784419
G02 X218.886569 Y65.331931 Z0.000000 I2.339169 J-41.060798
G02 X222.907764 Y65.027208 Z0.000000 I-1.743406 J-49.691078
G02 X225.543568 Y64.613298 Z0.000000 I-3.910397 J-33.501065
G02 X227.469568 Y64.028226 Z0.000000 I-1.968196 J-9.941759
G02 X228.127101 Y63.695914 Z0.000000 I-1.925815 J-4.627207
G00 Z10.000000

(End cutting path id: path66)


(Start cutting path id: path118)
(Change tool to Default tool)

G00 Z10.000000
G00 X232.416685 Y66.030888

G01 Z0.000000 F1100.0(Penetrate)
G01 X237.432209 Y119.816822 Z0.000000 F2000.000000
G00 Z10.000000

(End cutting path id: path118)


(Start cutting path id: path120)
(Change tool to Default tool)

G00 Z10.000000
G00 X238.562871 Y169.422467

G01 Z0.000000 F1100.0(Penetrate)
G01 X244.005712 Y120.907257 Z0.000000 F2000.000000
G01 X245.311967 Y51.538612 Z0.000000
G01 X238.461199 Y119.928431 Z0.000000
G00 Z10.000000

(End cutting path id: path120)


(Start cutting path id: path106)
(Change tool to Default tool)

G00 Z10.000000
G00 X237.058191 Y65.886870

G01 Z0.000000 F1100.0(Penetrate)
G01 X237.822692 Y95.840890 Z0.000000 F2000.000000
G02 X238.693702 Y136.913886 Z0.000000 I299894.277355 J-6340.428046
G02 X239.157916 Y157.875308 Z0.000000 I12036.215834 J-256.065448
G02 X239.540693 Y170.976763 Z0.000000 I1057.757898 J-24.347472
G02 X239.593335 Y171.394277 Z0.000000 I2.339037 J-0.082841
G02 X239.765843 Y172.000817 Z0.000000 I5.048209 J-1.107975
G03 X239.825656 Y172.217088 Z0.000000 I-1.550419 J0.545197
G03 X239.771632 Y172.301443 Z0.000000 I-0.070415 J0.014381
G03 X239.274081 Y172.358938 Z0.000000 I-0.497551 J-2.124087
G01 X236.777735 Y172.358938 Z0.000000
G02 X237.014032 Y172.022473 Z0.000000 I-3.844040 J-2.950846
G02 X237.213153 Y171.564697 Z0.000000 I-1.322931 J-0.847637
G02 X237.256412 Y171.206712 Z0.000000 I-1.351289 J-0.344896
G02 X237.082504 Y158.130695 Z0.000000 I-1670.597091 J15.679412
G01 X235.993839 Y95.840890 Z0.000000
G01 X235.339112 Y66.126900 Z0.000000
G00 Z10.000000

(End cutting path id: path106)


(Start cutting path id: path104)
(Change tool to Default tool)

G00 Z10.000000
G00 X237.300086 Y65.795425

G01 Z0.000000 F1100.0(Penetrate)
G02 X237.345755 Y66.278815 Z0.000000 I149.237963 J-13.855545 F2000.000000
G02 X237.387273 Y66.674872 Z0.000000 I22.964464 J-2.207124
G02 X237.447241 Y67.056091 Z0.000000 I4.451833 J-0.504974
G02 X237.532407 Y67.228132 Z0.000000 I0.365215 J-0.073693
G02 X237.646752 Y67.288827 Z0.000000 I0.136822 J-0.119708
G02 X240.217603 Y67.582650 Z0.000000 I15.744579 J-126.365794
G03 X244.637909 Y68.048798 Z0.000000 I-174.153217 J1672.620830
G02 X250.914435 Y68.703334 Z0.000000 I135.011358 J-1264.239991
G02 X255.805060 Y69.170489 Z0.000000 I39.742203 J-390.225937
G02 X258.592568 Y69.384287 Z0.000000 I10.000125 J-112.103383
G02 X261.568606 Y69.563520 Z0.000000 I23.983824 J-373.437709
G03 X263.904760 Y69.809854 Z0.000000 I-1.349338 J23.997563
G03 X266.315507 Y70.336120 Z0.000000 I-3.116037 J20.058881
G02 X267.634913 Y70.689549 Z0.000000 I13.265063 J-46.881034
G02 X268.727950 Y70.880344 Z0.000000 I1.821414 J-7.208300
G02 X269.173235 Y70.902209 Z0.000000 I0.445286 J-4.523355
G01 X269.913423 Y71.540674 Z0.000000
G01 X269.913423 Y72.604475 Z0.000000
G01 X269.695832 Y73.030042 Z0.000000
G01 X269.042586 Y73.136611 Z0.000000
G01 X237.256624 Y69.838416 Z0.000000
G00 Z10.000000

(End cutting path id: path104)


(Start cutting path id: path80)
(Change tool to Default tool)

G00 Z10.000000
G00 X237.125975 Y62.561073

G01 Z0.000000 F1100.0(Penetrate)
G01 X236.777735 Y55.156036 Z0.000000 F2000.000000
G00 Z10.000000

(End cutting path id: path80)


(Start cutting path id: path98)
(Change tool to Default tool)

G00 Z10.000000
