; this is my prh header

G55     ; change to 12x9x4 coordinate system

; prh - start of generated gcode
G21 (All units in mm)

(Start cutting path id: path616)
(Change tool to Default tool)

G00 Z10.000000
G00 X152.487490 Y120.791440

G01 Z0.000000 F1000.0(Penetrate)
G01 X152.487490 Y108.084160 Z0.000000 F1400.000000
G00 Z10.000000

(End cutting path id: path616)


(Start cutting path id: path1711)
(Change tool to Default tool)

G00 Z10.000000
G00 X146.127210 Y114.437820

G01 Z0.000000 F1000.0(Penetrate)
G01 X158.847790 Y114.437820 Z0.000000 F1400.000000
G00 Z10.000000

(End cutting path id: path1711)


(Start cutting path id: path1699)
(Change tool to Default tool)

G00 Z10.000000
G00 X31.641918 Y222.449394

G01 Z0.000000 F1000.0(Penetrate)
G01 X276.513210 Y222.449394 Z0.000000 F1400.000000
G00 Z10.000000

(End cutting path id: path1699)


(Start cutting path id: path1697)
(Change tool to Default tool)

G00 Z10.000000
G00 X28.461773 Y6.426200

G01 Z0.000000 F1000.0(Penetrate)
G01 X276.513210 Y6.426200 Z0.000000 F1400.000000
G01 X276.513210 Y6.426200 Z0.000000
G00 Z10.000000

(End cutting path id: path1697)

; prh - end of generated gcode
; this is my prh footer

G54     ; change back to default coordinate system
