; this is my prh header

G55     ; change to 12x9x4 coordinate system

; prh - start of generated gcode
G21 (All units in mm)

(Start cutting path id: path4171)
(Change tool to Default tool)

G00 Z10.000000
G00 X131.342530 Y5.559330

G01 Z0.000000 F1100.0(Penetrate)
G02 X130.164222 Y5.819197 Z0.000000 I0.427641 J4.740349 F800.000000
G02 X130.168576 Y5.946405 Z0.000000 I0.022548 J0.062906
G02 X130.840915 Y6.064101 Z0.000000 I0.908627 J-3.211326
G02 X133.439130 Y6.152550 Z0.000000 I2.499340 J-35.212824
G03 X137.811504 Y6.437921 Z0.000000 I0.089670 J32.264967
G03 X142.512650 Y7.367780 Z0.000000 I-5.121056 J38.239694
G03 X148.332113 Y9.925806 Z0.000000 I-5.184200 J19.692565
G03 X149.473830 Y11.838180 Z0.000000 I-1.350827 J2.103462
G02 X149.694467 Y12.199112 Z0.000000 I0.463584 J-0.035484
G02 X150.259450 Y12.319670 Z0.000000 I0.453120 J-0.739357
G03 X154.081352 Y12.087447 Z0.000000 I3.599220 J27.669244
G03 X156.011360 Y12.365570 Z0.000000 I-0.057754 J7.236392
G03 X158.957788 Y13.867104 Z0.000000 I-2.367731 J8.287769
G03 X159.592190 Y15.169660 Z0.000000 I-1.020004 J1.302556
G02 X159.869293 Y15.537995 Z0.000000 I0.383354 J0.000000
G02 X160.299860 Y15.373820 Z0.000000 I0.106202 J-0.368165
G03 X161.225448 Y14.852657 Z0.000000 I0.943683 J0.593479
G03 X163.997516 Y15.135941 Z0.000000 I0.191982 J11.825982
G03 X166.702082 Y16.040725 Z0.000000 I-3.027534 J13.544474
G03 X167.847370 Y17.060860 Z0.000000 I-1.065205 J2.348853
G03 X168.239573 Y17.899318 Z0.000000 I-3.831251 J2.303093
G03 X168.262330 Y18.257440 Z0.000000 I-0.634737 J0.220118
G02 X168.343251 Y18.460113 Z0.000000 I0.193100 J0.040393
G02 X168.620440 Y18.504870 Z0.000000 I0.185549 J-0.268419
G03 X171.202266 Y18.137074 Z0.000000 I2.566522 J8.770513
G03 X173.134550 Y18.511870 Z0.000000 I-0.008731 J5.213413
G02 X174.018495 Y18.827245 Z0.000000 I4.458029 J-11.098650
G02 X174.590730 Y18.967830 Z0.000000 I1.408348 J-4.497633
G03 X175.689839 Y19.298774 Z0.000000 I-0.896306 J4.967370
G03 X178.575070 Y20.682800 Z0.000000 I-15.486720 J35.984004
G02 X178.747438 Y20.690945 Z0.000000 I0.094815 J-0.178594
G02 X178.933160 Y20.534000 Z0.000000 I-0.153821 J-0.370386
G02 X178.479383 Y19.193030 Z0.000000 I-0.772524 J-0.485845
G02 X170.891880 Y17.536590 Z0.000000 I-9.592968 J25.735726
G03 X169.351281 Y17.160613 Z0.000000 I0.349888 J-4.778052
G03 X168.266110 Y16.408940 Z0.000000 I1.309977 J-3.050336
G02 X166.195742 Y15.097516 Z0.000000 I-3.699352 J3.550256
G02 X162.105930 Y14.344860 Z0.000000 I-4.690221 J13.997896
G03 X160.219039 Y14.026593 Z0.000000 I0.309006 J-7.584464
G03 X159.484840 Y13.552680 Z0.000000 I0.457834 J-1.514965
G02 X157.427647 Y12.138426 Z0.000000 I-3.790436 J3.310282
G02 X153.557080 Y11.378020 Z0.000000 I-4.327315 J11.795555
G03 X149.757703 Y10.589430 Z0.000000 I0.421595 J-11.578087
G03 X149.107770 Y9.637270 Z0.000000 I0.372496 J-0.952160
G02 X148.504945 Y8.700501 Z0.000000 I-1.029265 J0.000000
G02 X142.456260 Y6.609370 Z0.000000 I-14.074866 J30.918539
G02 X136.263424 Y5.569347 Z0.000000 I-10.292073 J42.326637
G02 X131.342530 Y5.558840 Z0.000000 I-2.517319 J26.631229
G01 X131.342530 Y5.559330 Z0.000000
G00 Z10.000000

(Change tool to Default tool)

G00 Z10.000000
G00 X100.756740 Y6.759090

G01 Z0.000000 F1100.0(Penetrate)
G02 X100.800014 Y7.566733 Z0.000000 I0.238218 J0.392217 F800.000000
G02 X105.638670 Y9.050000 Z0.000000 I7.632767 J-16.265447
G03 X107.686511 Y9.538566 Z0.000000 I-2.099763 J13.337320
G03 X108.761140 Y10.057930 Z0.000000 I-1.333123 J4.129846
G02 X109.551407 Y10.207832 Z0.000000 I0.572054 J-0.857752
G02 X109.682500 Y9.858410 Z0.000000 I-0.046977 J-0.216927
G02 X108.633129 Y9.076214 Z0.000000 I-1.832679 J1.363667
G02 X105.012150 Y8.153600 Z0.000000 I-6.384492 J17.490257
G03 X103.015557 Y7.679055 Z0.000000 I1.807413 J-12.041961
G03 X102.051730 Y7.180060 Z0.000000 I1.064020 J-3.235527
G02 X101.147175 Y6.713692 Z0.000000 I-1.881437 J2.538774
G02 X100.756740 Y6.759090 Z0.000000 I-0.145730 J0.448304
G01 X100.756740 Y6.759090 Z0.000000
G00 Z10.000000

(Change tool to Default tool)

G00 Z10.000000
G00 X90.278565 Y8.686350

G01 Z0.000000 F1100.0(Penetrate)
G02 X90.407046 Y8.868795 Z0.000000 I0.193778 J0.000000 F800.000000
G02 X91.661922 Y9.181430 Z0.000000 I2.192830 J-6.126967
G03 X92.990122 Y9.537740 Z0.000000 I-0.845400 J5.805045
G03 X94.792686 Y10.430290 Z0.000000 I-4.651913 J11.661322
G02 X96.815426 Y11.148441 Z0.000000 I2.793624 J-4.660814
G02 X103.065180 Y11.615880 Z0.000000 I6.572340 J-45.859520
G03 X103.344224 Y11.803721 Z0.000000 I-0.001842 J0.303921
G03 X103.283610 Y12.144150 Z0.000000 I-0.296983 J0.122732
G02 X102.824371 Y13.881663 Z0.000000 I1.415530 J1.303583
G02 X104.405040 Y16.989230 Z0.000000 I7.055665 J-1.633088
G03 X105.790966 Y18.809421 Z0.000000 I-13.764678 J11.918401
G03 X105.800093 Y19.401535 Z0.000000 I-0.454804 J0.303137
G03 X105.250733 Y19.807385 Z0.000000 I-0.786534 J-0.489922
G03 X102.219150 Y20.498520 Z0.000000 I-11.474905 J-43.338915
G02 X98.894446 Y21.235007 Z0.000000 I11.243514 J58.628849
G02 X96.326295 Y21.981440 Z0.000000 I8.983724 J35.700249
G03 X93.796286 Y22.701984 Z0.000000 I-9.892276 J-29.932201
G03 X93.511641 Y22.657510 Z0.000000 I-0.088334 J-0.367777
G02 X93.285535 Y22.623421 Z0.000000 I-0.153815 J0.253320
G02 X93.142968 Y22.750310 Z0.000000 I0.050325 J0.200079
G03 X92.963958 Y22.915403 Z0.000000 I-0.254810 J-0.096694
G03 X88.385545 Y24.127830 Z0.000000 I-28.674844 J-99.032206
G01 X83.725806 Y25.247910 Z0.000000
G01 X83.708996 Y29.023850 Z0.000000
G02 X83.940733 Y32.552363 Z0.000000 I25.268084 J0.112374
G02 X84.224201 Y32.799780 Z0.000000 I0.283468 J-0.038678
G03 X84.526519 Y32.978180 Z0.000000 I-0.000000 J0.345355
G03 X84.587979 Y33.458510 Z0.000000 I-0.575299 J0.317709
G02 X84.904500 Y34.113513 Z0.000000 I0.546929 J0.139682
G02 X93.286087 Y37.347570 Z0.000000 I35.139335 J-78.591157
G03 X98.911373 Y39.579619 Z0.000000 I-15.256548 J46.654617
G03 X98.907589 Y39.990080 Z0.000000 I-0.096065 J0.204362
G02 X98.259682 Y40.409287 Z0.000000 I1.033018 J2.306880
G02 X98.141868 Y40.671950 Z0.000000 I0.233895 J0.262663
G03 X98.050230 Y40.969816 Z0.000000 I-0.529918 J-0.000000
G03 X97.559400 Y41.528980 Z0.000000 I-2.497932 J-1.697659
G02 X97.072537 Y42.089919 Z0.000000 I1.917694 J2.156201
G02 X96.976933 Y42.406960 Z0.000000 I0.477879 J0.317041
G03 X96.892198 Y42.741175 Z0.000000 I-0.701481 J0.000000
G03 X95.957615 Y44.287950 Z0.000000 I-16.942569 J-9.181207
G02 X94.997446 Y45.826981 Z0.000000 I23.109108 J15.486318
G02 X94.938297 Y46.047030 Z0.000000 I0.379745 J0.220049
G03 X94.855715 Y46.138353 Z0.000000 I-0.091785 J0.000000
G03 X94.602066 Y46.080930 Z0.000000 I-0.041069 J-0.407513
G02 X94.476120 Y46.083724 Z0.000000 I-0.060784 J0.100060
G02 X94.455902 Y46.178830 Z0.000000 I0.038827 J0.057956
G03 X94.557929 Y48.045522 Z0.000000 I-1.630193 J1.025234
G03 X90.530965 Y54.258590 Z0.000000 I-27.168801 J-13.197737
G02 X89.816210 Y55.297671 Z0.000000 I5.072738 J4.254767
G02 X89.696089 Y55.761180 Z0.000000 I0.834209 J0.463509
G03 X89.604863 Y56.177137 Z0.000000 I-0.993920 J0.000000
G03 X89.462386 Y56.268360 Z0.000000 I-0.142477 J-0.065653
G02 X89.299334 Y56.368296 Z0.000000 I0.000000 J0.182984
G02 X88.697064 Y57.770930 Z0.000000 I10.389409 J5.291672
G03 X88.107269 Y59.244909 Z0.000000 I-18.451879 J-6.528311
G03 X87.703355 Y59.989020 Z0.000000 I-5.080496 J-2.276084
G02 X85.926938 Y63.535989 Z0.000000 I15.298769 J9.880355
G02 X85.773339 Y65.192450 Z0.000000 I3.002873 J1.113801
G03 X85.626682 Y66.176863 Z0.000000 I-1.567892 J0.269548
G03 X84.303725 Y68.114240 Z0.000000 I-7.896678 J-3.971938
G02 X82.740802 Y69.978221 Z0.000000 I26.263915 J23.609180
G02 X82.702309 Y70.163570 Z0.000000 I0.168485 J0.131662
G03 X82.377179 Y70.636437 Z0.000000 I-0.367708 J0.095383
G03 X71.559583 Y71.420400 Z0.000000 I-15.209266 J-134.840777
G02 X70.615777 Y72.515797 Z0.000000 I0.031862 J0.981748
G02 X71.814177 Y73.606160 Z0.000000 I1.225068 J-0.142700
G03 X72.792463 Y73.740202 Z0.000000 I-0.093674 J4.320641
G03 X73.047725 Y73.922070 Z0.000000 I-0.107942 J0.421573
G02 X73.264452 Y74.197140 Z0.000000 I1.743556 J-1.150831
G02 X78.192359 Y79.430870 Z0.000000 I643.703528 J-601.153058
G03 X82.365182 Y85.107333 Z0.000000 I-20.411492 J19.376660
G03 X83.865524 Y89.611070 Z0.000000 I-11.161603 J6.220070
G02 X84.222153 Y92.185821 Z0.000000 I443.222464 J-60.078701
G02 X84.756295 Y95.907530 Z0.000000 I927.392462 J-131.200777
G03 X85.282574 Y99.630293 Z0.000000 I-452.082337 J65.808503
G03 X85.757408 Y103.205710 Z0.000000 I-416.496723 J57.132159
G02 X86.240305 Y106.779768 Z0.000000 I272.676519 J-35.022122
G02 X86.508182 Y108.500480 Z0.000000 I63.481624 J-9.001490
G03 X86.767357 Y110.222094 Z0.000000 I-46.147793 J7.827491
G03 X87.054195 Y112.650420 Z0.000000 I-91.527016 J12.042431
G02 X87.517795 Y116.454771 Z0.000000 I112.582210 J-11.788886
G02 X89.114082 Y127.461450 Z0.000000 I944.237449 J-131.322699
G02 X91.405287 Y141.923441 Z0.000000 I996.473659 J-150.458279
G02 X91.596789 Y142.427784 Z0.000000 I1.349399 J-0.223845
G03 X91.665624 Y142.603627 Z0.000000 I-0.426966 J0.268533
G03 X92.319841 Y146.295378 Z0.000000 I-195.496009 J36.547804
G02 X92.972199 Y149.993945 Z0.000000 I214.769812 J-35.974583
G02 X93.483520 Y152.575790 Z0.000000 I105.155632 J-19.483957
G02 X96.696438 Y167.144660 Z0.000000 I790.065130 J-166.596825
G02 X98.162116 Y172.896225 Z0.000000 I124.543825 J-28.675104
G03 X98.930013 Y175.766235 Z0.000000 I-126.522894 J35.390054
G03 X99.277880 Y177.263579 Z0.000000 I-34.077621 J8.706095
G02 X99.662812 Y178.749484 Z0.000000 I15.964185 J-3.342803
G02 X100.918960 Y182.558341 Z0.000000 I106.366575 J-32.967759
G03 X102.218733 Y186.356430 Z0.000000 I-276.657937 J96.798652
G03 X103.096580 Y189.066715 Z0.000000 I-140.059712 J46.861920
G02 X104.897398 Y194.336038 Z0.000000 I103.273116 J-32.351732
G02 X107.818500 Y201.802763 Z0.000000 I210.357554 J-77.990481
G03 X108.983388 Y204.670426 Z0.000000 I-290.244029 J119.571945
G03 X109.677860 Y206.445547 Z0.000000 I-110.545823 J44.271709
G02 X111.755445 Y211.283818 Z0.000000 I60.472991 J-23.102299
G02 X112.569860 Y212.489691 Z0.000000 I4.458846 J-2.133433
G02 X112.860912 Y212.547288 Z0.000000 I0.184716 J-0.169236
G02 X123.042350 Y207.580325 Z0.000000 I-155.015761 J-330.674812
G02 X132.558181 Y202.679424 Z0.000000 I-389.749287 J-768.445042
G02 X132.798680 Y202.478648 Z0.000000 I-0.342087 J-0.654197
G03 X132.975700 Y202.330993 Z0.000000 I0.426996 J0.331973
G03 X135.128560 Y201.264257 Z0.000000 I27.199773 J52.188141
G02 X137.295299 Y200.202999 Z0.000000 I-32.451584 J-68.997911
G02 X138.914590 Y199.335001 Z0.000000 I-20.066465 J-39.379390
G03 X140.528627 Y198.455887 Z0.000000 I31.994347 J56.819776
G03 X144.011190 Y196.651488 Z0.000000 I138.313402 J262.687566
G02 X154.243194 Y191.415859 Z0.000000 I-1717.613510 J-3369.352703
G02 X156.534230 Y190.219525 Z0.000000 I-87.372702 J-170.114745
G03 X158.282112 Y189.292868 Z0.000000 I921.500816 J1736.041990
G03 X162.358910 Y187.135277 Z0.000000 I4955.192301 J9358.002205
G02 X166.434552 Y184.975523 Z0.000000 I-1442.352968 J-2726.769736
G02 X169.579590 Y183.301999 Z0.000000 I-863.589041 J-1626.726710
G03 X172.736532 Y181.679624 Z0.000000 I54.710865 J102.577903
G03 X172.968290 Y181.625427 Z0.000000 I0.231758 J0.468426
G02 X173.202796 Y181.580678 Z0.000000 I-0.000000 J-0.636835
G02 X174.047780 Y181.197887 Z0.000000 I-3.541414 J-8.941439
G03 X175.116339 Y181.590722 Z0.000000 I0.353168 J0.689065
G03 X175.795090 Y185.417621 Z0.000000 I-8.337534 J3.452413
G03 X175.055739 Y202.871602 Z0.000000 I-10608.920575 J-440.651214
G03 X174.710530 Y210.532023 Z0.000000 I-2041.638705 J-88.166436
G02 X174.368680 Y217.830236 Z0.000000 I38296.823625 J1797.594158
G02 X174.315870 Y218.975021 Z0.000000 I934.657689 J43.689918
G02 X174.681635 Y220.404906 Z0.000000 I2.527202 J0.115265
G02 X175.447230 Y220.835341 Z0.000000 I0.765595 J-0.465647
G02 X176.172957 Y220.170858 Z0.000000 I0.000000 J-0.728549
G02 X177.493760 Y197.652873 Z0.000000 I-381.387232 J-33.668180
G03 X178.416091 Y182.978953 Z0.000000 I218.436097 J6.363885
G03 X179.145050 Y180.579859 Z0.000000 I6.326004 J0.611847
G03 X181.415484 Y176.470418 Z0.000000 I184.334352 J99.161353
G03 X182.404310 Y174.833843 Z0.000000 I30.204292 J17.132561
G02 X183.147724 Y173.613075 Z0.000000 I-24.983280 J-16.050879
G02 X183.182110 Y173.484572 Z0.000000 I-0.222922 J-0.128503
G03 X183.214623 Y173.354449 Z0.000000 I0.276644 J0.000000
G03 X184.825050 Y170.402199 Z0.000000 I153.425834 J81.777108
G02 X186.459291 Y167.453649 Z0.000000 I-500.620517 J-279.397278
G02 X187.784370 Y165.025693 Z0.000000 I-338.378802 J-186.248887
G03 X189.148071 Y162.621554 Z0.000000 I60.850855 J32.927631
G03 X190.218720 Y160.927055 Z0.000000 I31.280627 J18.578800
G02 X191.292267 Y159.247637 Z0.000000 I-37.146566 J-24.928328
G02 X191.336650 Y159.089273 Z0.000000 I-0.260344 J-0.158364
G03 X191.382704 Y158.935203 Z0.000000 I0.280744 J0.000000
G03 X191.746150 Y158.465548 Z0.000000 I3.198795 J2.099958
G02 X192.102969 Y157.976767 Z0.000000 I-2.125942 J-1.926608
G02 X193.748140 Y155.008577 Z0.000000 I-78.047719 J-45.199337
G03 X196.579615 Y149.888025 Z0.000000 I145.226824 J76.961923
G03 X196.965860 Y149.426578 Z0.000000 I1.505719 J0.867957
G02 X197.250142 Y149.105953 Z0.000000 I-0.951851 J-1.130301
G02 X197.371290 Y148.807596 Z0.000000 I-0.698008 J-0.457200
G03 X197.485314 Y148.496683 Z0.000000 I1.021117 J0.198119
G03 X198.099390 Y147.510198 Z0.000000 I11.160486 J6.262909
G02 X198.748826 Y146.535192 Z0.000000 I-33.137545 J-22.776178
G02 X199.782430 Y144.901844 Z0.000000 I-91.935341 J-59.321611
G03 X201.826473 Y141.789804 Z0.000000 I61.379238 J38.087667
G03 X204.290960 Y138.408781 Z0.000000 I74.900011 J52.007220
G02 X205.038303 Y137.393623 Z0.000000 I-27.506079 J-21.032210
G02 X206.569770 Y135.192287 Z0.000000 I-127.771811 J-90.524080
G03 X211.473449 Y128.224624 Z0.000000 I251.510808 J171.798049
G03 X211.707010 Y128.105460 Z0.000000 I0.233561 J0.169309
G02 X211.861470 Y128.023982 Z0.000000 I-0.000000 J-0.187145
G02 X212.539210 Y126.889100 Z0.000000 I-8.856696 J-6.058943
G03 X213.224523 Y125.708062 Z0.000000 I12.382639 J6.395846
G03 X214.556670 Y123.774570 Z0.000000 I34.570017 J22.392553
G02 X215.942813 Y121.874139 Z0.000000 I-583.705802 J-427.201087
G02 X217.677250 Y119.481510 Z0.000000 I-918.491529 J-667.647267
G03 X221.140203 Y114.888748 Z0.000000 I115.982638 J83.849247
G03 X226.308460 Y108.500540 Z0.000000 I229.599762 J180.468547
G02 X228.688405 Y105.636088 Z0.000000 I-1418.955609 J-1181.367815
G02 X229.745060 Y104.355760 Z0.000000 I-279.381613 J-231.649841
G03 X233.357092 Y100.671707 Z0.000000 I22.728668 J18.671604
G03 X234.051240 Y100.673510 Z0.000000 I0.346025 J0.404654
G02 X235.474897 Y101.431782 Z0.000000 I2.381860 J-2.756350
G02 X236.033710 Y101.214000 Z0.000000 I0.132475 J-0.485907
G02 X236.033500 Y101.016803 Z0.000000 I-0.156508 J-0.098432
G02 X235.839800 Y100.907040 Z0.000000 I-0.199322 J0.125952
G03 X235.764477 Y100.800733 Z0.000000 I0.001599 J-0.080971
G03 X235.968230 Y100.517720 Z0.000000 I0.550081 J0.181175
G02 X236.517717 Y98.808991 Z0.000000 I-0.925168 J-1.240227
G02 X235.094590 Y97.767900 Z0.000000 I-1.423127 J0.452131
G03 X234.881263 Y97.674733 Z0.000000 I-0.000000 J-0.290814
G03 X234.498020 Y97.123950 Z0.000000 I1.771797 J-1.641568
G02 X232.804498 Y93.998105 Z0.000000 I-56.793085 J28.747708
G02 X230.834180 Y90.790360 Z0.000000 I-61.762846 J35.728076
G03 X229.785672 Y89.080564 Z0.000000 I31.029761 J-20.204950
G03 X228.936540 Y87.499030 Z0.000000 I25.686679 J-14.809997
G02 X227.525524 Y84.964502 Z0.000000 I-28.521887 J14.218595
G02 X226.350810 Y83.314640 Z0.000000 I-13.216507 J8.167121
G03 X226.133464 Y83.016938 Z0.000000 I2.676863 J-2.182508
G03 X224.673300 Y80.738810 Z0.000000 I156.258823 J-101.760986
G02 X219.536798 Y73.431850 Z0.000000 I-75.604207 J47.687888
G02 X216.970620 Y70.869000 Z0.000000 I-11.618387 J9.067294
G03 X216.082055 Y69.794436 Z0.000000 I1.975842 J-2.538502
G03 X215.817560 Y68.612860 Z0.000000 I2.159912 J-1.103886
G02 X214.814222 Y54.731234 Z0.000000 I-66.879445 J-2.143149
G02 X212.574960 Y50.415570 Z0.000000 I-8.039180 J1.432503
G03 X212.376646 Y50.114378 Z0.000000 I0.649193 J-0.643332
G03 X212.305490 Y49.748040 Z0.000000 I0.907446 J-0.366338
G02 X212.236996 Y49.366969 Z0.000000 I-1.094309 J-0.000000
G02 X211.431790 Y47.396120 Z0.000000 I-31.014098 J11.521150
G03 X211.064404 Y45.390787 Z0.000000 I3.934126 J-1.757070
G03 X211.590080 Y44.653540 Z0.000000 I0.848504 J0.048972
G02 X212.607360 Y43.707721 Z0.000000 I-0.750095 J-1.826747
G02 X212.486430 Y42.855210 Z0.000000 I-0.679118 J-0.338499
G03 X212.238095 Y42.048186 Z0.000000 I0.720357 J-0.663386
G03 X212.669530 Y41.620410 Z0.000000 I0.501527 J0.074367
G02 X213.610519 Y40.286862 Z0.000000 I-0.154631 J-1.107880
G02 X212.149630 Y39.096210 Z0.000000 I-1.460889 J0.300904
G02 X211.772330 Y39.408818 Z0.000000 I0.000000 J0.383993
G02 X212.014250 Y39.811730 Z0.000000 I0.347105 J0.065672
G03 X212.309813 Y40.277373 Z0.000000 I-0.127027 J0.407254
G03 X211.868650 Y40.865520 Z0.000000 I-0.750964 J-0.103761
G02 X211.251207 Y41.704611 Z0.000000 I0.431859 J0.964500
G02 X211.628770 Y42.872650 Z0.000000 I1.456861 J0.174119
G03 X211.596198 Y43.513107 Z0.000000 I-0.330383 J0.304255
G03 X210.600050 Y43.783900 Z0.000000 I-0.771702 J-0.871182
G03 X209.143818 Y42.877210 Z0.000000 I0.466098 J-2.371368
G03 X208.950290 Y41.618640 Z0.000000 I1.059200 J-0.807035
G02 X208.534739 Y40.206058 Z0.000000 I-1.172358 J-0.422532
G02 X205.456440 Y38.947890 Z0.000000 I-3.860353 J5.050092
G03 X204.334424 Y38.615931 Z0.000000 I0.440046 J-3.549521
G03 X199.270838 Y36.038002 Z0.000000 I65.495201 J-134.908124
G03 X194.247662 Y33.226226 Z0.000000 I66.224225 J-124.200897
G03 X194.064210 Y32.873520 Z0.000000 I0.189299 J-0.322521
G02 X193.891376 Y32.552446 Z0.000000 I-0.334405 J-0.027045
G02 X192.719300 Y32.134510 Z0.000000 I-1.881398 J3.423793
G03 X191.431512 Y31.708012 Z0.000000 I0.900084 J-4.875207
G03 X190.662500 Y31.122980 Z0.000000 I1.109993 J-2.257004
G02 X189.836899 Y30.393501 Z0.000000 I-3.439498 J3.060779
G02 X186.955630 Y28.566600 Z0.000000 I-25.064465 J36.344515
G02 X184.008178 Y27.237733 Z0.000000 I-7.909153 J13.609465
G02 X181.103680 Y26.622880 Z0.000000 I-4.183898 J12.596581
G03 X177.333140 Y25.693200 Z0.000000 I1.293438 J-13.356845
G03 X177.202910 Y25.033340 Z0.000000 I0.151897 J-0.372759
G01 X177.182936 Y24.973319 Z0.000000
G02 X175.769800 Y24.840300 Z0.000000 I-2.367843 J17.582121
G02 X174.296579 Y24.946511 Z0.000000 I-0.316412 J5.881543
G02 X173.723040 Y25.250330 Z0.000000 I0.223295 J1.114792
G03 X172.878198 Y25.460901 Z0.000000 I-0.601119 J-0.611677
G03 X170.659060 Y24.342120 Z0.000000 I1.985563 J-6.698686
G02 X168.815354 Y23.459760 Z0.000000 I-3.104938 J4.120414
G02 X164.980010 Y22.910400 Z0.000000 I-4.531783 J17.975671
G03 X162.945186 Y22.667195 Z0.000000 I0.473311 J-12.594062
G03 X162.941370 Y22.496430 Z0.000000 I0.017427 J-0.085815
G03 X166.303317 Y22.078269 Z0.000000 I3.396384 J13.582546
G03 X170.571920 Y22.477630 Z0.000000 I0.055152 J22.422843
G02 X175.262191 Y23.057016 Z0.000000 I6.718691 J-35.115295
G02 X175.398630 Y22.751890 Z0.000000 I0.010145 J-0.178531
G02 X173.891000 Y21.997476 Z0.000000 I-1.891183 J1.895722
G02 X168.159268 Y21.480095 Z0.000000 I-7.677710 J53.048689
G02 X162.471435 Y21.611859 Z0.000000 I-1.737487 J47.827031
G02 X161.703460 Y22.254360 Z0.000000 I0.071722 J0.865955
G03 X161.262463 Y22.617006 Z0.000000 I-0.473141 J-0.125905
G03 X160.337410 Y22.344260 Z0.000000 I-0.091719 J-1.394017
G02 X159.725427 Y22.065054 Z0.000000 I-0.957056 J1.287448
G02 X158.429650 Y21.924040 Z0.000000 I-1.295777 J5.882915
G03 X155.920327 Y21.526309 Z0.000000 I-0.000000 J-8.114642
G03 X155.517190 Y20.976990 Z0.000000 I0.180484 J-0.555042
G02 X155.441705 Y20.877262 Z0.000000 I-0.104707 J0.000822
G02 X155.257900 Y20.901590 Z0.000000 I-0.064251 J0.221084
G03 X155.008622 Y20.920295 Z0.000000 I-0.142996 J-0.235286
G03 X154.257540 Y20.483060 Z0.000000 I1.285314 J-3.071631
G02 X150.374862 Y18.736945 Z0.000000 I-5.580680 J7.219414
G02 X146.501430 Y19.014120 Z0.000000 I-1.412825 J7.459785
G03 X145.640283 Y19.102819 Z0.000000 I-0.622223 J-1.816306
G03 X145.084020 Y18.836360 Z0.000000 I0.121288 J-0.967064
G02 X142.802747 Y17.136252 Z0.000000 I-7.734436 J7.997771
G02 X141.413510 Y16.772450 Z0.000000 I-1.389237 J2.470612
G03 X140.745625 Y16.683206 Z0.000000 I0.000000 J-2.543789
G03 X140.548420 Y16.537160 Z0.000000 I0.088681 J-0.325910
G02 X139.836550 Y15.961356 Z0.000000 I-1.198490 J0.753754
G02 X135.047010 Y14.523650 Z0.000000 I-14.515129 J39.658632
G02 X131.890461 Y14.253196 Z0.000000 I-2.492157 J10.530965
G02 X128.196530 Y14.945020 Z0.000000 I0.934919 J15.199528
G03 X126.207002 Y15.117370 Z0.000000 I-1.375763 J-4.311882
G03 X124.789760 Y14.478730 Z0.000000 I0.371905 J-2.717174
G02 X119.346796 Y12.232248 Z0.000000 I-6.119223 J7.109091
G02 X116.986540 Y13.914680 Z0.000000 I-0.163862 J2.266919
G02 X117.237563 Y14.393050 Z0.000000 I0.385725 J0.102639
G02 X120.173630 Y15.057270 Z0.000000 I4.182325 J-11.665938
G03 X124.794293 Y15.673388 Z0.000000 I-7.365939 J72.876654
G03 X125.372240 Y15.919620 Z0.000000 I-0.217691 J1.312340
G02 X125.694186 Y16.044070 Z0.000000 I0.383766 J-0.514128
G02 X127.573580 Y16.132740 Z0.000000 I1.837109 J-18.976740
G03 X129.477485 Y16.207909 Z0.000000 I0.043858 J23.037975
G03 X131.505250 Y16.451850 Z0.000000 I-2.120117 J26.173451
G03 X133.526701 Y16.775665 Z0.000000 I-670.595968 J4192.487538
G03 X138.186520 Y17.523710 Z0.000000 I-4065.345658 J25343.292984
G03 X142.790741 Y18.406276 Z0.000000 I-12.344450 J76.850326
G03 X143.428710 Y18.693250 Z0.000000 I-0.377409 J1.691631
G03 X143.331073 Y18.973795 Z0.000000 I-0.090827 J0.125652
G03 X139.642670 Y18.526780 Z0.000000 I1.065412 J-24.231262
G02 X133.634008 Y17.492436 Z0.000000 I-22.289810 J111.515144
G02 X119.401930 Y15.598790 Z0.000000 I-90.289024 J624.156420
G03 X116.735565 Y15.069529 Z0.000000 I2.186285 J-17.995347
G03 X116.115490 Y14.685710 Z0.000000 I0.349232 J-1.256988
G02 X114.013302 Y13.349207 Z0.000000 I-3.454255 J3.111684
G02 X109.920360 Y12.802650 Z0.000000 I-3.715091 J12.222342
G03 X107.342786 Y12.653421 Z0.000000 I-0.437447 J-14.779454
G03 X106.276690 Y12.269650 Z0.000000 I0.412170 J-2.817655
G02 X104.127613 Y11.368265 Z0.000000 I-4.083614 J6.723529
G02 X100.326120 Y10.759930 Z0.000000 I-5.279186 J20.807735
G03 X97.179763 Y10.312526 Z0.000000 I1.512795 J-21.925741
G03 X95.124416 Y9.631570 Z0.000000 I2.162812 J-9.970399
G02 X90.806816 Y8.251196 Z0.000000 I-8.041034 J17.708544
G02 X90.278557 Y8.686370 Z0.000000 I-0.084884 J0.435174
G01 X90.278565 Y8.686350 Z0.000000
G00 Z10.000000

(Change tool to Default tool)

G00 Z10.000000
G00 X105.824820 Y13.014030

G01 Z0.000000 F1100.0(Penetrate)
G03 X105.850875 Y13.290226 Z0.000000 I-0.168565 J0.155229 F800.000000
G03 X105.578720 Y13.409970 Z0.000000 I-0.223557 J-0.138953
G03 X104.982243 Y13.153465 Z0.000000 I0.273478 J-1.457722
G03 X104.840250 Y12.875310 Z0.000000 I0.201448 J-0.278155
G03 X105.111422 Y12.639667 Z0.000000 I0.237971 J-0.000000
G03 X105.824820 Y13.014030 Z0.000000 I-0.166979 J1.185119
G01 X105.824820 Y13.014030 Z0.000000
G00 Z10.000000

(Change tool to Default tool)

G00 Z10.000000
G00 X112.412320 Y13.910380

G01 Z0.000000 F1100.0(Penetrate)
G02 X113.130693 Y14.355815 Z0.000000 I1.825017 J-2.141292 F800.000000
G02 X113.750260 Y14.482780 Z0.000000 I0.619567 J-1.448208
G03 X114.370621 Y14.566050 Z0.000000 I0.000000 J2.352477
G03 X114.554890 Y14.702700 Z0.000000 I-0.083383 J0.305006
G03 X114.504844 Y14.806745 Z0.000000 I-0.057658 J0.036325
G03 X113.550940 Y14.815540 Z0.000000 I-0.519612 J-4.622669
G03 X112.466022 Y14.615295 Z0.000000 I0.575076 J-6.154885
G03 X112.247690 Y14.452520 Z0.000000 I0.101438 J-0.363872
G02 X111.684368 Y14.254835 Z0.000000 I-0.405933 J0.255284
G02 X111.145280 Y14.835560 Z0.000000 I0.277260 J0.797962
G03 X110.896977 Y15.188496 Z0.000000 I-0.603052 J-0.160456
G03 X110.663650 Y15.168370 Z0.000000 I-0.104488 J-0.151215
G03 X110.765295 Y13.842619 Z0.000000 I0.609337 J-0.620054
G03 X112.412320 Y13.910350 Z0.000000 I0.780302 J1.084627
G01 X112.412320 Y13.910380 Z0.000000
G00 Z10.000000

(Change tool to Default tool)

G00 Z10.000000
G00 X109.712350 Y13.797080

G01 Z0.000000 F1100.0(Penetrate)
G03 X109.518380 Y13.881051 Z0.000000 I-0.205885 J-0.209569 F800.000000
G03 X109.154160 Y13.819680 Z0.000000 I-0.036356 J-0.895696
G03 X109.136032 Y13.730794 Z0.000000 I0.019776 J-0.050325
G03 X109.330100 Y13.646760 Z0.000000 I0.205957 J0.209532
G03 X109.694267 Y13.708230 Z0.000000 I0.036158 J0.895240
G03 X109.712350 Y13.797090 Z0.000000 I-0.019787 J0.050297
G01 X109.712350 Y13.797080 Z0.000000
G00 Z10.000000

(Change tool to Default tool)

G00 Z10.000000
G00 X123.072890 Y14.297290

G01 Z0.000000 F1100.0(Penetrate)
G03 X123.305888 Y14.593488 Z0.000000 I-0.219494 J0.412400 F800.000000
G03 X123.187960 Y14.745380 Z0.000000 I-0.117814 J0.030255
G03 X118.245924 Y14.291725 Z0.000000 I0.016866 J-27.329397
G03 X118.236990 Y13.832910 Z0.000000 I0.042497 J-0.230322
G03 X120.960971 Y13.661558 Z0.000000 I1.897664 J8.429907
G03 X123.072880 Y14.297290 Z0.000000 I-0.539817 J5.619038
G01 X123.072890 Y14.297290 Z0.000000
G00 Z10.000000

(Change tool to Default tool)

G00 Z10.000000
G00 X108.335050 Y14.436430

G01 Z0.000000 F1100.0(Penetrate)
G03 X109.281795 Y14.709429 Z0.000000 I-0.561061 J3.723859 F800.000000
G03 X109.292500 Y14.854770 Z0.000000 I-0.032986 J0.075494
G03 X106.200372 Y15.528199 Z0.000000 I-2.484215 J-3.970913
G03 X105.131490 Y14.310290 Z0.000000 I0.159416 J-1.217909
G03 X105.299389 Y14.148882 Z0.000000 I0.161533 J0.000000
G03 X108.335050 Y14.436430 Z0.000000 I-1.092404 J27.700199
G01 X108.335050 Y14.436430 Z0.000000
G00 Z10.000000

(Change tool to Default tool)

G00 Z10.000000
G00 X137.458420 Y15.980150

G01 Z0.000000 F1100.0(Penetrate)
G03 X140.111199 Y16.977920 Z0.000000 I-10.777737 J32.680224 F800.000000
G03 X140.247633 Y17.148454 Z0.000000 I-0.089703 J0.211609
G03 X140.150662 Y17.255050 Z0.000000 I-0.089253 J0.016212
G03 X137.627500 Y16.910980 Z0.000000 I2.152280 J-25.206820
G02 X134.842877 Y16.419016 Z0.000000 I-23.724576 J126.159579
G02 X132.507460 Y16.064460 Z0.000000 I-14.611124 J88.372761
G03 X131.000514 Y15.584689 Z0.000000 I0.637797 J-4.609816
G03 X131.051280 Y15.308260 Z0.000000 I0.067736 J-0.130436
G03 X134.246004 Y15.290327 Z0.000000 I1.678476 J14.441117
G03 X137.458420 Y15.980150 Z0.000000 I-1.603705 J15.293051
G01 X137.458420 Y15.980150 Z0.000000
G00 Z10.000000

(Change tool to Default tool)

G00 Z10.000000
G00 X108.110860 Y15.524150

G01 Z0.000000 F1100.0(Penetrate)
G03 X108.998451 Y15.790349 Z0.000000 I-0.570887 J3.516372 F800.000000
G03 X109.044690 Y15.943140 Z0.000000 I-0.043302 J0.096496
G03 X107.895004 Y16.497557 Z0.000000 I-1.016967 J-0.639617
G03 X105.874140 Y15.590470 Z0.000000 I0.399572 J-3.594837
G03 X105.950625 Y15.382014 Z0.000000 I0.080032 J-0.088895
G03 X108.110860 Y15.524070 Z0.000000 I0.337254 J11.367672
G01 X108.110860 Y15.524150 Z0.000000
G00 Z10.000000

(Change tool to Default tool)

G00 Z10.000000
G00 X117.508920 Y16.044320

G01 Z0.000000 F1100.0(Penetrate)
G03 X124.615571 Y16.863538 Z0.000000 I-69.719286 J636.043688 F800.000000
G03 X132.944310 Y17.911140 Z0.000000 I-105.736878 J874.270515
G03 X134.980277 Y18.195535 Z0.000000 I-14.945715 J114.425295
G03 X137.895270 Y18.647740 Z0.000000 I-34.957095 J234.961068
G02 X140.808954 Y19.109413 Z0.000000 I79.380251 J-491.554848
G02 X143.117110 Y19.459270 Z0.000000 I47.776553 J-307.413483
G03 X145.222872 Y19.948719 Z0.000000 I-1.935974 J13.103701
G03 X145.655136 Y20.200384 Z0.000000 I-0.354193 J1.105435
G03 X145.609221 Y20.354811 Z0.000000 I-0.060770 J0.065971
G03 X144.123340 Y20.386160 Z0.000000 I-0.850070 J-5.062146
G02 X142.554548 Y20.194265 Z0.000000 I-39.886780 J319.575862
G02 X138.768970 Y19.744570 Z0.000000 I-221.357591 J1847.253286
G03 X132.522694 Y18.946237 Z0.000000 I37.158042 J-315.565074
G03 X124.935380 Y17.837000 Z0.000000 I64.353056 J-466.686334
G02 X114.300620 Y16.290066 Z0.000000 I-92.598287 J599.259368
G02 X112.921980 Y16.198090 Z0.000000 I-1.355046 J9.932711
G03 X112.287802 Y16.032807 Z0.000000 I-0.002405 J-1.290062
G03 X112.121080 Y15.747940 Z0.000000 I0.160006 J-0.284867
G03 X112.291833 Y15.505843 Z0.000000 I0.257001 J-0.000000
G03 X112.921980 Y15.462610 Z0.000000 I0.392061 J1.100508
G02 X113.727934 Y15.597391 Z0.000000 I2.106097 J-10.116845
G02 X117.508920 Y16.044320 Z0.000000 I28.207438 J-222.415682
G01 X117.508920 Y16.044320 Z0.000000
G00 Z10.000000

(Change tool to Default tool)

G00 Z10.000000
G00 X108.335050 Y16.772390

G01 Z0.000000 F1100.0(Penetrate)
G03 X108.355409 Y16.902240 Z0.000000 I-0.022023 J0.069974 F800.000000
G03 X107.971010 Y17.030070 Z0.000000 I-0.402602 J-0.568788
G03 X107.003913 Y16.930316 Z0.000000 I-0.098296 J-3.784835
G03 X106.878890 Y16.772390 Z0.000000 I0.037233 J-0.157926
G03 X107.072830 Y16.578450 Z0.000000 I0.193940 J0.000000
G03 X108.335050 Y16.772390 Z0.000000 I0.000000 J4.204428
G01 X108.335050 Y16.772390 Z0.000000
G00 Z10.000000

(Change tool to Default tool)

G00 Z10.000000
G00 X106.571470 Y18.024330

G01 Z0.000000 F1100.0(Penetrate)
G03 X106.453247 Y18.024821 Z0.000000 I-0.059372 J-0.062534 F800.000000
G03 X105.890420 Y17.388310 Z0.000000 I3.037306 J-3.252791
G01 X105.338810 Y16.629280 Z0.000000
G01 X106.019870 Y17.265290 Z0.000000
G03 X106.582668 Y17.901820 Z0.000000 I-3.039195 J3.254220
G03 X106.571470 Y18.024330 Z0.000000 I-0.075497 J0.054866
G01 X106.571470 Y18.024330 Z0.000000
G00 Z10.000000

(Change tool to Default tool)

G00 Z10.000000
G00 X110.664920 Y17.058590

G01 Z0.000000 F1100.0(Penetrate)
G03 X110.577986 Y17.257857 Z0.000000 I-0.271844 J0.000000 F800.000000
G03 X110.356500 Y17.344790 Z0.000000 I-0.221486 J-0.238683
G03 X110.214492 Y17.252859 Z0.000000 I0.000000 J-0.155648
G03 X110.228080 Y17.058590 Z0.000000 I0.188208 J-0.084445
G03 X110.430927 Y16.813809 Z0.000000 I1.029962 J0.647079
G03 X110.536500 Y16.772390 Z0.000000 I0.105573 J0.113837
G03 X110.614496 Y16.822895 Z0.000000 I0.000000 J0.085478
G03 X110.664920 Y17.058590 Z0.000000 I-0.525639 J0.235695
G01 X110.664920 Y17.058590 Z0.000000
G00 Z10.000000

(Change tool to Default tool)

G00 Z10.000000
G00 X118.181020 Y17.756770

G01 Z0.000000 F1100.0(Penetrate)
G02 X123.917258 Y18.444369 Z0.000000 I189.366571 J-1555.503368 F800.000000
G02 X125.226610 Y18.588170 Z0.000000 I9.564827 J-81.057943
G03 X129.297968 Y19.112510 Z0.000000 I-7.749154 J76.238767
G03 X129.595120 Y19.270150 Z0.000000 I-0.079394 J0.508544
G03 X129.465026 Y19.540516 Z0.000000 I-0.117837 J0.109782
G03 X119.238560 Y18.479730 Z0.000000 I14.393020 J-188.579600
G02 X114.886090 Y17.922864 Z0.000000 I-86.712272 J660.456212
G02 X113.213220 Y17.728990 Z0.000000 I-12.135367 J97.397469
G03 X111.651000 Y17.448474 Z0.000000 I1.196439 J-11.153402
G03 X111.538620 Y17.304020 Z0.000000 I0.036651 J-0.144454
G03 X111.711109 Y17.142888 Z0.000000 I0.161506 J0.000000
G03 X118.181020 Y17.756770 Z0.000000 I-8.325557 J122.147030
G01 X118.181020 Y17.756770 Z0.000000
G00 Z10.000000

(Change tool to Default tool)

G00 Z10.000000
G00 X108.413410 Y17.818670

G01 Z0.000000 F1100.0(Penetrate)
G03 X108.050415 Y17.890480 Z0.000000 I-0.375811 J-0.946343 F800.000000
G03 X107.539710 Y17.829270 Z0.000000 I-0.024618 J-1.955744
G01 X107.535191 Y17.758529 Z0.000000
G03 X107.898210 Y17.686730 Z0.000000 I0.375344 J0.944138
G03 X108.408846 Y17.748059 Z0.000000 I0.020650 J1.984548
G01 X108.413410 Y17.818660 Z0.000000
G01 X108.413410 Y17.818670 Z0.000000
G00 Z10.000000

(Change tool to Default tool)

G00 Z10.000000
G00 X113.431640 Y18.775750

G01 Z0.000000 F1100.0(Penetrate)
G03 X113.375849 Y18.931709 Z0.000000 I-0.089172 J0.056059 F800.000000
G03 X112.575120 Y19.061950 Z0.000000 I-0.800729 J-2.396343
G03 X111.662329 Y18.938247 Z0.000000 I-0.000000 J-3.429531
G03 X111.538620 Y18.775750 Z0.000000 I0.044868 J-0.162497
G03 X111.658443 Y18.609374 Z0.000000 I0.175420 J0.000000
G03 X112.395150 Y18.489540 Z0.000000 I0.736707 J2.204625
G03 X113.192009 Y18.597541 Z0.000000 I-0.000000 J2.993723
G03 X113.431640 Y18.775750 Z0.000000 I-0.109902 J0.397997
G01 X113.431640 Y18.775750 Z0.000000
G00 Z10.000000

(Change tool to Default tool)

G00 Z10.000000
G00 X133.065660 Y19.529340

G01 Z0.000000 F1100.0(Penetrate)
G01 X133.047865 Y19.582545 Z0.000000 F800.000000
G03 X131.519480 Y19.634340 Z0.000000 I-1.528385 J-22.524122
G03 X130.069255 Y19.514312 Z0.000000 I0.000000 J-8.821087
G03 X130.010180 Y19.382780 Z0.000000 I0.014238 J-0.085427
G03 X131.177741 Y18.773771 Z0.000000 I1.105032 J0.694811
G03 X133.065660 Y19.529310 Z0.000000 I-0.149107 J3.109093
G01 X133.065660 Y19.529340 Z0.000000
G00 Z10.000000

(Change tool to Default tool)

G00 Z10.000000
G00 X135.201370 Y19.823900

G01 Z0.000000 F1100.0(Penetrate)
G03 X134.837333 Y19.893447 Z0.000000 I-0.364037 J-0.917977 F800.000000
G03 X134.473280 Y19.823900 Z0.000000 I-0.000000 J-0.987613
G01 X134.473283 Y19.749074 Z0.000000
G03 X134.837320 Y19.679540 Z0.000000 I0.364037 J0.918166
G03 X135.201356 Y19.749067 Z0.000000 I-0.000000 J0.987790
G01 X135.201370 Y19.823900 Z0.000000
G01 X135.201370 Y19.823900 Z0.000000
G00 Z10.000000

(Change tool to Default tool)

G00 Z10.000000
G00 X151.052880 Y20.289580

G01 Z0.000000 F1100.0(Penetrate)
G03 X151.012722 Y20.402973 Z0.000000 I-0.064907 J0.040821 F800.000000
G03 X150.733510 Y20.398500 Z0.000000 I-0.133376 J-0.391100
G02 X150.214719 Y20.262719 Z0.000000 I-0.906533 J2.404695
G02 X149.448000 Y20.202380 Z0.000000 I-0.796358 J5.217710
G03 X149.054099 Y20.089516 Z0.000000 I0.004314 J-0.758853
G03 X149.053790 Y19.959390 Z0.000000 I0.040167 J-0.065159
G03 X150.209344 Y19.728979 Z0.000000 I0.883416 J1.417633
G03 X151.052880 Y20.289570 Z0.000000 I-0.201033 J1.217441
G01 X151.052880 Y20.289580 Z0.000000
G00 Z10.000000

(Change tool to Default tool)

G00 Z10.000000
G00 X151.728880 Y21.223730

G01 Z0.000000 F1100.0(Penetrate)
G03 X153.936928 Y21.702161 Z0.000000 I-45.477319 J215.220880 F800.000000
G03 X154.227880 Y21.789184 Z0.000000 I-0.456835 J2.057274
G01 X154.219600 Y21.830949 Z0.000000
G03 X153.185050 Y21.776410 Z0.000000 I0.619970 J-21.599821
G02 X151.583000 Y21.656966 Z0.000000 I-28.421213 J370.396508
G02 X148.889340 Y21.465560 Z0.000000 I-73.921154 J1021.246184
G03 X146.382175 Y21.103589 Z0.000000 I1.194972 J-17.140703
G03 X146.195440 Y20.871160 Z0.000000 I0.051284 J-0.232429
G03 X146.571486 Y20.518311 Z0.000000 I0.353565 J0.000000
G03 X151.728880 Y21.223730 Z0.000000 I-2.290768 J35.953883
G01 X151.728880 Y21.223730 Z0.000000
G00 Z10.000000

(Change tool to Default tool)

G00 Z10.000000
G00 X105.131490 Y21.225730

G01 Z0.000000 F1100.0(Penetrate)
G03 X105.100303 Y21.380066 Z0.000000 I-0.397474 J0.000000 F800.000000
G03 X104.438140 Y22.871420 Z0.000000 I-39.414444 J-16.607377
G02 X103.775337 Y24.369064 Z0.000000 I36.582921 J17.085770
G02 X102.678910 Y27.074910 Z0.000000 I118.296082 J49.509422
G03 X100.491430 Y31.923527 Z0.000000 I-49.340835 J-19.342633
G03 X99.830437 Y32.627120 Z0.000000 I-1.553121 J-0.796803
G03 X99.460417 Y32.374597 Z0.000000 I-0.126253 J-0.212357
G03 X100.439500 Y28.930740 Z0.000000 I15.570835 J2.565659
G02 X101.865757 Y25.304436 Z0.000000 I-112.955227 J-46.519901
G02 X101.927920 Y24.961630 Z0.000000 I-0.914139 J-0.342806
G03 X101.990181 Y24.621056 Z0.000000 I0.962616 J0.000000
G03 X102.510380 Y23.421840 Z0.000000 I12.832998 J4.854295
G02 X103.021470 Y22.220489 Z0.000000 I-10.717319 J-5.268858
G02 X103.092850 Y21.813870 Z0.000000 I-1.122477 J-0.406619
G03 X103.313259 Y21.480968 Z0.000000 I0.361609 J0.000000
G03 X104.767440 Y21.103610 Z0.000000 I1.999164 J4.713364
G03 X105.067056 Y21.136170 Z0.000000 I0.075336 J0.701568
G03 X105.131490 Y21.225730 Z0.000000 I-0.030024 J0.089560
G01 X105.131490 Y21.225730 Z0.000000
G00 Z10.000000

(Change tool to Default tool)

G00 Z10.000000
G00 X106.957100 Y21.237230

G01 Z0.000000 F1100.0(Penetrate)
G03 X107.015115 Y21.431410 Z0.000000 I-0.147271 J0.149757 F800.000000
G03 X106.724270 Y22.310470 Z0.000000 I-4.260339 J-0.921927
G02 X106.335200 Y23.219483 Z0.000000 I21.538983 J9.756741
G02 X105.032700 Y26.502820 Z0.000000 I279.873608 J112.925928
G03 X102.461583 Y32.079694 Z0.000000 I-47.560686 J-18.545879
G03 X101.771430 Y32.585180 Z0.000000 I-0.873055 J-0.468120
G03 X101.407843 Y32.229645 Z0.000000 I-0.057307 J-0.305074
G03 X102.362650 Y28.996710 Z0.000000 I13.458635 J2.217377
G02 X103.853797 Y25.487825 Z0.000000 I-189.591851 J-82.640857
G02 X104.727340 Y23.286590 Z0.000000 I-73.717580 J-30.528187
G03 X106.124521 Y21.223309 Z0.000000 I5.059497 J1.921413
G03 X106.957100 Y21.237230 Z0.000000 I0.408966 J0.444965
G01 X106.957100 Y21.237230 Z0.000000
G00 Z10.000000

(Change tool to Default tool)

G00 Z10.000000
G00 X108.721720 Y21.229230

G01 Z0.000000 F1100.0(Penetrate)
G03 X108.918163 Y21.627749 Z0.000000 I-0.114731 J0.304231 F800.000000
G03 X106.893280 Y27.263530 Z0.000000 I-56.528987 J-17.128680
G03 X104.184383 Y32.383994 Z0.000000 I-29.423478 J-12.289221
G03 X103.446960 Y32.551770 Z0.000000 I-0.455306 J-0.296719
G03 X103.322645 Y32.256329 Z0.000000 I0.141868 J-0.233569
G03 X103.926200 Y30.489960 Z0.000000 I9.027711 J2.098399
G02 X104.733893 Y28.634521 Z0.000000 I-46.995181 J-21.561031
G02 X105.805570 Y25.930900 Z0.000000 I-98.749473 J-40.707108
G03 X108.012720 Y21.470104 Z0.000000 I24.339172 J9.266304
G03 X108.721720 Y21.229230 Z0.000000 I0.500983 J0.310728
G01 X108.721720 Y21.229230 Z0.000000
G00 Z10.000000

(Change tool to Default tool)

G00 Z10.000000
G00 X110.956160 Y21.613380

G01 Z0.000000 F1100.0(Penetrate)
G03 X110.325571 Y24.818126 Z0.000000 I-8.458787 J-0.000000 F800.000000
G03 X106.862920 Y31.611950 Z0.000000 I-42.668937 J-17.468016
G03 X105.830516 Y32.505349 Z0.000000 I-1.943491 J-1.202663
G03 X105.422720 Y32.237950 Z0.000000 I-0.116229 J-0.267399
G03 X105.542911 Y31.601862 Z0.000000 I1.743283 J0.000000
G03 X107.156340 Y27.814270 Z0.000000 I65.654801 J25.730030
G02 X108.871682 Y23.791183 Z0.000000 I-68.800688 J-31.712093
G02 X109.351140 Y22.224660 Z0.000000 I-9.892150 J-3.884277
G03 X110.282189 Y21.148870 Z0.000000 I1.465525 J0.327561
G03 X110.956160 Y21.613380 Z0.000000 I0.176912 J0.464510
G01 X110.956160 Y21.613380 Z0.000000
G00 Z10.000000

(Change tool to Default tool)

G00 Z10.000000
G00 X102.732270 Y21.852500

G01 Z0.000000 F1100.0(Penetrate)
G02 X102.155456 Y23.154041 Z0.000000 I19.424102 J9.386912 F800.000000
G02 X100.736470 Y26.789500 Z0.000000 I150.351557 J60.779624
G02 X99.502422 Y30.082742 Z0.000000 I1050.980070 J395.702494
G02 X99.174529 Y30.977760 Z0.000000 I77.100603 J28.753644
G03 X98.346858 Y32.564851 Z0.000000 I-6.242220 J-2.245967
G03 X97.887792 Y32.795390 Z0.000000 I-0.445966 J-0.315708
G03 X97.455099 Y32.302267 Z0.000000 I0.010717 J-0.445799
G03 X98.287740 Y29.047950 Z0.000000 I11.625235 J1.240724
G02 X99.594462 Y25.770724 Z0.000000 I-106.911999 J-44.527954
G02 X99.878395 Y24.874950 Z0.000000 I-7.676133 J-2.925982
G03 X100.844621 Y22.566804 Z0.000000 I8.292673 J2.115131
G03 X101.720520 Y21.823780 Z0.000000 I1.543727 J0.932011
G03 X102.618014 Y21.664636 Z0.000000 I0.833598 J2.090796
G03 X102.732270 Y21.852580 Z0.000000 I-0.003719 J0.130963
G01 X102.732270 Y21.852500 Z0.000000
G00 Z10.000000

(Change tool to Default tool)

G00 Z10.000000
G00 X112.994780 Y22.186400

G01 Z0.000000 F1100.0(Penetrate)
G03 X112.912148 Y22.680605 Z0.000000 I-1.519184 J0.000000 F800.000000
G03 X112.773300 Y22.830340 Z0.000000 I-0.238729 J-0.082128
G02 X112.614998 Y22.986164 Z0.000000 I0.120922 J0.281166
G02 X111.574130 Y25.501580 Z0.000000 I41.966239 J18.838506
G03 X108.566044 Y32.011172 Z0.000000 I-47.848312 J-18.160918
G03 X107.716230 Y32.513560 Z0.000000 I-0.849814 J-0.467557
G03 X107.486620 Y32.301375 Z0.000000 I0.000000 J-0.230326
G03 X107.631430 Y31.440310 Z0.000000 I1.791021 J-0.141503
G02 X109.394114 Y27.264880 Z0.000000 I-165.952349 J-72.517616
G02 X111.071800 Y22.997300 Z0.000000 I-171.479675 J-69.876239
G03 X112.298656 Y21.724380 Z0.000000 I2.098970 J0.795324
G03 X112.994890 Y22.186400 Z0.000000 I0.194819 J0.462020
G01 X112.994780 Y22.186400 Z0.000000
G00 Z10.000000

(Change tool to Default tool)

G00 Z10.000000
G00 X114.405560 Y22.177400

G01 Z0.000000 F1100.0(Penetrate)
G03 X114.613825 Y22.749187 Z0.000000 I-0.260858 J0.418836 F800.000000
G03 X112.896934 Y27.345505 Z0.000000 I-55.132164 J-17.975047
G03 X110.787950 Y31.823508 Z0.000000 I-56.519597 J-23.883140
G03 X110.119990 Y32.319240 Z0.000000 I-0.844707 J-0.440297
G03 X109.666893 Y32.002434 Z0.000000 I-0.071721 J-0.379838
G03 X109.856740 Y30.726420 Z0.000000 I2.076473 J-0.343190
G02 X110.564027 Y29.206789 Z0.000000 I-31.872913 J-15.759141
G02 X111.827240 Y26.217880 Z0.000000 I-122.090797 J-53.361032
G03 X113.855016 Y22.302182 Z0.000000 I22.672937 J9.258462
G03 X114.405560 Y22.177400 Z0.000000 I0.338349 J0.215909
G01 X114.405560 Y22.177400 Z0.000000
G00 Z10.000000

(Change tool to Default tool)

G00 Z10.000000
G00 X100.167290 Y22.998110

G01 Z0.000000 F1100.0(Penetrate)
G03 X99.867736 Y23.781351 Z0.000000 I-32.187243 J-11.861276 F800.000000
G03 X99.628214 Y24.357560 Z0.000000 I-17.642371 J-6.995780
G02 X97.120581 Y30.481271 Z0.000000 I139.782070 J60.815431
G02 X96.976940 Y31.255340 Z0.000000 I2.013871 J0.774069
G03 X96.920206 Y31.445445 Z0.000000 I-0.346874 J0.000000
G03 X96.494952 Y31.990970 Z0.000000 I-3.527461 J-2.311260
G03 X95.339872 Y32.576673 Z0.000000 I-1.362066 J-1.254331
G03 X95.022422 Y32.156610 Z0.000000 I-0.034212 J-0.304129
G03 X98.988498 Y22.961677 Z0.000000 I247.677408 J101.378577
G03 X99.435401 Y22.430080 Z0.000000 I1.172305 J0.531883
G03 X100.009693 Y22.447707 Z0.000000 I0.275041 J0.403204
G03 X100.167290 Y22.998110 Z0.000000 I-0.297127 J0.382840
G01 X100.167290 Y22.998110 Z0.000000
G00 Z10.000000

(Change tool to Default tool)

G00 Z10.000000
G00 X116.780840 Y22.575310

G01 Z0.000000 F1100.0(Penetrate)
G03 X116.313011 Y24.935307 Z0.000000 I-6.186504 J0.000000 F800.000000
G03 X113.033560 Y31.655760 Z0.000000 I-55.252060 J-22.801556
G03 X112.716053 Y31.977261 Z0.000000 I-0.756937 J-0.430003
G03 X112.136970 Y32.180010 Z0.000000 I-0.810096 J-1.385407
G03 X111.869112 Y31.888836 Z0.000000 I-0.034500 J-0.237053
G03 X113.055060 Y28.221300 Z0.000000 I22.150433 J5.137128
G02 X114.183714 Y25.497036 Z0.000000 I-279.959184 J-117.582146
G02 X114.692340 Y24.214470 Z0.000000 I-61.587181 J-25.165703
G03 X115.217702 Y22.941808 Z0.000000 I26.424367 J10.163362
G03 X115.419000 Y22.568790 Z0.000000 I2.455270 J1.084154
G03 X116.299574 Y22.092220 Z0.000000 I0.875595 J0.566047
G03 X116.780840 Y22.575790 Z0.000000 I-0.002309 J0.483570
G01 X116.780840 Y22.575310 Z0.000000
G00 Z10.000000

(Change tool to Default tool)

G00 Z10.000000
G00 X98.324975 Y23.402690

G01 Z0.000000 F1100.0(Penetrate)
G02 X97.907995 Y24.081558 Z0.000000 I8.899826 J5.934016 F800.000000
G02 X97.867036 Y24.214580 Z0.000000 I0.284288 J0.160353
G03 X96.393239 Y29.668154 Z0.000000 I-15.713755 J-1.320622
G03 X94.005764 Y32.331310 Z0.000000 I-5.708026 J-2.715407
G03 X93.638975 Y32.091771 Z0.000000 I-0.127131 J-0.205922
G03 X94.474871 Y28.987060 Z0.000000 I12.909670 J1.810849
G02 X95.758904 Y25.692297 Z0.000000 I-109.082685 J-44.409217
G02 X95.812005 Y25.397640 Z0.000000 I-0.790971 J-0.294657
G03 X96.353035 Y23.735875 Z0.000000 I2.822556 J-0.000000
G03 X97.689230 Y22.820320 Z0.000000 I1.959873 J1.427487
G03 X98.271742 Y22.963318 Z0.000000 I0.160651 J0.603527
G03 X98.324975 Y23.402690 Z0.000000 I-0.229686 J0.250739
G01 X98.324975 Y23.402690 Z0.000000
G00 Z10.000000

(Change tool to Default tool)

G00 Z10.000000
G00 X118.344430 Y22.665290

G01 Z0.000000 F1100.0(Penetrate)
G03 X118.517917 Y23.028979 Z0.000000 I-0.102636 J0.272183 F800.000000
G03 X116.289850 Y28.865010 Z0.000000 I-66.362437 J-21.992377
G03 X114.780912 Y31.676606 Z0.000000 I-17.619029 J-7.645140
G03 X114.292840 Y31.941680 Z0.000000 I-0.488072 J-0.316798
G03 X114.061537 Y31.656770 Z0.000000 I0.000000 J-0.236347
G03 X114.938830 Y28.865010 Z0.000000 I14.706690 J3.087766
G02 X116.223482 Y25.778971 Z0.000000 I-204.682703 J-87.015459
G02 X116.863120 Y24.142660 Z0.000000 I-56.863251 J-23.171146
G03 X117.730273 Y22.797301 Z0.000000 I3.525932 J1.320502
G03 X118.344430 Y22.665290 Z0.000000 I0.409527 J0.410618
G01 X118.344430 Y22.665290 Z0.000000
G00 Z10.000000

(Change tool to Default tool)

G00 Z10.000000
G00 X120.275640 Y23.645670

G01 Z0.000000 F1100.0(Penetrate)
G03 X120.202564 Y24.202404 Z0.000000 I-2.157283 J0.000000 F800.000000
G03 X119.988960 Y24.718940 Z0.000000 I-2.065657 J-0.551779
G02 X119.725560 Y25.227723 Z0.000000 I5.454218 J3.146257
G02 X118.373500 Y28.221030 Z0.000000 I187.813213 J86.636173
G03 X116.554930 Y31.753903 Z0.000000 I-30.782432 J-13.610963
G03 X116.172629 Y32.098211 Z0.000000 I-0.741446 J-0.438865
G03 X116.011675 Y31.969437 Z0.000000 I-0.048090 J-0.104868
G03 X116.940760 Y28.878060 Z0.000000 I18.995727 J4.023690
G03 X119.693692 Y23.475984 Z0.000000 I29.387180 J11.573400
G03 X120.275640 Y23.645670 Z0.000000 I0.266235 J0.169686
G01 X120.275640 Y23.645670 Z0.000000
G00 Z10.000000

(Change tool to Default tool)

G00 Z10.000000
G00 X138.943280 Y23.627170

G01 Z0.000000 F1100.0(Penetrate)
G03 X145.129572 Y24.268637 Z0.000000 I-40.171411 J417.563032 F800.000000
G03 X150.709560 Y24.935490 Z0.000000 I-37.830095 J340.227860
G03 X160.861492 Y26.343027 Z0.000000 I-61.170673 J478.511106
G03 X164.980010 Y27.068800 Z0.000000 I-11.873799 J79.428282
G02 X167.601240 Y27.600769 Z0.000000 I1133.291890 J-5577.562377
G02 X169.930980 Y28.072360 Z0.000000 I879.895636 J-4340.781373
G03 X172.258863 Y28.552768 Z0.000000 I-57.992795 J286.892281
G03 X174.736340 Y29.084420 Z0.000000 I-68.466218 J325.088151
G02 X177.212287 Y29.623482 Z0.000000 I321.454597 J-1470.507021
G02 X179.978550 Y30.221140 Z0.000000 I399.621759 J-1842.949730
G03 X190.186856 Y32.977669 Z0.000000 I-21.527765 J100.004752
G03 X196.870100 Y35.733540 Z0.000000 I-14.833959 J45.455411
G03 X206.734864 Y41.530482 Z0.000000 I-39.940532 J79.259543
G03 X208.706270 Y43.758070 Z0.000000 I-3.366335 J4.965329
G01 X209.702530 Y45.700500 Z0.000000
G01 X208.018850 Y44.394520 Z0.000000
G03 X206.344167 Y43.077455 Z0.000000 I97.652872 J-125.891435
G03 X205.534310 Y42.413500 Z0.000000 I23.987208 J-30.084213
G02 X204.790789 Y41.861841 Z0.000000 I-4.814928 J5.712628
G01 X204.733430 Y41.892970 Z0.000000
G01 X204.677992 Y41.925032 Z0.000000
G03 X204.223750 Y41.599810 Z0.000000 I1.405982 J-2.443593
G02 X203.675314 Y41.208999 Z0.000000 I-2.189782 J2.492763
G02 X200.801770 Y39.652000 Z0.000000 I-38.657822 J67.915376
G03 X197.919279 Y38.106901 Z0.000000 I45.646562 J-88.618185
G03 X197.450390 Y37.784130 Z0.000000 I1.469663 J-2.636937
G02 X196.964853 Y37.499098 Z0.000000 I-1.091409 J1.303096
G02 X192.353790 Y35.839740 Z0.000000 I-45.917374 J120.359954
G03 X187.699187 Y34.254489 Z0.000000 I426.362896 J-1259.510078
G03 X184.382770 Y33.108550 Z0.000000 I219.792674 J-641.465066
G02 X178.494463 Y31.282489 Z0.000000 I-29.348588 J84.230558
G02 X172.260840 Y29.803950 Z0.000000 I-25.333639 J92.928437
G03 X169.936058 Y29.309887 Z0.000000 I24.083902 J-119.041826
G03 X167.746740 Y28.798370 Z0.000000 I23.650135 J-106.164723
G02 X165.554707 Y28.304482 Z0.000000 I-14.625435 J59.800959
G02 X164.251920 Y28.077700 Z0.000000 I-4.306591 J20.884488
G03 X162.943346 Y27.878536 Z0.000000 I9.640108 J-67.737309
G03 X157.116710 Y26.920960 Z0.000000 I217.159126 J-1339.569969
G02 X151.290042 Y25.962903 Z0.000000 I-231.488877 J1389.662022
G02 X146.632290 Y25.219610 Z0.000000 I-143.932732 J886.970608
G03 X141.973601 Y24.482043 Z0.000000 I262.053490 J-1670.288792
G03 X140.370770 Y24.219360 Z0.000000 I31.783756 J-198.958321
G02 X138.765385 Y23.976526 Z0.000000 I-8.224169 J48.942251
G02 X136.954420 Y23.759630 Z0.000000 I-8.350773 J62.055731
G03 X135.358118 Y23.463018 Z0.000000 I1.072693 J-10.216792
G03 X135.299960 Y23.314530 Z0.000000 I0.025753 J-0.095720
G03 X135.486593 Y23.172374 Z0.000000 I0.283216 J0.178236
G03 X135.687040 Y23.197870 Z0.000000 I0.071624 J0.237596
G02 X135.931259 Y23.283816 Z0.000000 I0.326435 J-0.537628
G02 X138.943280 Y23.627170 Z0.000000 I11.266824 J-85.453550
G01 X138.943280 Y23.627170 Z0.000000
G00 Z10.000000

(Change tool to Default tool)

G00 Z10.000000
G00 X203.410890 Y39.974400

G01 Z0.000000 F1100.0(Penetrate)
G02 X203.288475 Y40.268096 Z0.000000 I0.812976 J0.511216 F800.000000
G02 X203.320690 Y40.361830 Z0.000000 I0.090941 J0.021148
G02 X206.440572 Y42.450937 Z0.000000 I13.350830 J-16.564011
G02 X206.771870 Y42.254790 Z0.000000 I0.107584 J-0.196147
G02 X206.681843 Y42.033409 Z0.000000 I-0.317206 J-0.000000
G02 X206.008350 Y41.471280 Z0.000000 I-3.060917 J2.982793
G03 X205.266143 Y40.930002 Z0.000000 I6.861761 J-10.188432
G03 X204.538930 Y40.313100 Z0.000000 I8.200134 J-10.403510
G02 X203.729960 Y39.854637 Z0.000000 I-1.410892 J1.546598
G02 X203.410710 Y39.974400 Z0.000000 I-0.080942 J0.269625
G01 X203.410890 Y39.974400 Z0.000000
G00 Z10.000000

(Change tool to Default tool)

G00 Z10.000000
G00 X146.268250 Y23.271330

G01 Z0.000000 F1100.0(Penetrate)
G03 X145.612970 Y23.332784 Z0.000000 I-0.655280 J-3.462895 F800.000000
G03 X144.957690 Y23.271330 Z0.000000 I-0.000000 J-3.524349
G01 X144.957689 Y23.208786 Z0.000000
G03 X145.612970 Y23.147320 Z0.000000 I0.655281 J3.462223
G03 X146.268249 Y23.208778 Z0.000000 I-0.000000 J3.524072
G01 X146.268250 Y23.271330 Z0.000000
G01 X146.268250 Y23.271330 Z0.000000
G00 Z10.000000

(Change tool to Default tool)

G00 Z10.000000
G00 X95.958874 Y23.856420

G01 Z0.000000 F1100.0(Penetrate)
G02 X95.760754 Y24.360572 Z0.000000 I14.765904 J6.093656 F800.000000
G02 X95.237248 Y25.788290 Z0.000000 I118.119379 J44.121067
G03 X93.828177 Y29.432004 Z0.000000 I-77.947357 J-28.048932
G03 X92.837422 Y31.583910 Z0.000000 I-28.145037 J-11.654176
G03 X91.896693 Y32.310183 Z0.000000 I-1.235830 J-0.628357
G03 X91.523565 Y31.870110 Z0.000000 I-0.069548 J-0.319252
G02 X91.664053 Y31.511607 Z0.000000 I-33.876611 J-13.482123
G02 X92.600118 Y29.079610 Z0.000000 I-1552.803548 J-599.063561
G03 X93.554406 Y26.655326 Z0.000000 I145.442170 J55.851480
G03 X93.945062 Y25.745040 Z0.000000 I20.865394 J8.415562
G02 X94.308458 Y24.832897 Z0.000000 I-9.259733 J-4.217516
G02 X94.355837 Y24.549110 Z0.000000 I-0.826207 J-0.283787
G03 X94.728193 Y23.727914 Z0.000000 I1.091715 J-0.000000
G03 X95.718351 Y23.355560 Z0.000000 I0.990158 J1.130332
G03 X95.948849 Y23.500569 Z0.000000 I0.000000 J0.255698
G03 X95.958874 Y23.856420 Z0.000000 I-0.393911 J0.189164
G01 X95.958874 Y23.856420 Z0.000000
G00 Z10.000000

(Change tool to Default tool)

G00 Z10.000000
G00 X122.023040 Y23.454610

G01 Z0.000000 F1100.0(Penetrate)
G03 X121.982449 Y23.678264 Z0.000000 I-0.636452 J0.000000 F800.000000
G03 X119.664530 Y29.738010 Z0.000000 I-484.794764 J-181.966083
G03 X118.367690 Y31.814851 Z0.000000 I-6.149065 J-2.396342
G03 X117.735520 Y31.830460 Z0.000000 I-0.323645 J-0.298363
G03 X117.660836 Y31.472795 Z0.000000 I0.230770 J-0.234817
G03 X119.386370 Y27.471780 Z0.000000 I81.552011 J32.798675
G03 X121.309196 Y23.557466 Z0.000000 I80.356302 J37.043938
G03 X121.642410 Y23.355560 Z0.000000 I0.333214 J0.174006
G03 X121.979769 Y23.398699 Z0.000000 I0.000000 J1.340674
G03 X122.023040 Y23.454660 Z0.000000 I-0.014550 J0.055961
G01 X122.023040 Y23.454610 Z0.000000
G00 Z10.000000

(Change tool to Default tool)

G00 Z10.000000
G00 X153.767520 Y23.916170

G01 Z0.000000 F1100.0(Penetrate)
G03 X159.026395 Y24.638752 Z0.000000 I-34.530057 J270.804048 F800.000000
G03 X161.485210 Y25.053150 Z0.000000 I-8.780376 J59.599915
G01 X164.688770 Y25.661560 Z0.000000
G02 X166.146053 Y25.932194 Z0.000000 I33.888280 J-178.419165
G02 X170.804680 Y26.771560 Z0.000000 I330.964832 J-1823.565275
G03 X175.464280 Y27.605766 Z0.000000 I-2398.247313 J13410.031250
G03 X178.813610 Y28.206820 Z0.000000 I-1259.133757 J7025.768063
G03 X189.660505 Y30.907548 Z0.000000 I-14.940456 J83.137607
G03 X189.533640 Y31.643580 Z0.000000 I-0.115126 J0.359106
G03 X183.359470 Y30.673323 Z0.000000 I0.782228 J-25.107264
G03 X183.113170 Y29.793160 Z0.000000 I0.148763 J-0.516173
G01 X183.096158 Y29.743924 Z0.000000
G02 X182.960020 Y29.768260 Z0.000000 I-0.033439 J0.205889
G03 X182.372442 Y29.862461 Z0.000000 I-0.420421 J-0.742771
G03 X173.717030 Y27.922290 Z0.000000 I37.140551 J-185.966619
G02 X172.546786 Y27.656942 Z0.000000 I-6.927427 J27.838314
G02 X170.222210 Y27.206340 Z0.000000 I-22.433223 J109.507672
G03 X167.897580 Y26.758731 Z0.000000 I22.764490 J-124.486292
G03 X167.455510 Y26.646720 Z0.000000 I0.930896 J-4.602277
G02 X166.123627 Y26.331193 Z0.000000 I-3.122333 J10.211007
G02 X158.136020 Y25.061540 Z0.000000 I-62.539486 J367.686194
G03 X152.609702 Y24.231280 Z0.000000 I175.164943 J-1184.726971
G03 X148.962160 Y23.661380 Z0.000000 I78.815378 J-516.401655
G01 X147.214770 Y23.382050 Z0.000000
G01 X149.399010 Y23.509800 Z0.000000
G03 X151.579779 Y23.675001 Z0.000000 I-3.746865 J63.937805
G03 X153.767520 Y23.916080 Z0.000000 I-5.967144 J64.197677
G01 X153.767520 Y23.916170 Z0.000000
G00 Z10.000000

(Change tool to Default tool)

G00 Z10.000000
G00 X94.040550 Y24.418540

G01 Z0.000000 F1100.0(Penetrate)
G03 X93.711039 Y25.180663 Z0.000000 I-9.944915 J-3.847484 F800.000000
G03 X93.526034 Y25.491810 Z0.000000 I-1.828035 J-0.876357
G02 X93.349891 Y25.806696 Z0.000000 I1.264989 J0.914329
G02 X92.926894 Y26.932200 Z0.000000 I16.006079 J6.657780
G03 X90.879818 Y31.609046 Z0.000000 I-27.596439 J-9.292654
G03 X90.060138 Y32.175310 Z0.000000 I-0.972942 J-0.531971
G03 X89.471028 Y32.190841 Z0.000000 I-0.363236 J-2.597436
G03 X89.404863 Y32.118710 Z0.000000 I0.006235 J-0.072131
G03 X89.865491 Y29.567555 Z0.000000 I7.295006 J0.000000
G03 X91.447752 Y26.645990 Z0.000000 I11.225636 J4.190336
G02 X91.620643 Y26.340093 Z0.000000 I-1.171693 J-0.864040
G02 X92.004389 Y25.305000 Z0.000000 I-13.267982 J-5.507597
G03 X92.507684 Y24.403503 Z0.000000 I2.563113 J0.839714
G03 X93.134473 Y23.968120 Z0.000000 I1.125454 J0.951372
G03 X93.882650 Y24.011619 Z0.000000 I0.323109 J0.898586
G03 X94.040550 Y24.418530 Z0.000000 I-0.144181 J0.290041
G01 X94.040550 Y24.418540 Z0.000000
G00 Z10.000000

(Change tool to Default tool)

G00 Z10.000000
G00 X123.770440 Y23.713660

G01 Z0.000000 F1100.0(Penetrate)
G03 X123.689618 Y24.142306 Z0.000000 I-1.177089 J0.000000 F800.000000
G03 X121.504840 Y29.508020 Z0.000000 I-193.441816 J-75.636780
G03 X120.306036 Y31.648753 Z0.000000 I-10.303683 J-4.363999
G03 X119.986020 Y31.809473 Z0.000000 I-0.312486 J-0.223247
G03 X119.824174 Y31.623286 Z0.000000 I0.003261 J-0.166272
G03 X120.369800 Y29.485720 Z0.000000 I8.455603 J1.019921
G02 X121.045954 Y27.790519 Z0.000000 I-2962.591024 J-1182.649820
G02 X121.872260 Y25.715740 Z0.000000 I-4445.469102 J-1771.669011
G03 X123.277693 Y23.517091 Z0.000000 I6.419640 J2.555080
G03 X123.770440 Y23.713540 Z0.000000 I0.207213 J0.196449
G01 X123.770440 Y23.713660 Z0.000000
G00 Z10.000000

(Change tool to Default tool)

G00 Z10.000000
G00 X159.670550 Y23.828580

G01 Z0.000000 F1100.0(Penetrate)
G03 X159.307545 Y23.900346 Z0.000000 I-0.375587 J-0.945827 F800.000000
G03 X158.796850 Y23.839080 Z0.000000 I-0.024202 J-1.957384
G01 X158.792329 Y23.768335 Z0.000000
G03 X159.155330 Y23.696530 Z0.000000 I0.375325 J0.943950
G03 X159.665984 Y23.757864 Z0.000000 I0.020649 J1.984551
G01 X159.670550 Y23.828470 Z0.000000
G01 X159.670550 Y23.828580 Z0.000000
G00 Z10.000000

(Change tool to Default tool)

G00 Z10.000000
G00 X131.924980 Y24.355720

G01 Z0.000000 F1100.0(Penetrate)
G03 X136.430942 Y24.822612 Z0.000000 I-20.954045 J224.203942 F800.000000
G03 X137.021580 Y24.935700 Z0.000000 I-0.448512 J3.941428
G02 X137.610835 Y25.059989 Z0.000000 I1.372447 J-5.047800
G02 X140.807620 Y25.509290 Z0.000000 I22.688095 J-149.829015
G03 X144.010514 Y25.929576 Z0.000000 I-138.750388 J1069.796330
G03 X144.739270 Y26.031180 Z0.000000 I-7.384725 J55.631315
G02 X151.649233 Y27.003477 Z0.000000 I95.357911 J-652.653751
G02 X153.476290 Y27.213490 Z0.000000 I6.147976 J-45.433247
G03 X154.201342 Y27.304256 Z0.000000 I-1.141222 J12.057511
G03 X155.951760 Y27.599560 Z0.000000 I-11.010336 J70.599421
G02 X157.700755 Y27.907520 Z0.000000 I30.148868 J-166.103947
G02 X160.465890 Y28.369980 Z0.000000 I71.062947 J-416.400474
G03 X178.984886 Y32.122751 Z0.000000 I-40.678388 J248.307526
G03 X185.948850 Y34.538460 Z0.000000 I-9.008100 J37.214039
G02 X186.541988 Y34.779046 Z0.000000 I2.971777 J-6.475130
G02 X191.191040 Y36.395160 Z0.000000 I140.508777 J-396.704630
G03 X203.279732 Y41.654985 Z0.000000 I-26.080000 J76.461521
G03 X208.140860 Y45.481360 Z0.000000 I-8.404809 J15.678732
G03 X211.113588 Y49.324937 Z0.000000 I-25.590471 J22.863750
G03 X211.057910 Y49.861990 Z0.000000 I-0.352680 J0.234849
G03 X210.939999 Y49.858257 Z0.000000 I-0.057174 J-0.058127
G03 X210.726840 Y49.492280 Z0.000000 I0.782588 J-0.700873
G02 X208.834350 Y46.926883 Z0.000000 I-4.933240 J1.658502
G02 X205.825540 Y45.963760 Z0.000000 I-2.986510 J4.148554
G02 X205.535542 Y46.353986 Z0.000000 I0.001366 J0.303884
G02 X206.116770 Y46.946610 Z0.000000 I0.849368 J-0.251697
G03 X206.593100 Y47.169641 Z0.000000 I-0.611637 J1.926451
G03 X207.500120 Y47.830100 Z0.000000 I-4.954122 J7.756621
G01 X208.373820 Y48.551750 Z0.000000
G01 X207.291300 Y47.951030 Z0.000000
G02 X206.047609 Y47.693035 Z0.000000 I-1.035827 J1.866644
G02 X205.938540 Y48.083380 Z0.000000 I0.021164 J0.216324
G03 X207.226309 Y49.856681 Z0.000000 I-2.220273 J2.966598
G03 X206.944890 Y51.041920 Z0.000000 I-1.083851 J0.368683
G03 X206.186378 Y51.036841 Z0.000000 I-0.376706 J-0.383313
G03 X206.092170 Y50.181120 Z0.000000 I0.491789 J-0.487188
G02 X206.070362 Y50.089133 Z0.000000 I-0.056106 J-0.035277
G02 X205.940160 Y50.089220 Z0.000000 I-0.065029 J0.107522
G03 X205.599395 Y50.119707 Z0.000000 I-0.201403 J-0.331474
G03 X203.929340 Y49.315060 Z0.000000 I4.092788 J-10.630060
G02 X198.377644 Y46.366876 Z0.000000 I-37.632257 J64.163673
G02 X193.229690 Y44.200450 Z0.000000 I-25.327232 J52.984036
G02 X184.662566 Y41.313537 Z0.000000 I-60.353567 J164.948365
G02 X178.969330 Y39.800370 Z0.000000 I-21.986077 J71.254929
G02 X161.925155 Y36.192745 Z0.000000 I-162.879924 J727.457765
G02 X154.733130 Y34.965680 Z0.000000 I-25.571537 J128.188498
G03 X153.916080 Y34.831774 Z0.000000 I2.739862 J-19.277345
G03 X150.855180 Y34.245030 Z0.000000 I50.080344 J-269.534335
G02 X147.791474 Y33.675299 Z0.000000 I-26.929515 J136.290152
G02 X145.904200 Y33.381660 Z0.000000 I-8.968425 J51.429957
G03 X144.011499 Y33.120220 Z0.000000 I109.452828 J-799.368071
G03 X138.768970 Y32.387450 Z0.000000 I852.865896 J-6120.862429
G02 X128.357615 Y30.944967 Z0.000000 I-446.107559 J3181.559501
G02 X126.027510 Y30.643370 Z0.000000 I-21.772749 J159.061990
G03 X125.176622 Y30.126481 Z0.000000 I0.146346 J-1.199709
G03 X125.182360 Y29.409060 Z0.000000 I0.517868 J-0.354591
G02 X126.039625 Y27.590214 Z0.000000 I-4.687681 J-3.320863
G02 X126.391540 Y24.945090 Z0.000000 I-9.764918 J-2.645124
G03 X126.892246 Y24.388215 Z0.000000 I0.560025 J0.000000
G03 X131.924980 Y24.355670 Z0.000000 I2.679116 J25.150845
G01 X131.924980 Y24.355720 Z0.000000
G00 Z10.000000

(Change tool to Default tool)

G00 Z10.000000
G00 X166.695060 Y24.516860

G01 Z0.000000 F1100.0(Penetrate)
G03 X170.165662 Y25.213257 Z0.000000 I-9.025513 J53.976394 F800.000000
G03 X170.513450 Y25.412410 Z0.000000 I-0.160187 J0.682994
G03 X170.482878 Y25.538478 Z0.000000 I-0.055851 J0.053197
G03 X170.076600 Y25.563940 Z0.000000 I-0.248904 J-0.717522
G02 X169.345890 Y25.424045 Z0.000000 I-3.947877 J18.642544
G02 X167.164260 Y25.065110 Z0.000000 I-28.388093 J165.735151
G03 X162.021200 Y24.103284 Z0.000000 I14.361415 J-91.024431
G03 X162.035330 Y23.954350 Z0.000000 I0.015945 J-0.073624
G03 X163.162091 Y24.008505 Z0.000000 I0.188489 J7.827183
G03 X166.695060 Y24.516860 Z0.000000 I-9.389239 J77.784272
G01 X166.695060 Y24.516860 Z0.000000
G00 Z10.000000

(Change tool to Default tool)

G00 Z10.000000
G00 X124.935380 Y24.628210

G01 Z0.000000 F1100.0(Penetrate)
G03 X123.934476 Y29.529189 Z0.000000 I-12.499401 J0.000000 F800.000000
G03 X122.094790 Y31.292660 Z0.000000 I-2.984375 J-1.272024
G03 X121.795189 Y31.051473 Z0.000000 I-0.078756 J-0.208845
G03 X122.467680 Y28.746340 Z0.000000 I8.607959 J1.260593
G02 X124.108728 Y24.975326 Z0.000000 I-158.241210 J-71.105076
G02 X124.316510 Y24.356320 Z0.000000 I-4.028840 J-1.696737
G03 X124.651278 Y24.193051 Z0.000000 I0.236565 J0.060216
G03 X124.935380 Y24.628210 Z0.000000 I-0.191215 J0.435159
G01 X124.935380 Y24.628210 Z0.000000
G00 Z10.000000

(Change tool to Default tool)

G00 Z10.000000
G00 X91.584577 Y24.999800

G01 Z0.000000 F1100.0(Penetrate)
G02 X90.377214 Y28.012549 Z0.000000 I74.507488 J31.607266 F800.000000
G02 X89.679785 Y30.043490 Z0.000000 I33.136779 J12.514457
G03 X88.753773 Y31.887774 Z0.000000 I-6.006187 J-1.861080
G03 X88.087598 Y32.226430 Z0.000000 I-0.666175 J-0.485893
G03 X87.802645 Y31.899005 Z0.000000 I0.000000 J-0.287708
G03 X88.495450 Y29.300310 Z0.000000 I10.939789 J1.524821
G02 X89.280216 Y27.201443 Z0.000000 I-41.958116 J-16.884282
G02 X89.538567 Y26.284770 Z0.000000 I-7.720705 J-2.670710
G03 X90.260894 Y24.909066 Z0.000000 I2.874893 J0.632006
G03 X91.204227 Y24.498950 Z0.000000 I0.943333 J0.879852
G03 X91.543059 Y24.667096 Z0.000000 I-0.000000 J0.425465
G03 X91.584577 Y24.999800 Z0.000000 I-0.266203 J0.202162
G01 X91.584577 Y24.999800 Z0.000000
G00 Z10.000000

(Change tool to Default tool)

G00 Z10.000000
G00 X89.404863 Y25.347550

G01 Z0.000000 F1100.0(Penetrate)
G03 X89.257267 Y26.222536 Z0.000000 I-2.667373 J-0.000000 F800.000000
G03 X87.960329 Y29.507500 Z0.000000 I-39.915406 J-13.860518
G02 X87.464922 Y30.657484 Z0.000000 I51.777591 J22.987192
G02 X87.270135 Y31.159660 Z0.000000 I9.671970 J4.040495
G03 X86.612768 Y31.943300 Z0.000000 I-1.389899 J-0.498396
G03 X86.030610 Y31.867910 Z0.000000 I-0.241276 J-0.422268
G03 X85.987012 Y31.703592 Z0.000000 I0.116953 J-0.118974
G03 X86.505366 Y30.186870 Z0.000000 I14.274404 J4.031475
G02 X87.078550 Y28.635868 Z0.000000 I-26.096290 J-10.525483
G02 X87.215517 Y28.076480 Z0.000000 I-3.234521 J-1.088441
G03 X88.553036 Y25.048082 Z0.000000 I6.355499 J0.997400
G03 X89.404863 Y25.347550 Z0.000000 I0.373273 J0.299468
G01 X89.404863 Y25.347550 Z0.000000
G00 Z10.000000

(Change tool to Default tool)

G00 Z10.000000
G00 X87.262697 Y26.510220

G01 Z0.000000 F1100.0(Penetrate)
G03 X85.917932 Y30.839411 Z0.000000 I-22.158077 J-4.509448 F800.000000
G03 X85.108656 Y31.582640 Z0.000000 I-1.222836 J-0.519293
G03 X84.121584 Y31.023606 Z0.000000 I-0.238865 J-0.729182
G03 X84.677442 Y29.686410 Z0.000000 I1.219302 J-0.277279
G02 X86.220207 Y27.855449 Z0.000000 I-2.073581 J-3.312643
G02 X86.082062 Y26.258130 Z0.000000 I-1.621579 J-0.664390
G03 X86.154657 Y25.944830 Z0.000000 I0.191800 J-0.120619
G03 X87.038589 Y25.666360 Z0.000000 I0.989911 J1.600078
G03 X87.242220 Y25.814037 Z0.000000 I0.011205 J0.198781
G03 X87.262697 Y26.510220 Z0.000000 I-1.475187 J0.391782
G01 X87.262697 Y26.510220 Z0.000000
G00 Z10.000000

(Change tool to Default tool)

G00 Z10.000000
G00 X125.675120 Y26.717030

G01 Z0.000000 F1100.0(Penetrate)
G03 X124.724378 Y29.098351 Z0.000000 I-9.277536 J-2.323601 F800.000000
G03 X123.777340 Y30.075740 Z0.000000 I-2.345823 J-1.325470
G03 X123.682405 Y29.998493 Z0.000000 I-0.033716 J-0.055524
G03 X124.868600 Y27.003230 Z0.000000 I42.064381 J14.925978
G03 X125.422659 Y26.487618 Z0.000000 I0.872670 J0.382249
G03 X125.675120 Y26.717030 Z0.000000 I0.064723 J0.182393
G01 X125.675120 Y26.717030 Z0.000000
G00 Z10.000000

(Change tool to Default tool)

G00 Z10.000000
G00 X85.618824 Y26.340660

G01 Z0.000000 F1100.0(Penetrate)
G03 X85.597789 Y26.460828 Z0.000000 I-0.353761 J0.000000 F800.000000
G03 X85.282839 Y27.270830 Z0.000000 I-16.852925 J-6.086624
G02 X84.972406 Y28.084371 Z0.000000 I13.156697 J5.486361
G02 X84.866171 Y28.471690 Z0.000000 I2.864364 J0.993876
G03 X84.730497 Y28.836972 Z0.000000 I-1.242519 J-0.253661
G03 X84.474073 Y29.172880 Z0.000000 I-1.301913 J-0.728024
G03 X83.889084 Y28.906289 Z0.000000 I-0.241329 J-0.245570
G03 X84.616021 Y26.852290 Z0.000000 I3.947593 J0.241470
G03 X85.379329 Y26.193984 Z0.000000 I1.727226 J1.231042
G03 X85.618824 Y26.340660 Z0.000000 I0.074832 J0.146676
G01 X85.618824 Y26.340660 Z0.000000
G00 Z10.000000

(Change tool to Default tool)

G00 Z10.000000
G00 X129.740730 Y32.083330

G01 Z0.000000 F1100.0(Penetrate)
G03 X137.688043 Y33.191521 Z0.000000 I-78.049423 J588.776665 F800.000000
G03 X144.593650 Y34.256870 Z0.000000 I-65.170343 J445.348948
G02 X146.343111 Y34.526432 Z0.000000 I17.801758 J-109.721756
G02 X148.379690 Y34.809430 Z0.000000 I21.689391 J-148.617034
G03 X150.413198 Y35.108561 Z0.000000 I-9.071015 J68.726777
G03 X151.728880 Y35.352930 Z0.000000 I-4.708610 J29.015124
G02 X153.042330 Y35.612221 Z0.000000 I11.925456 J-56.952687
G02 X155.660530 Y36.082220 Z0.000000 I41.960398 J-226.218994
G03 X169.497339 Y38.629323 Z0.000000 I-117.819602 J678.896775
G03 X176.046900 Y40.050610 Z0.000000 I-29.867958 J153.438663
G03 X186.377841 Y42.815834 Z0.000000 I-47.179466 J196.944525
G03 X186.502900 Y43.147360 Z0.000000 I-0.063134 J0.213166
G02 X186.535531 Y43.234714 Z0.000000 I0.049615 J0.031238
G02 X186.766100 Y43.227060 Z0.000000 I0.104005 J-0.343623
G03 X188.263590 Y43.226452 Z0.000000 I0.749553 J1.987632
G03 X198.763140 Y47.740060 Z0.000000 I-43.567659 J115.815852
G03 X203.348071 Y50.145821 Z0.000000 I-36.478225 J75.092569
G03 X205.427830 Y51.505180 Z0.000000 I-9.454479 J16.735583
G02 X206.842929 Y52.468242 Z0.000000 I11.165584 J-14.885237
G02 X207.121240 Y52.547000 Z0.000000 I0.278311 J-0.452363
G03 X207.209506 Y52.647461 Z0.000000 I0.000000 J0.089006
G03 X207.065940 Y52.973150 Z0.000000 I-0.625304 J-0.081152
G03 X206.662073 Y53.068302 Z0.000000 I-0.266084 J-0.224706
G03 X204.481980 Y51.860090 Z0.000000 I4.972269 J-11.542921
G02 X202.211103 Y50.401146 Z0.000000 I-22.364306 J32.313714
G02 X200.308540 Y49.377040 Z0.000000 I-12.877704 J21.644602
G03 X198.577559 Y48.370585 Z0.000000 I5.765833 J-11.908302
G03 X198.533330 Y48.156250 Z0.000000 I0.089540 J-0.130208
G02 X198.512493 Y48.071245 Z0.000000 I-0.051511 J-0.032429
G02 X198.389630 Y48.072350 Z0.000000 I-0.060504 J0.103704
G03 X198.063286 Y48.117435 Z0.000000 I-0.215269 J-0.354564
G03 X196.524420 Y47.553870 Z0.000000 I2.746977 J-9.883673
G02 X192.517256 Y45.898000 Z0.000000 I-23.134555 J50.308492
G02 X186.822560 Y43.982750 Z0.000000 I-36.726617 J99.777079
G03 X183.911256 Y43.090578 Z0.000000 I375.432629 J-1230.294604
G03 X182.162810 Y42.548730 Z0.000000 I136.744033 J-444.340255
G02 X177.685010 Y41.336508 Z0.000000 I-18.139979 J58.130548
G02 X168.981940 Y39.514170 Z0.000000 I-50.193385 J218.018999
G03 X168.239470 Y39.244896 Z0.000000 I0.456631 J-2.417317
G03 X168.196160 Y39.075420 Z0.000000 I0.058778 J-0.105293
G02 X168.165700 Y38.974111 Z0.000000 I-0.059467 J-0.037354
G02 X167.957650 Y38.967310 Z0.000000 I-0.112225 J0.247434
G03 X167.547417 Y39.028660 Z0.000000 I-0.347347 J-0.920387
G03 X165.976690 Y38.840410 Z0.000000 I0.914612 J-14.278437
G02 X164.397516 Y38.562248 Z0.000000 I-793.336698 J4499.279661
G02 X161.070040 Y37.977020 Z0.000000 I-3522.558936 J20018.807405
G03 X157.743857 Y37.384714 Z0.000000 I133.087492 J-757.008263
G03 X154.662900 Y36.821500 Z0.000000 I116.575354 J-646.412173
G02 X148.908834 Y35.838735 Z0.000000 I-37.905931 J204.601901
G02 X142.846260 Y34.973460 Z0.000000 I-35.390242 J226.291419
G03 X139.643281 Y34.555362 Z0.000000 I146.031280 J-1131.200012
G03 X136.293490 Y34.108680 Z0.000000 I163.984605 J-1242.548445
G02 X128.582192 Y33.320016 Z0.000000 I-16.179538 J120.104648
G02 X127.677390 Y33.505150 Z0.000000 I-0.120208 J1.716093
G03 X126.796245 Y33.802641 Z0.000000 I-1.438432 J-2.806835
G03 X125.372240 Y33.918960 Z0.000000 I-1.315185 J-7.326150
G01 X123.916060 Y33.897660 Z0.000000
G01 X125.201450 Y33.562920 Z0.000000
G02 X126.300635 Y32.805320 Z0.000000 I-0.492231 J-1.890359
G02 X126.065410 Y32.349160 Z0.000000 I-0.235225 J-0.167432
G02 X125.596525 Y32.427849 Z0.000000 I-0.000000 J1.436322
G02 X125.517840 Y32.538270 Z0.000000 I0.038136 J0.110421
G03 X125.084709 Y33.019466 Z0.000000 I-0.483863 J0.000000
G03 X113.307721 Y33.987341 Z0.000000 I-26.887981 J-255.035208
G03 X101.954267 Y34.460925 Z0.000000 I-19.386819 J-328.442031
G03 X95.429588 Y34.314270 Z0.000000 I-1.699738 J-69.593535
G02 X92.251366 Y34.475353 Z0.000000 I-0.921163 J13.259409
G02 X91.948601 Y34.914110 Z0.000000 I0.063334 J0.367544
G02 X92.384209 Y35.366352 Z0.000000 I0.567083 J-0.110311
G02 X97.109311 Y36.120220 Z0.000000 I7.634392 J-32.665984
G03 X98.475720 Y36.371176 Z0.000000 I-0.638417 J7.321468
G03 X98.769341 Y36.591090 Z0.000000 I-0.139613 J0.492378
G02 X99.047367 Y36.858560 Z0.000000 I0.677751 J-0.426265
G02 X99.883923 Y37.233280 Z0.000000 I2.256061 J-3.915457
G03 X100.406857 Y37.648469 Z0.000000 I-0.304600 J0.920560
G03 X100.388080 Y38.058820 Z0.000000 I-0.313206 J0.191273
G03 X99.894875 Y38.255757 Z0.000000 I-0.406779 J-0.302675
G03 X96.811271 Y37.440080 Z0.000000 I3.117628 J-18.022447
G02 X93.613677 Y36.336392 Z0.000000 I-42.328696 J117.450376
G02 X91.443506 Y35.668340 Z0.000000 I-17.633215 J53.422705
G03 X87.371359 Y34.360921 Z0.000000 I18.241239 J-63.810342
G03 X85.892346 Y33.718670 Z0.000000 I4.062176 J-11.378723
G03 X85.863835 Y33.406471 Z0.000000 I0.085254 J-0.165187
G03 X86.645101 Y33.191840 Z0.000000 I0.651347 J0.841694
G02 X101.150478 Y34.024193 Z0.000000 I13.640690 J-110.907226
G02 X116.585500 Y32.960130 Z0.000000 I-0.980479 J-126.702823
G03 X119.728324 Y32.643062 Z0.000000 I6.967674 J53.330083
G03 X120.156820 Y32.705510 Z0.000000 I0.071876 J1.008133
G02 X120.553025 Y32.732611 Z0.000000 I0.243183 J-0.645517
G02 X121.003720 Y32.512700 Z0.000000 I-0.243719 J-1.071283
G03 X121.454908 Y32.295677 Z0.000000 I0.677201 J0.830374
G03 X121.867620 Y32.326300 Z0.000000 I0.154401 J0.715527
G02 X122.299411 Y32.366813 Z0.000000 I0.289940 J-0.768904
G02 X123.254680 Y32.083300 Z0.000000 I-0.749392 J-4.276092
G03 X124.836445 Y31.759714 Z0.000000 I1.581728 J3.704047
G03 X129.740740 Y32.083380 Z0.000000 I-0.000346 J37.322854
G01 X129.740730 Y32.083330 Z0.000000
G00 Z10.000000

(Change tool to Default tool)

G00 Z10.000000
G00 X123.479200 Y34.056740

G01 Z0.000000 F1100.0(Penetrate)
G03 X123.425843 Y34.121234 Z0.000000 I-0.065656 J0.000000 F800.000000
G03 X122.314270 Y34.278960 Z0.000000 I-2.215222 J-11.616005
G03 X121.250256 Y34.277073 Z0.000000 I-0.522121 J-5.575561
G03 X121.149340 Y34.165870 Z0.000000 I0.010812 J-0.111203
G03 X121.249945 Y34.044261 Z0.000000 I0.123802 J0.000000
G03 X122.314270 Y33.943660 Z0.000000 I1.064325 J5.579806
G03 X123.425327 Y33.997392 Z0.000000 I0.000000 J11.514016
G03 X123.479200 Y34.056740 Z0.000000 I-0.005754 J0.059348
G01 X123.479200 Y34.056740 Z0.000000
G00 Z10.000000

(Change tool to Default tool)

G00 Z10.000000
G00 X128.918150 Y34.898870

G01 Z0.000000 F1100.0(Penetrate)
G03 X128.811200 Y35.380718 Z0.000000 I-0.841756 J0.065959 F800.000000
G03 X128.625850 Y35.415540 Z0.000000 I-0.107362 J-0.060765
G02 X126.502894 Y34.579360 Z0.000000 I-2.371384 J2.907597
G02 X125.809080 Y35.228660 Z0.000000 I-0.043086 J0.649300
G03 X123.531704 Y39.259062 Z0.000000 I-4.705104 J0.000000
G03 X119.131350 Y39.251000 Z0.000000 I-2.193512 J-3.641569
G03 X118.482421 Y38.093793 Z0.000000 I0.700517 J-1.153384
G03 X119.138350 Y36.932170 Z0.000000 I1.363397 J0.003862
G02 X119.320791 Y36.678336 Z0.000000 I-0.207663 J-0.341737
G02 X119.329560 Y36.083490 Z0.000000 I-1.412639 J-0.318312
G03 X119.460161 Y35.601967 Z0.000000 I0.554959 J-0.107954
G03 X120.053630 Y35.260970 Z0.000000 I0.798689 J0.703100
G03 X121.093895 Y35.579118 Z0.000000 I0.222527 J1.132171
G03 X120.980280 Y36.191840 Z0.000000 I-0.268354 J0.267134
G02 X119.781268 Y37.352794 Z0.000000 I0.999168 J2.231558
G02 X119.946690 Y38.313930 Z0.000000 I0.750667 J0.365605
G02 X120.196477 Y38.340972 Z0.000000 I0.141999 J-0.144488
G02 X120.730080 Y37.821540 Z0.000000 I-0.946314 J-1.505930
G03 X121.330937 Y37.163499 Z0.000000 I2.449254 J1.633069
G03 X122.392230 Y36.480560 Z0.000000 I3.707819 J4.595886
G02 X123.415335 Y35.795864 Z0.000000 I-2.212491 J-4.412743
G02 X123.692270 Y35.352220 Z0.000000 I-0.583854 J-0.672716
G03 X123.968002 Y34.970638 Z0.000000 I0.636154 J0.169273
G03 X124.532710 Y34.802310 Z0.000000 I0.564708 J0.863078
G02 X125.321545 Y34.723186 Z0.000000 I0.000000 J-3.971752
G02 X126.828620 Y34.337490 Z0.000000 I-3.054041 J-15.070641
G03 X128.426142 Y34.306359 Z0.000000 I0.852501 J2.742178
G03 X128.918370 Y34.898870 Z0.000000 I-0.173155 J0.644562
G01 X128.918150 Y34.898870 Z0.000000
G00 Z10.000000

(Change tool to Default tool)

G00 Z10.000000
G00 X118.528240 Y34.516090

G01 Z0.000000 F1100.0(Penetrate)
G03 X118.063007 Y34.690437 Z0.000000 I-0.647116 J-1.018889 F800.000000
G03 X116.926440 Y34.760250 Z0.000000 I-0.955447 J-6.268187
G01 X115.761520 Y34.727050 Z0.000000
G01 X116.780840 Y34.516190 Z0.000000
G03 X118.477752 Y34.342519 Z0.000000 I1.696912 J8.203286
G03 X118.528240 Y34.516190 Z0.000000 I0.000000 J0.094174
G01 X118.528240 Y34.516090 Z0.000000
G00 Z10.000000

(Change tool to Default tool)

G00 Z10.000000
G00 X120.645230 Y34.417590

G01 Z0.000000 F1100.0(Penetrate)
G03 X120.282232 Y34.489355 Z0.000000 I-0.375580 J-0.945809 F800.000000
G03 X119.771530 Y34.428090 Z0.000000 I-0.024204 J-1.957472
G01 X119.767010 Y34.357347 Z0.000000
G03 X120.130010 Y34.285550 Z0.000000 I0.375302 J0.943946
G03 X120.640666 Y34.346881 Z0.000000 I0.020650 J1.984646
G01 X120.645230 Y34.417480 Z0.000000
G01 X120.645230 Y34.417590 Z0.000000
G00 Z10.000000

(Change tool to Default tool)

G00 Z10.000000
G00 X135.484640 Y35.217370

G01 Z0.000000 F1100.0(Penetrate)
G02 X135.772039 Y35.482622 Z0.000000 I0.569378 J-0.328595 F800.000000
G02 X137.021130 Y35.946960 Z0.000000 I3.274051 J-6.895127
G03 X138.297571 Y36.556555 Z0.000000 I-1.065330 J3.871891
G03 X138.217410 Y36.805690 Z0.000000 I-0.080161 J0.111672
G02 X136.683950 Y37.196129 Z0.000000 I-0.000000 J3.206572
G02 X136.293490 Y37.853340 Z0.000000 I0.357869 J0.657211
G02 X136.521020 Y38.077235 Z0.000000 I0.223924 J0.000000
G02 X137.144260 Y37.839640 Z0.000000 I-0.015743 J-0.977509
G03 X138.529831 Y37.146118 Z0.000000 I2.060835 J2.386430
G03 X141.768450 Y36.825800 Z0.000000 I2.979062 J13.587827
G03 X141.831876 Y37.080598 Z0.000000 I-0.002544 J0.135926
G03 X140.807620 Y37.359050 Z0.000000 I-1.078109 J-1.942675
G02 X138.511276 Y38.119676 Z0.000000 I0.100551 J4.150230
G02 X138.437330 Y39.035150 Z0.000000 I0.345527 J0.488633
G02 X138.964566 Y39.282416 Z0.000000 I0.615152 J-0.625932
G02 X139.813210 Y39.173680 Z0.000000 I0.189778 J-1.884902
G03 X141.611935 Y39.046410 Z0.000000 I1.116909 J3.010987
G03 X142.118170 Y39.674440 Z0.000000 I-0.136445 J0.628030
G02 X142.233049 Y39.904713 Z0.000000 I0.288228 J0.000000
G02 X143.022520 Y40.355240 Z0.000000 I2.162919 J-2.873173
G01 X143.926890 Y40.728930 Z0.000000
G01 X142.986120 Y40.913820 Z0.000000
G03 X138.127850 Y40.500120 Z0.000000 I-1.707146 J-8.685498
G03 X134.679960 Y37.749640 Z0.000000 I2.578477 J-6.768582
G01 X134.203750 Y37.035370 Z0.000000
G01 X135.139440 Y37.237340 Z0.000000
G02 X135.272516 Y36.988916 Z0.000000 I0.030927 J-0.143288
G02 X134.103740 Y36.231080 Z0.000000 I-2.495488 J2.568483
G03 X132.650085 Y35.564743 Z0.000000 I5.892878 J-14.774465
G01 X132.658320 Y35.500289 Z0.000000
G03 X132.867667 Y35.503316 Z0.000000 I0.098499 J0.428477
G03 X134.788150 Y36.073740 Z0.000000 I-7.463693 J28.646634
G02 X136.698212 Y36.596573 Z0.000000 I5.669607 J-16.962302
G02 X136.801615 Y36.527976 Z0.000000 I0.018225 J-0.084761
G02 X136.740444 Y36.392520 Z0.000000 I-0.127136 J-0.024127
G02 X134.910130 Y35.430980 Z0.000000 I-10.298900 J17.381409
G03 X134.034733 Y34.844588 Z0.000000 I1.406137 J-3.045771
G03 X134.109240 Y34.688010 Z0.000000 I0.061794 J-0.066611
G03 X135.195085 Y34.969820 Z0.000000 I-0.695337 J4.912055
G03 X135.484640 Y35.217370 Z0.000000 I-0.204999 J0.532903
G01 X135.484640 Y35.217370 Z0.000000
G00 Z10.000000

(Change tool to Default tool)

G00 Z10.000000
G00 X114.107330 Y34.949150

G01 Z0.000000 F1100.0(Penetrate)
G03 X113.925435 Y35.030364 Z0.000000 I-0.199801 J-0.203191 F800.000000
G03 X109.761490 Y35.222720 Z0.000000 I-7.836389 J-124.470193
G03 X106.595272 Y35.228573 Z0.000000 I-1.689003 J-57.282773
G01 X106.587650 Y35.140820 Z0.000000
G03 X113.842171 Y34.323784 Z0.000000 I8.329392 J41.342019
G03 X114.107330 Y34.949070 Z0.000000 I0.009304 J0.364919
G01 X114.107330 Y34.949150 Z0.000000
G00 Z10.000000

(Change tool to Default tool)

G00 Z10.000000
G00 X102.448980 Y35.299630

G01 Z0.000000 F1100.0(Penetrate)
G03 X100.785636 Y35.351348 Z0.000000 I-1.670368 J-26.948312 F800.000000
G03 X98.954184 Y35.300630 Z0.000000 I-0.008530 J-32.784919
G01 X98.954023 Y35.249382 Z0.000000
G03 X100.617360 Y35.197730 Z0.000000 I1.670653 J26.991661
G03 X102.448824 Y35.248419 Z0.000000 I0.010557 J32.730788
G01 X102.448980 Y35.299700 Z0.000000
G01 X102.448980 Y35.299630 Z0.000000
G00 Z10.000000

(Change tool to Default tool)

G00 Z10.000000
G00 X141.972550 Y35.658720

G01 Z0.000000 F1100.0(Penetrate)
G03 X149.368129 Y37.402980 Z0.000000 I-3.575934 J31.712376 F800.000000
G03 X150.272710 Y38.697450 Z0.000000 I-0.473914 J1.294470
G03 X148.586041 Y40.653551 Z0.000000 I-1.977621 J0.000000
G03 X143.390520 Y39.721100 Z0.000000 I-1.215184 J-8.169795
G03 X143.406301 Y39.578876 Z0.000000 I0.037310 J-0.067848
G03 X144.322620 Y39.451310 Z0.000000 I0.899807 J3.108613
G02 X148.585469 Y39.237237 Z0.000000 I0.197155 J-38.624329
G02 X149.232580 Y38.931770 Z0.000000 I-0.114363 J-1.080432
G02 X148.972417 Y37.565268 Z0.000000 I-0.586120 J-0.596428
G02 X143.137490 Y36.351830 Z0.000000 I-5.983268 J14.135482
G03 X139.691818 Y36.103062 Z0.000000 I0.267255 J-27.689057
G03 X138.332120 Y35.701640 Z0.000000 I0.625362 J-4.621723
G01 X137.021580 Y35.085230 Z0.000000
G01 X138.186520 Y35.224200 Z0.000000
G02 X139.351738 Y35.360550 Z0.000000 I31.614105 J-265.119854
G02 X141.972550 Y35.658720 Z0.000000 I149.309077 J-1300.709608
G01 X141.972550 Y35.658720 Z0.000000
G00 Z10.000000

(Change tool to Default tool)

G00 Z10.000000
G00 X118.043430 Y35.784360

G01 Z0.000000 F1100.0(Penetrate)
G03 X117.957876 Y36.021285 Z0.000000 I-0.178185 J0.069567 F800.000000
G03 X117.346500 Y36.170110 Z0.000000 I-0.578018 J-1.044328
G03 X116.575835 Y36.062279 Z0.000000 I0.097394 J-3.503962
G03 X116.489600 Y35.951230 Z0.000000 I0.028384 J-0.111049
G03 X117.135088 Y35.232717 Z0.000000 I0.722643 J0.000000
G03 X118.043430 Y35.784360 Z0.000000 I0.093407 J0.869860
G01 X118.043430 Y35.784360 Z0.000000
G00 Z10.000000

(Change tool to Default tool)

G00 Z10.000000
G00 X128.333790 Y36.137200

G01 Z0.000000 F1100.0(Penetrate)
G03 X127.250338 Y36.406284 Z0.000000 I-0.769629 J-0.783099 F800.000000
G03 X126.682780 Y35.644740 Z0.000000 I0.227137 J-0.761544
G03 X126.785903 Y35.548794 Z0.000000 I0.096196 J0.000000
G03 X127.571340 Y35.708940 Z0.000000 I-0.224207 J3.105781
G03 X128.321464 Y36.044769 Z0.000000 I-1.467114 J4.282691
G03 X128.333790 Y36.137280 Z0.000000 I-0.028586 J0.050885
G01 X128.333790 Y36.137200 Z0.000000
G00 Z10.000000

(Change tool to Default tool)

G00 Z10.000000
G00 X115.423560 Y36.106500

G01 Z0.000000 F1100.0(Penetrate)
G03 X115.178006 Y36.391777 Z0.000000 I-0.528331 J-0.206445 F800.000000
G03 X114.886430 Y36.415330 Z0.000000 I-0.170719 J-0.296864
G02 X114.640877 Y36.435996 Z0.000000 I-0.101085 J0.268070
G02 X114.547160 Y36.613530 Z0.000000 I0.095812 J0.164080
G03 X114.229972 Y39.972081 Z0.000000 I-10.248912 J0.726327
G03 X113.509850 Y40.526210 Z0.000000 I-0.720122 J-0.190855
G03 X113.078112 Y40.154606 Z0.000000 I0.000000 J-0.436604
G03 X113.235980 Y38.707170 Z0.000000 I2.820748 J-0.424675
G02 X113.070615 Y38.011956 Z0.000000 I-0.590505 J-0.226815
G02 X112.541980 Y38.077240 Z0.000000 I-0.236209 J0.260245
G03 X111.970028 Y38.635854 Z0.000000 I-1.601926 J-1.068064
G03 X111.599980 Y38.673690 Z0.000000 I-0.222963 J-0.352134
G02 X111.483723 Y38.734846 Z0.000000 I-0.030988 J0.082173
G02 X111.532980 Y38.945530 Z0.000000 I0.231327 J0.057017
G03 X111.566196 Y39.225882 Z0.000000 I-0.195780 J0.165340
G03 X111.314090 Y39.381380 Z0.000000 I-0.252106 J-0.126619
G02 X110.537392 Y39.789171 Z0.000000 I-0.000000 J0.943562
G02 X110.521660 Y40.530150 Z0.000000 I0.554398 J0.382428
G02 X110.722763 Y40.703084 Z0.000000 I0.381487 J-0.240229
G02 X112.197200 Y41.261620 Z0.000000 I6.369866 J-14.589941
G03 X113.715721 Y41.774799 Z0.000000 I-18.456625 J57.117307
G03 X115.979810 Y42.596460 Z0.000000 I-45.128334 J127.881419
G01 X118.236880 Y43.438340 Z0.000000
G01 X118.236880 Y45.374000 Z0.000000
G02 X119.393241 Y48.814552 Z0.000000 I5.696565 J0.000000
G02 X121.720400 Y49.970910 Z0.000000 I2.327159 J-1.763514
G03 X122.279928 Y50.306112 Z0.000000 I-0.000000 J0.634591
G03 X122.176390 Y50.823120 Z0.000000 I-0.365644 J0.195646
G02 X122.030055 Y51.223464 Z0.000000 I0.263669 J0.323294
G02 X122.507280 Y52.583950 Z0.000000 I4.691069 J-0.881571
G02 X124.529313 Y54.282224 Z0.000000 I3.117271 J-1.658653
G02 X126.191260 Y53.785890 Z0.000000 I0.472543 J-1.448353
G03 X126.759069 Y53.282013 Z0.000000 I1.751662 J1.402050
G03 X127.004420 Y53.280780 Z0.000000 I0.123680 J0.199116
G02 X127.165092 Y53.298814 Z0.000000 I0.099768 J-0.164108
G02 X127.210470 Y53.211980 Z0.000000 I-0.022396 J-0.066978
G03 X127.214491 Y52.984461 Z0.000000 I0.366462 J-0.107318
G03 X127.498490 Y52.343590 Z0.000000 I3.438197 J1.140258
G02 X127.533691 Y51.781138 Z0.000000 I-0.562394 J-0.317525
G02 X126.977890 Y51.073390 Z0.000000 I-1.523785 J0.624530
G03 X126.505819 Y50.072850 Z0.000000 I0.676218 J-0.930686
G03 X127.091190 Y49.211060 Z0.000000 I1.018247 J0.061943
G02 X127.969938 Y48.634858 Z0.000000 I-1.574233 J-3.358989
G02 X128.402980 Y48.054740 Z0.000000 I-1.164207 J-1.320735
G03 X128.783181 Y47.557981 Z0.000000 I1.305336 J0.605180
G03 X129.015810 Y47.540200 Z0.000000 I0.128713 J0.153311
G02 X129.528135 Y47.338439 Z0.000000 I0.179495 J-0.295559
G02 X129.330220 Y46.424700 Z0.000000 I-0.959643 J-0.270446
G03 X129.291848 Y46.127058 Z0.000000 I0.211418 J-0.178550
G03 X129.588580 Y45.882790 Z0.000000 I0.409703 J0.195334
G03 X130.108174 Y46.091027 Z0.000000 I0.117800 J0.458431
G03 X130.294910 Y47.017130 Z0.000000 I-1.144451 J0.712641
G02 X130.515279 Y47.681835 Z0.000000 I0.749917 J0.120262
G02 X131.840650 Y48.520580 Z0.000000 I2.656508 J-2.731231
G03 X133.522880 Y49.159078 Z0.000000 I-53.832917 J144.367123
G03 X135.710910 Y50.015470 Z0.000000 I-94.641989 J245.027957
G02 X137.906079 Y50.852493 Z0.000000 I32.629061 J-82.275667
G02 X142.263670 Y52.414920 Z0.000000 I118.110760 J-322.551683
G03 X146.621857 Y53.976304 Z0.000000 I-118.404424 J337.357410
G03 X150.709460 Y55.502620 Z0.000000 I-108.948725 J298.010515
G02 X160.505264 Y59.204529 Z0.000000 I637.076507 J-1670.988062
G02 X164.761480 Y60.766000 Z0.000000 I117.502105 J-313.702615
G03 X165.890410 Y61.287158 Z0.000000 I-2.401906 J6.686324
G03 X165.999200 Y61.474830 Z0.000000 I-0.107481 J0.187672
G02 X166.077860 Y61.599226 Z0.000000 I0.137693 J-0.000000
G02 X166.243410 Y61.590720 Z0.000000 I0.074886 J-0.157802
G03 X166.667710 Y61.544256 Z0.000000 I0.261919 J0.431250
G03 X171.823890 Y63.487560 Z0.000000 I-27.065011 J79.623867
G02 X173.897926 Y64.303937 Z0.000000 I23.444354 J-56.518498
G02 X174.392700 Y64.445050 Z0.000000 I1.139261 J-3.056547
G03 X174.769054 Y64.550228 Z0.000000 I-0.523649 J2.599684
G03 X176.652800 Y65.260440 Z0.000000 I-23.918888 J66.295085
G02 X178.540858 Y65.932646 Z0.000000 I11.198634 J-28.466529
G02 X178.962170 Y65.998320 Z0.000000 I0.421312 J-1.318554
G03 X179.296482 Y66.274377 Z0.000000 I0.000000 J0.340459
G03 X179.100500 Y66.716390 Z0.000000 I-0.415791 J0.080099
G03 X178.781441 Y66.815290 Z0.000000 I-0.357080 J-0.587862
G03 X173.494260 Y67.026760 Z0.000000 I-9.539953 J-172.317601
G02 X168.183894 Y67.171339 Z0.000000 I25.056673 J1017.928224
G02 X165.654750 Y67.260430 Z0.000000 I7.009388 J234.927105
G01 X163.126040 Y67.363120 Z0.000000
G01 X162.943330 Y65.464320 Z0.000000
G02 X162.548934 Y62.982895 Z0.000000 I-20.279318 J1.951127
G02 X162.358800 Y62.842050 Z0.000000 I-0.176354 J0.039311
G02 X162.168442 Y63.039170 Z0.000000 I0.015787 J0.205719
G02 X162.233100 Y65.855150 Z0.000000 I21.780807 J0.908622
G03 X162.082662 Y67.066387 Z0.000000 I-2.900338 J0.254733
G03 X161.703530 Y67.377630 Z0.000000 I-0.444147 J-0.154489
G03 X161.192044 Y67.303791 Z0.000000 I-0.128345 J-0.919413
G03 X161.048250 Y67.080770 Z0.000000 I0.101054 J-0.223021
G02 X160.912349 Y66.818682 Z0.000000 I-0.320671 J0.000000
G02 X160.432850 Y66.646920 Z0.000000 I-0.549946 J0.780076
G03 X159.872640 Y66.249619 Z0.000000 I0.049038 J-0.662755
G03 X159.220880 Y63.865360 Z0.000000 I7.891766 J-3.438501
G02 X158.781714 Y61.581991 Z0.000000 I-17.172558 J2.118927
G02 X158.635385 Y61.441704 Z0.000000 I-0.187773 J0.049400
G02 X158.515567 Y61.530455 Z0.000000 I-0.021133 J0.096724
G02 X158.503610 Y63.708630 Z0.000000 I14.463715 J1.168521
G03 X158.611345 Y65.949855 Z0.000000 I-51.686627 J3.607762
G01 X158.564210 Y65.998250 Z0.000000
G03 X158.467919 Y65.982735 Z0.000000 I-0.000000 J-0.306566
G03 X157.698980 Y65.712010 Z0.000000 I6.731799 J-20.347660
G02 X156.942301 Y65.572420 Z0.000000 I-0.772685 J2.067840
G02 X156.407150 Y65.703010 Z0.000000 I-0.008181 J1.128280
G03 X155.939325 Y65.503582 Z0.000000 I-0.152679 J-0.290276
G03 X155.064580 Y61.045710 Z0.000000 I25.147620 J-7.249343
G02 X154.748146 Y59.605017 Z0.000000 I-6.720733 J0.721045
G02 X154.545300 Y59.507350 Z0.000000 I-0.149181 J0.050355
G02 X154.298962 Y59.685265 Z0.000000 I0.188909 J0.521055
G02 X154.250370 Y59.881420 Z0.000000 I0.192536 J0.151791
G03 X154.609171 Y64.354037 Z0.000000 I-21.670544 J3.989150
G03 X154.148090 Y64.541470 Z0.000000 I-0.271055 J-0.005949
G02 X153.803490 Y64.407853 Z0.000000 I-0.327388 J0.333164
G02 X153.166390 Y64.577670 Z0.000000 I0.054777 J1.485513
G03 X152.362684 Y64.383040 Z0.000000 I-0.291295 J-0.553852
G03 X151.582160 Y62.317880 Z0.000000 I3.652440 J-2.560513
G02 X151.355348 Y60.712374 Z0.000000 I-27.861067 J3.117195
G02 X151.074680 Y59.349840 Z0.000000 I-20.238909 J3.458835
G03 X151.586417 Y58.528307 Z0.000000 I0.659546 J-0.159313
G03 X153.979140 Y58.701560 Z0.000000 I0.908055 J4.068308
G02 X156.832390 Y59.766613 Z0.000000 I78.533609 J-206.035063
G02 X158.427080 Y60.326980 Z0.000000 I23.326398 J-63.832940
G03 X160.021773 Y60.885928 Z0.000000 I-23.169528 J68.657555
G03 X160.611320 Y61.121260 Z0.000000 I-3.498599 J9.620722
G02 X161.201466 Y61.354984 Z0.000000 I3.757330 J-8.625220
G02 X162.941200 Y61.954190 Z0.000000 I26.578514 J-74.342890
G03 X168.567941 Y63.914489 Z0.000000 I-61.753433 J186.309343
G03 X170.222030 Y64.615350 Z0.000000 I-6.125290 J16.758509
G02 X171.113400 Y64.992251 Z0.000000 I4.129064 J-8.522745
G02 X172.406300 Y65.409990 Z0.000000 I6.381967 J-17.542503
G03 X173.710226 Y65.801960 Z0.000000 I-11.693291 J41.263704
G03 X174.808980 Y66.174060 Z0.000000 I-9.427430 J29.645992
G02 X175.878711 Y66.521235 Z0.000000 I6.071698 J-16.886724
G01 X175.923380 Y66.497500 Z0.000000
G02 X176.045584 Y65.649682 Z0.000000 I-2.434856 J-0.783674
G02 X175.900180 Y65.570280 Z0.000000 I-0.095693 J0.002400
G03 X175.656336 Y65.601713 Z0.000000 I-0.157341 J-0.259056
G03 X172.274599 Y64.538625 Z0.000000 I33.369465 J-112.060295
G03 X168.942033 Y63.380088 Z0.000000 I37.385095 J-112.911709
G03 X168.620360 Y63.159930 Z0.000000 I0.268859 J-0.737907
G02 X168.453869 Y63.030363 Z0.000000 I-0.420191 J0.368185
G02 X168.183510 Y62.937300 Z0.000000 I-0.465721 J0.913730
G03 X166.488837 Y62.479318 Z0.000000 I2.322541 J-11.958505
G03 X156.097320 Y58.715450 Z0.000000 I159.164218 J-455.657002
G03 X155.078604 Y58.331402 Z0.000000 I122.428984 J-326.294920
G03 X151.291960 Y56.895290 Z0.000000 I1710.213779 J-4515.088408
G02 X147.500733 Y55.471647 Z0.000000 I-194.600828 J512.471161
G02 X144.739210 Y54.462250 Z0.000000 I-100.567748 J270.852425
G03 X136.280316 Y51.371444 Z0.000000 I306.122656 J-850.914806
G03 X135.856570 Y51.166390 Z0.000000 I0.859654 J-2.316841
G02 X135.555549 Y51.013708 Z0.000000 I-1.140920 J1.876310
G02 X135.274120 Y50.925190 Z0.000000 I-0.643862 J1.555413
G03 X134.988109 Y50.843077 Z0.000000 I0.511014 J-2.319108
G03 X131.924920 Y49.731930 Z0.000000 I95.751359 J-268.743296
G02 X128.876717 Y48.710950 Z0.000000 I-18.257054 J49.446837
G02 X128.634400 Y48.740290 Z0.000000 I-0.087699 J0.291013
G02 X128.593203 Y49.171565 Z0.000000 I0.136283 J0.230623
G02 X129.990610 Y49.939900 Z0.000000 I2.404785 J-2.718764
G03 X130.897783 Y50.228074 Z0.000000 I-5.012485 J17.351308
G03 X133.381090 Y51.116180 Z0.000000 I-45.391983 J130.840228
G02 X135.861220 Y52.015038 Z0.000000 I86.589535 J-235.046988
G02 X137.693120 Y52.653320 Z0.000000 I45.478153 J-127.576473
G03 X139.264819 Y53.345327 Z0.000000 I-3.198238 J9.394738
G03 X139.294900 Y53.531250 Z0.000000 I-0.057373 J0.104677
G01 X139.304832 Y53.591051 Z0.000000
G02 X139.404330 Y53.590050 Z0.000000 I0.048840 J-0.090877
G03 X139.759899 Y53.538673 Z0.000000 I0.244150 J0.433611
G03 X141.696080 Y54.116560 Z0.000000 I-3.524097 J15.339795
G02 X143.656226 Y54.766205 Z0.000000 I10.454300 J-28.261333
G02 X144.147980 Y54.836950 Z0.000000 I0.491754 J-1.673751
G03 X144.631052 Y54.924207 Z0.000000 I0.000000 J1.380819
G03 X145.933520 Y55.503760 Z0.000000 I-4.073567 J10.908138
G02 X147.232869 Y56.129634 Z0.000000 I10.728855 J-20.612003
G02 X148.607510 Y56.691030 Z0.000000 I10.001807 J-22.526861
G03 X149.943495 Y57.281299 Z0.000000 I-4.375694 J11.710761
G03 X150.181480 Y57.499450 Z0.000000 I-0.279055 J0.543312
G03 X150.151236 Y57.579277 Z0.000000 I-0.045298 J0.028481
G03 X149.983880 Y57.557350 Z0.000000 I-0.058825 J-0.200649
G02 X149.823214 Y57.621185 Z0.000000 I-0.056230 J0.092584
G02 X149.818760 Y58.157080 Z0.000000 I1.003749 J0.276308
G03 X150.008985 Y58.991789 Z0.000000 I-14.853675 J3.824082
G03 X150.285750 Y60.507100 Z0.000000 I-48.738131 J9.684753
G02 X150.581038 Y62.017186 Z0.000000 I27.159620 J-4.526982
G02 X150.832450 Y62.939850 Z0.000000 I10.376440 J-2.331838
G03 X151.936168 Y66.478026 Z0.000000 I-204.651045 J65.781201
G03 X151.874619 Y67.250500 Z0.000000 I-1.017007 J0.307656
G03 X151.293384 Y67.647728 Z0.000000 I-0.638709 J-0.310724
G03 X148.452390 Y67.832210 Z0.000000 I-7.127237 J-87.790618
G02 X144.884848 Y68.007558 Z0.000000 I230.086807 J4717.609616
G02 X138.914480 Y68.304780 Z0.000000 I586.584831 J11842.951591
G03 X132.942631 Y68.560109 Z0.000000 I-20.537750 J-410.388807
G03 X126.828280 Y68.733470 Z0.000000 I-15.247460 J-429.858748
G02 X120.715408 Y68.910390 Z0.000000 I8.415166 J396.450971
G02 X119.401820 Y69.005630 Z0.000000 I0.675341 J18.420946
G03 X117.848533 Y69.121615 Z0.000000 I-2.502716 J-23.057797
G03 X97.996139 Y69.882640 Z0.000000 I-154.516889 J-3771.468745
G02 X93.337246 Y70.067696 Z0.000000 I20.506327 J574.997624
G02 X89.743940 Y70.243780 Z0.000000 I15.094285 J344.776841
G03 X86.170622 Y70.362314 Z0.000000 I-4.603489 J-84.856839
G03 X85.907469 Y70.290380 Z0.000000 I-0.006005 J-0.495339
G03 X85.616182 Y69.047038 Z0.000000 I0.464380 J-0.764585
G03 X88.435346 Y66.300400 Z0.000000 I7.178620 J4.548051
G02 X89.825047 Y64.884618 Z0.000000 I-2.009410 J-3.362333
G02 X90.395353 Y62.877800 Z0.000000 I-3.759165 J-2.152741
G03 X90.802887 Y60.859066 Z0.000000 I6.246595 J0.210534
G03 X91.143291 Y60.918730 Z0.000000 I0.164428 J0.062776
G02 X91.434072 Y61.127488 Z0.000000 I0.223158 J-0.003944
G02 X92.808339 Y60.389370 Z0.000000 I-1.284252 J-4.039490
G02 X93.819135 Y59.333372 Z0.000000 I-3.554485 J-4.414100
G02 X93.808922 Y59.029100 Z0.000000 I-0.198023 J-0.145661
G03 X93.773773 Y58.469716 Z0.000000 I0.359217 J-0.303368
G03 X94.776416 Y57.538820 Z0.000000 I2.349693 J1.525383
G02 X95.202145 Y57.153726 Z0.000000 I-0.596100 J-1.086873
G02 X95.371544 Y56.672270 Z0.000000 I-0.807696 J-0.554715
G03 X96.045782 Y55.008442 Z0.000000 I2.932488 J0.219814
G03 X106.077870 Y43.836770 Z0.000000 I157.962124 J131.758746
G02 X107.380999 Y42.372574 Z0.000000 I-17.214997 J-16.633272
G02 X107.461230 Y42.148020 Z0.000000 I-0.274131 J-0.224554
G03 X107.662659 Y41.992818 Z0.000000 I0.160507 J-0.000000
G03 X112.481950 Y43.471850 Z0.000000 I-16.082975 J60.996029
G02 X116.134298 Y44.609166 Z0.000000 I17.674351 J-50.325756
G02 X116.348950 Y44.525490 Z0.000000 I0.050864 J-0.186679
G02 X116.197266 Y44.053550 Z0.000000 I-0.273955 J-0.172296
G02 X109.240360 Y41.624790 Z0.000000 I-27.017127 J66.209476
G01 X108.252760 Y41.336150 Z0.000000
G01 X110.535380 Y39.079730 Z0.000000
G02 X112.110481 Y37.001926 Z0.000000 I-6.452270 J-6.527123
G02 X111.833760 Y36.737210 Z0.000000 I-0.173162 J-0.095978
G03 X111.274141 Y36.881829 Z0.000000 I-0.515610 J-0.840146
G03 X110.500570 Y36.677610 Z0.000000 I0.084311 J-1.886601
G01 X109.719320 Y36.279300 Z0.000000
G01 X111.138580 Y36.090850 Z0.000000
G02 X112.552313 Y35.878704 Z0.000000 I-5.540662 J-41.739443
G02 X112.849060 Y35.804420 Z0.000000 I-0.318651 J-1.902783
G03 X115.100891 Y35.569852 Z0.000000 I1.648453 J4.899029
G03 X115.423430 Y36.107000 Z0.000000 I-0.046210 J0.393159
G01 X115.423560 Y36.106500 Z0.000000
G00 Z10.000000

(Change tool to Default tool)

G00 Z10.000000
G00 X101.054210 Y36.697500

G01 Z0.000000 F1100.0(Penetrate)
G03 X100.916957 Y36.872852 Z0.000000 I-0.180641 J0.000000 F800.000000
G03 X100.617360 Y36.805610 Z0.000000 I-0.082505 J-0.333445
G03 X100.216562 Y36.432196 Z0.000000 I2.629917 J-3.224588
G03 X100.180510 Y36.341260 Z0.000000 I0.096663 J-0.090936
G03 X100.227934 Y36.280687 Z0.000000 I0.062397 J0.000000
G03 X100.617360 Y36.233270 Z0.000000 I0.389426 J1.575446
G03 X100.922377 Y36.365093 Z0.000000 I0.000000 J0.418791
G03 X101.054210 Y36.697610 Z0.000000 I-0.353431 J0.332517
G01 X101.054210 Y36.697500 Z0.000000
G00 Z10.000000

(Change tool to Default tool)

G00 Z10.000000
G00 X103.462430 Y36.420890

G01 Z0.000000 F1100.0(Penetrate)
G03 X103.099450 Y36.492655 Z0.000000 I-0.375561 J-0.945714 F800.000000
G03 X102.588730 Y36.431390 Z0.000000 I-0.024205 J-1.957600
G01 X102.584211 Y36.360647 Z0.000000
G03 X102.947230 Y36.288850 Z0.000000 I0.375323 J0.944051
G03 X103.457866 Y36.350182 Z0.000000 I0.020648 J1.984471
G01 X103.462430 Y36.420780 Z0.000000
G01 X103.462430 Y36.420890 Z0.000000
G00 Z10.000000

(Change tool to Default tool)

G00 Z10.000000
G00 X107.971010 Y36.443490

G01 Z0.000000 F1100.0(Penetrate)
G03 X106.587650 Y36.497046 Z0.000000 I-1.383360 J-17.839482 F800.000000
G03 X105.204290 Y36.443490 Z0.000000 I-0.000000 J-17.893038
G01 X105.204292 Y36.389801 Z0.000000
G03 X106.587650 Y36.336300 Z0.000000 I1.383358 J17.857842
G03 X107.971013 Y36.389834 Z0.000000 I0.000000 J17.900240
G01 X107.971010 Y36.443490 Z0.000000
G01 X107.971010 Y36.443490 Z0.000000
G00 Z10.000000

(Change tool to Default tool)

G00 Z10.000000
G00 X133.089930 Y36.519290

G01 Z0.000000 F1100.0(Penetrate)
G03 X133.164443 Y36.693140 Z0.000000 I-0.089794 J0.141379 F800.000000
G03 X133.034230 Y36.801110 Z0.000000 I-0.131402 J-0.025968
G03 X132.591677 Y36.714019 Z0.000000 I-0.008312 J-1.125729
G03 X132.361750 Y36.519290 Z0.000000 I0.192477 J-0.460375
G03 X132.462501 Y36.336920 Z0.000000 I0.100751 J-0.063355
G03 X133.089860 Y36.519290 Z0.000000 I-0.000000 J1.170252
G01 X133.089930 Y36.519290 Z0.000000
G00 Z10.000000

(Change tool to Default tool)

G00 Z10.000000
G00 X153.264130 Y37.409410

G01 Z0.000000 F1100.0(Penetrate)
G03 X155.258007 Y40.470581 Z0.000000 I-0.369029 J2.420301 F800.000000
G03 X151.728880 Y43.069950 Z0.000000 I-3.401314 J-0.922508
G03 X151.666780 Y42.953155 Z0.000000 I0.002769 J-0.076379
G03 X151.927830 Y42.750620 Z0.000000 I0.404737 J0.252166
G02 X155.165235 Y40.087151 Z0.000000 I-1.692192 J-5.356074
G02 X154.237160 Y38.522730 Z0.000000 I-0.928075 J-0.506926
G02 X153.971268 Y38.689596 Z0.000000 I0.000000 J0.295276
G02 X153.922720 Y39.173840 Z0.000000 I0.639050 J0.308624
G03 X153.096119 Y41.205835 Z0.000000 I-1.788215 J0.456693
G03 X148.525310 Y42.468580 Z0.000000 I-4.493413 J-7.361048
G03 X147.361708 Y42.397269 Z0.000000 I0.095897 J-11.093877
G01 X147.360370 Y42.335850 Z0.000000
G02 X150.842938 Y40.063927 Z0.000000 I-0.799964 J-5.031370
G02 X150.625630 Y37.268300 Z0.000000 I-1.947510 J-1.254877
G03 X150.534463 Y36.983630 Z0.000000 I0.275231 J-0.245077
G03 X150.665230 Y36.901810 Z0.000000 I0.097578 J0.010544
G02 X151.213983 Y37.053072 Z0.000000 I1.266118 J-3.522232
G02 X153.264180 Y37.409410 Z0.000000 I9.603312 J-49.176787
G01 X153.264130 Y37.409410 Z0.000000
G00 Z10.000000

(Change tool to Default tool)

G00 Z10.000000
G00 X117.783370 Y37.351310

G01 Z0.000000 F1100.0(Penetrate)
G03 X117.740252 Y37.460233 Z0.000000 I-0.061495 J0.038652 F800.000000
G03 X117.363710 Y37.461030 Z0.000000 I-0.189809 J-0.725824
G03 X117.103606 Y37.240579 Z0.000000 I0.097251 J-0.378415
G03 X117.200500 Y37.091810 Z0.000000 I0.096894 J-0.042831
G03 X117.576058 Y37.171635 Z0.000000 I-0.000000 J0.923367
G03 X117.783370 Y37.351320 Z0.000000 I-0.191730 J0.430644
G01 X117.783370 Y37.351310 Z0.000000
G00 Z10.000000

(Change tool to Default tool)

G00 Z10.000000
G00 X146.699040 Y37.264710

G01 Z0.000000 F1100.0(Penetrate)
G03 X146.505037 Y37.348727 Z0.000000 I-0.205835 J-0.209298 F800.000000
G03 X146.140830 Y37.287310 Z0.000000 I-0.036153 J-0.896205
G03 X146.122704 Y37.198427 Z0.000000 I0.019776 J-0.050323
G03 X146.316780 Y37.114390 Z0.000000 I0.205965 J0.209540
G03 X146.680921 Y37.175790 Z0.000000 I0.036420 J0.894505
G03 X146.699040 Y37.264710 Z0.000000 I-0.019803 J0.050341
G01 X146.699040 Y37.264710 Z0.000000
G00 Z10.000000

(Change tool to Default tool)

G00 Z10.000000
G00 X110.877290 Y37.550890

G01 Z0.000000 F1100.0(Penetrate)
G03 X110.683287 Y37.634901 Z0.000000 I-0.205818 J-0.209281 F800.000000
G03 X110.319070 Y37.573490 Z0.000000 I-0.036117 J-0.896556
G03 X110.300952 Y37.484617 Z0.000000 I0.019773 J-0.050314
G03 X110.495040 Y37.400590 Z0.000000 I0.205979 J0.209609
G03 X110.859217 Y37.462039 Z0.000000 I0.036403 J0.894121
G03 X110.877290 Y37.550910 Z0.000000 I-0.019800 J0.050300
G01 X110.877290 Y37.550890 Z0.000000
G00 Z10.000000

(Change tool to Default tool)

G00 Z10.000000
G00 X133.696280 Y38.051200

G01 Z0.000000 F1100.0(Penetrate)
G03 X136.152310 Y39.869707 Z0.000000 I-49.345678 J69.212837 F800.000000
G03 X136.681052 Y40.344717 Z0.000000 I-2.830282 J3.682213
G03 X136.619758 Y40.451975 Z0.000000 I-0.046612 J0.044505
G03 X135.656370 Y40.104090 Z0.000000 I1.002135 J-4.283068
G02 X134.677953 Y39.653901 Z0.000000 I-7.528752 J15.074266
G02 X133.162740 Y39.051960 Z0.000000 I-15.001372 J35.553624
G03 X131.813133 Y38.131351 Z0.000000 I1.193082 J-3.198613
G03 X131.831120 Y37.565620 Z0.000000 I0.305220 J-0.273447
G03 X132.356463 Y37.425284 Z0.000000 I0.386457 J0.393221
G03 X133.696280 Y38.051200 Z0.000000 I-1.026935 J3.945173
G01 X133.696280 Y38.051200 Z0.000000
G00 Z10.000000

(Change tool to Default tool)

G00 Z10.000000
