; this is my prh header

G55     ; change to 12x9x4 coordinate system

; prh - start of generated gcode
G21 (All units in mm)

(Start cutting path id: path150)
(Change tool to prh Default Tool)

G00 Z10.000000
G00 X85.705571 Y22.834157

G01 Z0.000000 F1000.0(Penetrate)
G03 X91.843682 Y22.227416 Z0.000000 I25.088307 J222.455041 F2200.000000
G03 X98.830709 Y22.039176 Z0.000000 I5.119613 J60.262698
G03 X106.345028 Y22.595156 Z0.000000 I-2.708388 J87.662710
G02 X113.492916 Y23.246487 Z0.000000 I16.119482 J-137.352595
G02 X119.974377 Y23.408077 Z0.000000 I5.262952 J-81.031478
G03 X125.829838 Y23.364141 Z0.000000 I5.855460 J390.167619
G03 X132.386836 Y23.476929 Z0.000000 I0.000000 J190.654338
G03 X137.812032 Y23.687965 Z0.000000 I-20.836035 J605.479886
G02 X142.393993 Y23.863839 Z0.000000 I19.616631 J-451.291049
G02 X146.601255 Y23.894126 Z0.000000 I2.683922 J-80.593858
G02 X151.860760 Y23.723620 Z0.000000 I-3.674123 J-194.537572
G03 X156.258175 Y23.746793 Z0.000000 I1.972610 J42.917652
G03 X159.230721 Y24.023774 Z0.000000 I-2.323757 J41.027428
G02 X166.387593 Y24.571444 Z0.000000 I8.753006 J-67.346774
G02 X178.119714 Y24.595806 Z0.000000 I6.435525 J-274.222881
G03 X190.588219 Y24.365283 Z0.000000 I146.029732 J7561.130166
G03 X198.761011 Y24.368936 Z0.000000 I3.985776 J225.153528
G03 X201.584957 Y24.630280 Z0.000000 I-0.358121 J19.257361
G03 X204.824015 Y25.273810 Z0.000000 I-8.998138 J53.763312
G02 X210.217047 Y26.161406 Z0.000000 I9.698194 J-42.098367
G02 X216.557606 Y26.500416 Z0.000000 I6.825339 J-68.191719
G02 X223.144956 Y26.426394 Z0.000000 I1.272582 J-179.898159
G02 X228.788573 Y26.144356 Z0.000000 I-4.117172 J-138.990748
G02 X232.762136 Y25.837317 Z0.000000 I-20.378985 J-289.601870
G02 X236.949861 Y25.482836 Z0.000000 I-381.306113 J-4529.561385
G02 X241.078873 Y25.130851 Z0.000000 I-1326.078362 J-15579.850506
G00 Z10.000000

(End cutting path id: path150)


(Start cutting path id: path14)
(Change tool to prh Default Tool)

G00 Z10.000000
G00 X240.310161 Y45.756010

G01 Z0.000000 F1000.0(Penetrate)
G02 X239.415167 Y45.622984 Z0.000000 I-8.570944 J54.587850 F2200.000000
G02 X236.835194 Y45.289091 Z0.000000 I-16.945484 J120.802217
G02 X233.581788 Y44.920058 Z0.000000 I-36.981641 J311.506093
G02 X227.611762 Y44.324780 Z0.000000 I-38.649837 J357.383736
G02 X221.878613 Y43.846102 Z0.000000 I-33.807668 J370.343204
G02 X215.451856 Y43.400753 Z0.000000 I-38.118275 J503.484704
G02 X209.340483 Y43.064206 Z0.000000 I-24.649927 J391.962098
G02 X201.371771 Y42.774315 Z0.000000 I-17.332292 J366.772655
G02 X192.809205 Y42.616209 Z0.000000 I-15.505950 J607.813341
G02 X182.377206 Y42.507994 Z0.000000 I-56.887526 J4981.143032
G02 X172.297019 Y42.707910 Z0.000000 I65.067125 J3535.049286
G02 X161.395428 Y43.009360 Z0.000000 I18.140000 J853.286323
G02 X150.083133 Y43.474847 Z0.000000 I26.989255 J793.583468
G02 X138.736104 Y44.124448 Z0.000000 I30.692336 J635.552439
G02 X127.514160 Y44.963523 Z0.000000 I43.678315 J659.623500
G03 X118.760705 Y45.690551 Z0.000000 I-1313.641285 J-15763.247023
G03 X110.575966 Y46.361221 Z0.000000 I-434.718116 J-5254.941312
G02 X103.078643 Y47.031155 Z0.000000 I37.403775 J460.877702
G02 X94.423135 Y47.945865 Z0.000000 I52.268785 J536.006237
G02 X88.101083 Y48.697420 Z0.000000 I72.698163 J638.500169
G03 X82.805246 Y49.352062 Z0.000000 I-898.663573 J-7248.141885
G03 X81.498785 Y49.394880 Z0.000000 I-0.890826 J-7.228171
G03 X80.576308 Y48.960576 Z0.000000 I0.078273 J-1.363093
G03 X80.369671 Y48.571553 Z0.000000 I0.628305 J-0.583126
G00 Z10.000000

(End cutting path id: path14)


(Start cutting path id: path12)
(Change tool to prh Default Tool)

G00 Z10.000000
G00 X80.103611 Y47.279710

G01 Z0.000000 F1000.0(Penetrate)
G02 X79.953549 Y46.853559 Z0.000000 I-32.212501 J11.103671 F2200.000000
G02 X79.844300 Y46.611134 Z0.000000 I-1.601803 J0.576017
G02 X79.722640 Y46.545579 Z0.000000 I-0.111307 J0.060899
G02 X77.383869 Y46.843273 Z0.000000 I2.142707 J26.169566
G02 X73.535558 Y47.524246 Z0.000000 I91.946530 J530.822409
G02 X65.945131 Y48.898026 Z0.000000 I2426.846618 J13430.495327
G03 X66.260389 Y48.300755 Z0.000000 I15.109731 J7.593540
G03 X66.632966 Y47.770214 Z0.000000 I2.665169 J1.475544
G03 X67.058905 Y47.389340 Z0.000000 I1.766593 J1.547013
G03 X68.075316 Y46.755562 Z0.000000 I6.830625 J9.822577
G03 X69.370921 Y46.054162 Z0.000000 I31.004542 J55.723316
G02 X71.161488 Y45.089023 Z0.000000 I-48.709536 J-92.511615
G02 X72.723687 Y44.173136 Z0.000000 I-16.679327 J-30.239616
G02 X74.180270 Y43.134432 Z0.000000 I-7.507359 J-12.068275
G02 X75.463950 Y41.950192 Z0.000000 I-8.765874 J-10.789795
G02 X77.316834 Y39.839519 Z0.000000 I-23.970513 J-22.911475
G02 X79.209819 Y37.364811 Z0.000000 I-48.798224 J-39.288714
G02 X81.476077 Y34.038572 Z0.000000 I-54.219552 J-39.376432
G02 X83.604910 Y30.491609 Z0.000000 I-63.564027 J-40.562477
G03 X84.813770 Y28.375414 Z0.000000 I180.407451 J101.652973
G03 X85.799795 Y26.802225 Z0.000000 I23.045598 J13.348655
G03 X86.256120 Y26.170148 Z0.000000 I10.563430 J7.145463
G03 X86.855371 Y25.396724 Z0.000000 I134.363666 J103.486379
G03 X87.581398 Y24.466249 Z0.000000 I883.808393 J688.865477
G00 Z10.000000

(End cutting path id: path12)


(Start cutting path id: path22)
(Change tool to prh Default Tool)

G00 Z10.000000
G00 X92.785343 Y45.325392

G01 Z0.000000 F1000.0(Penetrate)
G02 X70.609674 Y48.715494 Z0.000000 I7677.262062 J50293.486003 F2200.000000
G02 X59.307004 Y50.479494 Z0.000000 I298.531833 J1949.907933
G02 X52.311618 Y51.750576 Z0.000000 I25.359024 J159.448151
G02 X52.143873 Y51.865671 Z0.000000 I0.052394 J0.256149
G02 X52.064185 Y52.172314 Z0.000000 I0.431058 J0.275696
G02 X52.154512 Y52.429573 Z0.000000 I0.497340 J-0.030135
G02 X52.304414 Y52.504635 Z0.000000 I0.144747 J-0.101855
G02 X55.225801 Y52.265021 Z0.000000 I-0.810368 J-27.808726
G02 X59.628128 Y51.633984 Z0.000000 I-37.638615 J-278.251309
G02 X69.743973 Y50.072471 Z0.000000 I-267.658524 J-1767.501615
G02 X80.671178 Y48.333953 Z0.000000 I-474.912473 J-3020.204357
G02 X87.449089 Y47.237845 Z0.000000 I-734.705545 J-4564.640427
G03 X91.875475 Y46.539021 Z0.000000 I80.322997 J494.401416
G03 X92.365341 Y46.501691 Z0.000000 I0.489867 J3.195571
G03 X92.981726 Y46.551564 Z0.000000 I-0.000000 J3.833967
G02 X93.612934 Y46.619090 Z0.000000 I0.930027 J-5.709603
G02 X94.349329 Y46.602311 Z0.000000 I0.256587 J-4.906764
G02 X94.986109 Y46.454794 Z0.000000 I-0.246496 J-2.512173
G02 X95.473894 Y46.144819 Z0.000000 I-0.488170 J-1.306982
G02 X95.677833 Y45.859615 Z0.000000 I-0.703134 J-0.718301
G02 X95.757980 Y45.521568 Z0.000000 I-0.737988 J-0.353494
G02 X95.699110 Y45.288031 Z0.000000 I-0.458326 J-0.008653
G02 X95.523167 Y45.104173 Z0.000000 I-0.448587 J0.253162
G02 X95.279818 Y44.990442 Z0.000000 I-0.590944 J0.947224
G02 X95.031943 Y44.936343 Z0.000000 I-0.390895 J1.196113
G02 X94.744872 Y44.919976 Z0.000000 I-0.287071 J2.509444
G02 X94.465430 Y44.932206 Z0.000000 I-0.000000 J3.198585
G02 X93.953819 Y45.000244 Z0.000000 I0.504139 J5.748477
G02 X93.385735 Y45.114924 Z0.000000 I2.293358 J12.824863
G02 X92.607961 Y45.292261 Z0.000000 I32.018655 J142.223025
G00 Z10.000000

(End cutting path id: path22)


(Start cutting path id: path26)
(Change tool to prh Default Tool)

G00 Z10.000000
G00 X85.868035 Y49.134660

G01 Z0.000000 F1000.0(Penetrate)
G03 X84.489178 Y52.599427 Z0.000000 I-563.612516 J-222.291463 F2200.000000
G03 X83.564038 Y54.716466 Z0.000000 I-35.549237 J-14.274246
G03 X82.621231 Y56.261029 Z0.000000 I-7.752789 J-3.672306
G03 X82.071675 Y56.759819 Z0.000000 I-1.644665 J-1.259916
G03 X81.436399 Y57.029651 Z0.000000 I-1.181280 J-1.898386
G03 X77.983379 Y57.746656 Z0.000000 I-10.266148 J-40.767529
G03 X72.965847 Y58.533396 Z0.000000 I-56.807173 J-345.901509
G03 X65.110803 Y59.704152 Z0.000000 I-1770.647849 J-11853.002834
G03 X57.907724 Y60.769961 Z0.000000 I-686.113134 J-4612.101110
G03 X53.936340 Y61.317427 Z0.000000 I-31.967523 J-217.218058
G03 X50.390027 Y61.687902 Z0.000000 I-9.559012 J-74.343631
G03 X49.869322 Y61.708820 Z0.000000 I-0.520705 J-6.470306
G01 X49.863701 Y61.662574 Z0.000000
G03 X50.246402 Y61.583739 Z0.000000 I1.208348 J4.897551
G01 X53.894483 Y52.750748 Z0.000000
G03 X53.715990 Y53.736943 Z0.000000 I-111.996716 J-19.761230
G03 X53.590478 Y54.238412 Z0.000000 I-4.115431 J-0.763602
G03 X53.403042 Y54.476070 Z0.000000 I-0.408610 J-0.129520
G03 X53.160536 Y54.551640 Z0.000000 I-0.275608 J-0.457546
G03 X52.697520 Y54.580236 Z0.000000 I-37.870383 J-609.404351
G03 X52.248876 Y54.543692 Z0.000000 I-0.097038 J-1.580919
G03 X52.011494 Y54.379333 Z0.000000 I0.085830 J-0.377566
G03 X51.934221 Y54.144352 Z0.000000 I0.393575 J-0.259622
G03 X51.952202 Y53.805567 Z0.000000 I1.613470 J-0.084235
G03 X52.039189 Y53.494328 Z0.000000 I1.398793 J0.223168
G03 X52.185441 Y53.268319 Z0.000000 I0.663285 J0.268892
G03 X52.332555 Y53.149833 Z0.000000 I0.529415 J0.506754
G03 X52.517227 Y53.049011 Z0.000000 I1.119556 J1.831118
G02 X52.636560 Y52.954003 Z0.000000 I-0.151082 J-0.312211
G02 X52.691108 Y52.820389 Z0.000000 I-0.198718 J-0.159069
G02 X52.699328 Y52.656423 Z0.000000 I-1.631375 J-0.163966
G00 Z10.000000

(End cutting path id: path26)


(Start cutting path id: path38)
(Change tool to prh Default Tool)

G00 Z10.000000
G00 X54.208063 Y52.513320

G01 Z0.000000 F1000.0(Penetrate)
G01 X83.497358 Y119.248761 Z0.000000 F2200.000000
G01 X126.475804 Y217.993438 Z0.000000
G01 X86.222774 Y121.441302 Z0.000000
G00 Z10.000000

(End cutting path id: path38)


(Start cutting path id: path130)
(Change tool to prh Default Tool)

G00 Z10.000000
G00 X113.896605 Y135.536522

G01 Z0.000000 F1000.0(Penetrate)
G01 X112.144931 Y47.107466 Z0.000000 F2200.000000
G00 Z10.000000

(End cutting path id: path130)


(Start cutting path id: path18)
(Change tool to prh Default Tool)

G00 Z10.000000
G00 X109.720316 Y46.642676

G01 Z0.000000 F1000.0(Penetrate)
G01 X109.743704 Y46.681260 Z0.000000 F2200.000000
G02 X111.817154 Y46.705459 Z0.000000 I1.268343 J-19.834058
G02 X115.533633 Y46.525122 Z0.000000 I-9.442326 J-232.978574
G02 X122.249159 Y46.141557 Z0.000000 I-321.830484 J-5693.646434
G02 X128.560010 Y45.774677 Z0.000000 I-424.954863 J-7364.275622
G02 X131.322882 Y45.602822 Z0.000000 I-22.331235 J-381.308410
G02 X132.953925 Y45.397723 Z0.000000 I-0.914578 J-13.861151
G02 X133.068172 Y45.306301 Z0.000000 I-0.028457 J-0.152659
G03 X133.196019 Y45.050032 Z0.000000 I2.389141 J1.031862
G03 X133.476117 Y44.563524 Z0.000000 I53.199938 J30.304982
G00 Z10.000000

(End cutting path id: path18)


(Start cutting path id: path114)
(Change tool to prh Default Tool)

G00 Z10.000000
G00 X135.575071 Y42.476726

G01 Z0.000000 F1000.0(Penetrate)
G01 X127.230673 Y137.415844 Z0.000000 F2200.000000
G01 X142.828666 Y140.234840 Z0.000000
G00 Z10.000000

(End cutting path id: path114)


(Start cutting path id: path138)
(Change tool to prh Default Tool)

G00 Z10.000000
G00 X190.126006 Y119.749862

G01 Z0.000000 F1000.0(Penetrate)
G01 X190.126006 Y119.937735 Z0.000000 F2200.000000
G01 X182.830199 Y119.937735 Z0.000000
G00 Z10.000000

(End cutting path id: path138)


(Start cutting path id: path136)
(Change tool to prh Default Tool)

G00 Z10.000000
G00 X191.826236 Y120.002664

G01 Z0.000000 F1000.0(Penetrate)
G01 X191.886876 Y120.501645 Z0.000000 F2200.000000
G01 X201.950311 Y121.441302 Z0.000000
G00 Z10.000000

(End cutting path id: path136)


(Start cutting path id: path126)
(Change tool to prh Default Tool)

G00 Z10.000000
G00 X191.676184 Y173.561880

G01 Z0.000000 F1000.0(Penetrate)
G01 X182.767053 Y120.031813 Z0.000000 F2200.000000
G01 X184.350944 Y68.942850 Z0.000000
G00 Z10.000000

(End cutting path id: path126)


(Start cutting path id: path132)
(Change tool to prh Default Tool)

G00 Z10.000000
G00 X184.968528 Y66.000106

G01 Z0.000000 F1000.0(Penetrate)
G03 X175.175968 Y106.220483 Z0.000000 I-6772.227615 J-1627.549639 F2200.000000
G03 X166.495776 Y138.607781 Z0.000000 I-811.465369 J-200.125783
G03 X156.620996 Y168.733643 Z0.000000 I-437.039525 J-126.573298
G03 X148.797411 Y187.420721 Z0.000000 I-211.881192 J-77.725527
G03 X139.381754 Y205.001612 Z0.000000 I-179.336163 J-84.733850
G03 X130.874853 Y218.707860 Z0.000000 I-512.429471 J-308.550684
G00 Z10.000000

(End cutting path id: path132)


(Start cutting path id: path128)
(Change tool to prh Default Tool)

G00 Z10.000000
G00 X130.874853 Y218.177876

G01 Z0.000000 F1000.0(Penetrate)
G01 X139.998247 Y140.000052 Z0.000000 F2200.000000
G01 X142.514023 Y42.038161 Z0.000000
G00 Z10.000000

(End cutting path id: path128)


(Start cutting path id: path48)
(Change tool to prh Default Tool)

G00 Z10.000000
G00 X137.859918 Y49.226875

G01 Z0.000000 F1000.0(Penetrate)
G03 X137.041226 Y47.508770 Z0.000000 I331.032672 J-158.794097 F2200.000000
G03 X136.602030 Y46.509647 Z0.000000 I17.661612 J-8.359813
G03 X136.406326 Y45.750023 Z0.000000 I2.721125 J-1.106071
G03 X136.455169 Y45.546396 Z0.000000 I0.300219 J-0.035658
G03 X136.616982 Y45.423717 Z0.000000 I0.259058 J0.173639
G03 X138.090492 Y45.084520 Z0.000000 I2.598411 J7.917647
G03 X140.270297 Y44.827309 Z0.000000 I8.173219 J59.900863
G03 X144.275272 Y44.434488 Z0.000000 I130.413897 J1309.011387
G03 X144.442441 Y44.513083 Z0.000000 I-0.066981 J0.359545
G03 X145.040437 Y45.209592 Z0.000000 I-1.772482 J2.126750
G03 X145.819181 Y46.627632 Z0.000000 I-17.031460 J10.275994
G03 X146.507966 Y48.052165 Z0.000000 I-63.512525 J31.588130
G03 X146.752774 Y48.813355 Z0.000000 I-2.833545 J1.331264
G03 X146.686044 Y48.936977 Z0.000000 I-0.110101 J0.020389
G03 X146.452617 Y49.008741 Z0.000000 I-0.474058 J-1.126456
G03 X145.407222 Y49.203298 Z0.000000 I-7.380611 J-36.751660
G03 X144.132533 Y49.416907 Z0.000000 I-26.159676 J-152.195065
G03 X142.294087 Y49.688760 Z0.000000 I-9.954798 J-60.968390
G03 X140.496364 Y49.895383 Z0.000000 I-6.780384 J-51.068970
G03 X139.558020 Y49.978658 Z0.000000 I-5.452930 J-56.115044
G03 X138.855560 Y50.016590 Z0.000000 I-1.087488 J-13.615982
G03 X138.666929 Y50.009917 Z0.000000 I-0.041889 J-1.485493
G03 X138.440200 Y49.966331 Z0.000000 I0.126019 J-1.267026
G03 X138.205780 Y49.829718 Z0.000000 I0.153752 J-0.533262
G03 X138.032140 Y49.591619 Z0.000000 I0.618754 J-0.633608
G03 X137.859918 Y49.226857 Z0.000000 I8.265461 J-4.125564
G01 X137.859918 Y49.226875 Z0.000000
G00 Z10.000000

(End cutting path id: path48)


(Start cutting path id: path60)
(Change tool to prh Default Tool)

G00 Z10.000000
G00 X144.731456 Y52.811430

G01 Z0.000000 F1000.0(Penetrate)
G02 X147.793462 Y55.553518 Z0.000000 I8193.070662 J-9145.871806 F2200.000000
G02 X149.435232 Y57.015535 Z0.000000 I279.994556 J-312.766658
G02 X150.577879 Y57.781714 Z0.000000 I3.414291 J-3.856792
G02 X152.011305 Y58.242449 Z0.000000 I2.286218 J-4.652630
G02 X154.445531 Y58.606890 Z0.000000 I12.042567 J-72.124776
G02 X158.748052 Y59.067374 Z0.000000 I11.300572 J-85.256084
G02 X162.519830 Y59.259308 Z0.000000 I5.019982 J-61.493570
G02 X166.141758 Y59.234319 Z0.000000 I1.350569 J-66.744313
G02 X170.040660 Y58.998375 Z0.000000 I-2.495466 J-73.568865
G02 X172.990601 Y58.587210 Z0.000000 I-2.512445 J-28.813627
G02 X175.616008 Y57.832800 Z0.000000 I-2.882584 J-14.977133
G02 X176.680184 Y57.313389 Z0.000000 I-2.530747 J-6.534888
G02 X177.514126 Y56.615084 Z0.000000 I-1.768182 J-2.958745
G02 X177.658536 Y56.279655 Z0.000000 I-0.453708 J-0.394132
G02 X177.577470 Y55.970970 Z0.000000 I-0.455791 J-0.045288
G02 X176.792280 Y54.974566 Z0.000000 I-9.487835 J6.669064
G02 X175.483144 Y53.495012 Z0.000000 I-306.630174 J269.992971
G02 X174.164408 Y52.092769 Z0.000000 I-25.750248 J22.895523
G02 X173.211710 Y51.312647 Z0.000000 I-4.286735 J4.263250
G02 X172.962574 Y51.205317 Z0.000000 I-0.424004 J0.641387
G02 X172.688587 Y51.167661 Z0.000000 I-0.340015 J1.458368
G02 X171.844454 Y51.142798 Z0.000000 I-1.269866 J28.772143
G02 X170.677000 Y51.130570 Z0.000000 I-1.887931 J124.509006
G02 X168.853344 Y51.194985 Z0.000000 I-0.128501 J22.208964
G02 X167.238035 Y51.398771 Z0.000000 I1.266084 J16.539408
G02 X165.876419 Y51.675149 Z0.000000 I4.702060 J26.657615
G02 X164.453466 Y52.030050 Z0.000000 I8.882529 J38.644088
G02 X163.570295 Y52.280924 Z0.000000 I8.613011 J32.000948
G02 X162.791163 Y52.534988 Z0.000000 I4.685461 J15.690494
G02 X162.591588 Y52.614815 Z0.000000 I0.891253 J2.517621
G02 X162.574461 Y52.697733 Z0.000000 I0.021404 J0.047649
G02 X163.612152 Y53.711094 Z0.000000 I9.551357 J-8.742699
G02 X165.548452 Y55.393440 Z0.000000 I347.194758 J-397.648958
G02 X169.412404 Y58.733227 Z0.000000 I11824.486154 J-13676.375500
G00 Z10.000000

(End cutting path id: path60)


(Start cutting path id: path62)
(Change tool to prh Default Tool)

G00 Z10.000000
G00 X168.070802 Y58.921101

G01 Z0.000000 F1000.0(Penetrate)
G01 X161.278001 Y53.220581 Z0.000000 F2200.000000
G01 X147.569677 Y52.728752 Z0.000000
G00 Z10.000000

(End cutting path id: path62)


(Start cutting path id: path64)
(Change tool to prh Default Tool)

G00 Z10.000000
G00 X146.616160 Y52.828128

G01 Z0.000000 F1000.0(Penetrate)
G01 X152.640249 Y58.294654 Z0.000000 F2200.000000
G00 Z10.000000

(End cutting path id: path64)


(Start cutting path id: path66)
(Change tool to prh Default Tool)

G00 Z10.000000
G00 X150.680696 Y57.989912

G01 Z0.000000 F1000.0(Penetrate)
G02 X151.096081 Y58.332978 Z0.000000 I2.772679 J-2.934159 F2200.000000
G02 X152.018043 Y58.819340 Z0.000000 I2.210279 J-3.072837
G02 X153.089939 Y59.116249 Z0.000000 I2.454357 J-6.777361
G02 X156.151399 Y59.563706 Z0.000000 I6.201983 J-31.736528
G02 X159.572749 Y59.804754 Z0.000000 I6.204259 J-63.659921
G02 X165.037823 Y59.850426 Z0.000000 I3.381640 J-77.648962
G02 X170.855075 Y59.513256 Z0.000000 I-2.512776 J-93.705111
G02 X174.653584 Y59.057043 Z0.000000 I-5.565304 J-62.379252
G02 X177.453507 Y58.404847 Z0.000000 I-2.736138 J-18.082662
G02 X178.385391 Y58.044236 Z0.000000 I-2.453061 J-7.723543
G00 Z10.000000

(End cutting path id: path66)


(Start cutting path id: path118)
(Change tool to prh Default Tool)

G00 Z10.000000
G00 X184.581518 Y60.622086

G01 Z0.000000 F1000.0(Penetrate)
G01 X191.826236 Y120.002664 Z0.000000 F2200.000000
G00 Z10.000000

(End cutting path id: path118)


(Start cutting path id: path120)
(Change tool to prh Default Tool)

G00 Z10.000000
G00 X193.459431 Y174.768131

G01 Z0.000000 F1000.0(Penetrate)
G01 X201.321391 Y121.206522 Z0.000000 F2200.000000
G01 X203.208223 Y44.622369 Z0.000000
G01 X193.312571 Y120.125882 Z0.000000
G00 Z10.000000

(End cutting path id: path120)


(Start cutting path id: path106)
(Change tool to prh Default Tool)

G00 Z10.000000
G00 X191.285983 Y60.463088

G01 Z0.000000 F1000.0(Penetrate)
G01 X192.390273 Y93.532831 Z0.000000 F2200.000000
G02 X193.648406 Y138.877885 Z0.000000 I253131.061714 J-7000.479936
G02 X194.318950 Y162.019874 Z0.000000 I10160.109696 J-282.811159
G02 X194.871694 Y176.480500 Z0.000000 I893.039849 J-26.894774
G02 X194.947894 Y176.945042 Z0.000000 I2.026617 J-0.093908
G02 X195.197174 Y177.614844 Z0.000000 I4.485127 J-1.287944
G03 X195.283472 Y177.853440 Z0.000000 I-1.342385 J0.620430
G03 X195.225417 Y177.944694 Z0.000000 I-0.070948 J0.018958
G03 X194.486745 Y178.010045 Z0.000000 I-0.738672 J-4.141983
G01 X190.880876 Y178.010045 Z0.000000
G02 X191.231469 Y177.628935 Z0.000000 I-4.166987 J-4.185143
G02 X191.509820 Y177.133189 Z0.000000 I-1.161969 J-0.978437
G02 X191.572232 Y176.733782 Z0.000000 I-1.151405 J-0.384501
G02 X191.321102 Y162.301824 Z0.000000 I-1409.532455 J17.309035
G01 X189.748571 Y93.532831 Z0.000000
G01 X188.802844 Y60.728085 Z0.000000
G00 Z10.000000

(End cutting path id: path106)


(Start cutting path id: path104)
(Change tool to prh Default Tool)

G00 Z10.000000
G00 X191.635391 Y60.362132

G01 Z0.000000 F1000.0(Penetrate)
G02 X191.701336 Y60.895624 Z0.000000 I126.640353 J-15.383171 F2200.000000
G02 X191.761329 Y61.333056 Z0.000000 I19.549451 J-2.458333
G02 X191.846361 Y61.743995 Z0.000000 I3.661874 J-0.543454
G02 X191.970969 Y61.943864 Z0.000000 I0.389147 J-0.103834
G02 X192.124348 Y62.009885 Z0.000000 I0.179192 J-0.205123
G02 X195.849624 Y62.335258 Z0.000000 I22.739849 J-238.866022
G03 X202.234389 Y62.849878 Z0.000000 I-250.417833 J3146.738644
G02 X211.300757 Y63.572512 Z0.000000 I194.183598 J-2379.044863
G02 X218.363416 Y64.088148 Z0.000000 I57.191031 J-734.719550
G02 X222.391505 Y64.324296 Z0.000000 I14.421222 J-211.516738
G02 X226.694120 Y64.522272 Z0.000000 I34.421670 J-701.231080
G03 X230.064747 Y64.794129 Z0.000000 I-1.931263 J44.976303
G03 X233.551668 Y65.376337 Z0.000000 I-4.410984 J37.150872
G02 X235.452799 Y65.765327 Z0.000000 I18.820545 J-87.142373
G02 X237.028730 Y65.975903 Z0.000000 I2.602909 J-13.477599
G02 X237.674842 Y66.000106 Z0.000000 I0.646113 J-8.611772
G01 X238.744013 Y66.704983 Z0.000000
G01 X238.744013 Y67.879437 Z0.000000
G01 X238.429712 Y68.349270 Z0.000000
G01 X237.486125 Y68.466925 Z0.000000
G01 X191.572611 Y64.825661 Z0.000000
G00 Z10.000000

(End cutting path id: path104)


(Start cutting path id: path80)
(Change tool to prh Default Tool)

G00 Z10.000000
G00 X191.383894 Y56.791352

G01 Z0.000000 F1000.0(Penetrate)
G01 X190.880876 Y48.616067 Z0.000000 F2200.000000
G00 Z10.000000

(End cutting path id: path80)


(Start cutting path id: path98)
(Change tool to prh Default Tool)

G00 Z10.000000
G00 X192.598494 Y48.339688

G01 Z0.000000 F1000.0(Penetrate)
G01 X221.888132 Y49.132806 Z0.000000 F2200.000000
G00 Z10.000000

(End cutting path id: path98)


(Start cutting path id: path102)
(Change tool to prh Default Tool)

G00 Z10.000000
G00 X221.686648 Y49.200905

G01 Z0.000000 F1000.0(Penetrate)
G02 X223.618174 Y48.897088 Z0.000000 I-29.771347 J-195.564181 F2200.000000
G02 X224.684851 Y48.658735 Z0.000000 I-1.488200 J-9.165933
G02 X225.290350 Y48.287269 Z0.000000 I-0.364319 J-1.273075
G02 X225.758631 Y47.596646 Z0.000000 I-2.003363 J-1.862464
G02 X226.287085 Y46.466504 Z0.000000 I-117.980398 J-55.856145
G02 X227.185023 Y44.519285 Z0.000000 I-1818.201607 J-839.624234
G00 Z10.000000

(End cutting path id: path102)


(Start cutting path id: path140)
(Change tool to prh Default Tool)

G00 Z10.000000
G00 X221.950924 Y43.917757

G01 Z0.000000 F1000.0(Penetrate)
G02 X223.071172 Y47.498785 Z0.000000 I178.290771 J-53.808758 F2200.000000
G02 X224.005539 Y49.618268 Z0.000000 I10.825117 J-3.506515
G02 X225.198567 Y50.705091 Z0.000000 I2.266672 J-1.289956
G02 X227.632697 Y51.340985 Z0.000000 I3.083222 J-6.825487
G02 X231.602814 Y51.573111 Z0.000000 I6.054404 J-69.483276
G03 X235.452799 Y51.717014 Z0.000000 I-7.704295 J257.693853
G03 X238.091134 Y51.912780 Z0.000000 I-2.014779 J45.029264
G03 X238.492504 Y51.983326 Z0.000000 I-0.298320 J2.874356
G01 X238.497853 Y52.046227 Z0.000000
G03 X238.073212 Y52.139940 Z0.000000 I-0.448422 J-1.022985
G03 X237.024506 Y52.143426 Z0.000000 I-0.621290 J-29.160930
G02 X233.188532 Y52.092786 Z0.000000 I-19.333239 J1319.188450
G02 X228.451052 Y52.043899 Z0.000000 I-20.762240 J1782.408743
G03 X224.194256 Y51.983344 Z0.000000 I3.655758 J-406.635604
G03 X221.148477 Y51.886651 Z0.000000 I2.446703 J-125.089135
G02 X219.770737 Y51.826739 Z0.000000 I-66.452671 J1512.263784
G02 X217.999519 Y51.761945 Z0.000000 I-5.746811 J132.855485
G03 X216.500092 Y51.701393 Z0.000000 I2.144349 J-71.694327
G03 X215.279568 Y51.547499 Z0.000000 I0.422824 J-8.270293
G03 X214.373820 Y51.157633 Z0.000000 I0.476759 J-2.354684
G03 X213.501751 Y50.364634 Z0.000000 I2.724860 J-3.872565
G03 X212.463571 Y49.112682 Z0.000000 I39.248121 J-33.602891
G00 Z10.000000

(End cutting path id: path140)


(Start cutting path id: path94)
(Change tool to prh Default Tool)

G00 Z10.000000
G00 X208.931853 Y46.995110

G01 Z0.000000 F1000.0(Penetrate)
G02 X210.957315 Y47.080548 Z0.000000 I62.289173 J-1452.622523 F2200.000000
G02 X212.401500 Y47.132112 Z0.000000 I5.189648 J-125.100851
G02 X213.716186 Y47.146127 Z0.000000 I1.021357 J-34.138638
G02 X214.173033 Y47.104826 Z0.000000 I-0.024175 J-2.814757
G02 X214.464781 Y46.938107 Z0.000000 I-0.085046 J-0.487456
G02 X214.644833 Y46.564510 Z0.000000 I-0.623331 J-0.530594
G02 X214.744795 Y45.871141 Z0.000000 I-6.932683 J-1.353366
G02 X214.749446 Y45.155012 Z0.000000 I-4.099233 J-0.384703
G02 X214.591207 Y44.714108 Z0.000000 I-0.891229 J0.071012
G02 X214.361715 Y44.536256 Z0.000000 I-0.400345 J0.279598
G02 X214.076279 Y44.470688 Z0.000000 I-0.390468 J1.045727
G02 X212.380530 Y44.348375 Z0.000000 I-3.598626 J38.075328
G02 X209.663788 Y44.222039 Z0.000000 I-20.645528 J414.690251
G02 X207.170557 Y44.168184 Z0.000000 I-2.493232 J57.685658
G02 X205.884668 Y44.379651 Z0.000000 I-0.000000 J4.015343
G02 X205.692745 Y44.591110 Z0.000000 I0.094036 J0.278175
G02 X205.603347 Y45.145654 Z0.000000 I3.888842 J0.911396
G02 X205.556168 Y45.789141 Z0.000000 I19.743254 J1.770993
G02 X205.550170 Y46.306941 Z0.000000 I5.721157 J0.325212
G02 X205.598368 Y46.525286 Z0.000000 I0.611875 J-0.020576
G02 X205.720735 Y46.648793 Z0.000000 I0.215232 J-0.090872
G02 X206.352884 Y46.818902 Z0.000000 I0.894844 J-2.065745
G02 X207.282972 Y46.901123 Z0.000000 I1.895375 J-16.138686
G02 X208.931806 Y46.995119 Z0.000000 I19.674070 J-330.607823
G01 X208.931853 Y46.995110 Z0.000000
G00 Z10.000000

(End cutting path id: path94)


(Start cutting path id: path110)
(Change tool to prh Default Tool)

G00 Z10.000000
G00 X206.981875 Y48.498677

G01 Z0.000000 F1000.0(Penetrate)
G01 X207.113132 Y48.674638 Z0.000000 F2200.000000
G02 X207.370396 Y49.020921 Z0.000000 I1805.051757 J-1340.757345
G03 X207.637073 Y49.399127 Z0.000000 I-7.456743 J5.540944
G02 X207.814888 Y49.515096 Z0.000000 I0.225127 J-0.150881
G02 X209.393002 Y49.673122 Z0.000000 I1.831231 J-10.328604
G02 X212.579650 Y49.730961 Z0.000000 I6.430369 J-266.469466
G02 X216.023327 Y49.771173 Z0.000000 I42.503166 J-3492.364867
G02 X218.012640 Y49.782129 Z0.000000 I1.989312 J-180.594190
G02 X218.250702 Y49.771173 Z0.000000 I-0.000000 J-2.591852
G02 X218.529260 Y49.718875 Z0.000000 I-0.143074 J-1.530059
G02 X218.827138 Y49.594956 Z0.000000 I-0.381442 J-1.336897
G02 X219.175177 Y49.367436 Z0.000000 I-1.507252 J-2.685610
G02 X219.429828 Y49.125123 Z0.000000 I-0.930573 J-1.232924
G02 X219.545046 Y48.887951 Z0.000000 I-0.416051 J-0.348689
G02 X219.561085 Y48.733465 Z0.000000 I-0.735973 J-0.154486
G00 Z10.000000

(End cutting path id: path110)


(Start cutting path id: path146)
(Change tool to prh Default Tool)

G00 Z10.000000
G00 X221.070471 Y51.904896

G01 Z0.000000 F1000.0(Penetrate)
G01 X221.213785 Y49.289155 Z0.000000 F2200.000000
G00 Z10.000000

(End cutting path id: path146)


(Start cutting path id: path96)
(Change tool to prh Default Tool)

G00 Z10.000000
G00 X216.353231 Y47.159406

G01 Z0.000000 F1000.0(Penetrate)
G02 X219.275691 Y47.258639 Z0.000000 I108.423313 J-3150.017601 F2200.000000
G02 X221.206692 Y47.316020 Z0.000000 I8.571537 J-255.934878
G02 X222.850614 Y47.345002 Z0.000000 I2.524571 J-96.559901
G02 X223.408168 Y47.347544 Z0.000000 I0.557554 J-61.152017
G02 X223.975034 Y47.334179 Z0.000000 I-0.000000 J-12.027935
G02 X224.215191 Y47.284761 Z0.000000 I-0.037236 J-0.789213
G02 X224.392806 Y47.156418 Z0.000000 I-0.143922 J-0.386250
G02 X224.634483 Y46.752383 Z0.000000 I-1.344942 J-1.078786
G02 X224.880755 Y46.105060 Z0.000000 I-8.077653 J-3.443635
G02 X225.053775 Y45.530776 Z0.000000 I-9.036882 J-3.035821
G02 X225.091521 Y45.176315 Z0.000000 I-1.107586 J-0.297187
G02 X225.053775 Y45.084529 Z0.000000 I-0.148529 J0.007427
G02 X224.970493 Y45.035130 Z0.000000 I-0.119353 J0.106315
G02 X223.596885 Y44.810260 Z0.000000 I-2.404299 J10.378833
G02 X221.102826 Y44.601810 Z0.000000 I-8.955837 J92.129894
G02 X218.470992 Y44.426549 Z0.000000 I-27.311256 J390.275889
G02 X216.902616 Y44.385651 Z0.000000 I-1.336357 J21.154585
G02 X216.657236 Y44.450126 Z0.000000 I0.005702 J0.520878
G02 X216.436803 Y44.657235 Z0.000000 I0.294641 J0.534458
G02 X216.196087 Y45.201909 Z0.000000 I1.681505 J1.068661
G02 X216.042245 Y45.968817 Z0.000000 I5.546931 J1.511597
G02 X216.028292 Y46.611399 Z0.000000 I2.951316 J0.385529
G02 X216.191796 Y47.015190 Z0.000000 I0.740664 J-0.064912
G02 X216.353231 Y47.159406 Z0.000000 I0.528648 J-0.429308
G01 X216.353231 Y47.159406 Z0.000000
G00 Z10.000000

(End cutting path id: path96)


(Start cutting path id: path112)
(Change tool to prh Default Tool)

G00 Z10.000000
G00 X201.289463 Y47.412208

G01 Z0.000000 F1000.0(Penetrate)
G03 X197.180955 Y47.920482 Z0.000000 I-101.785611 J-805.899143 F2200.000000
G03 X194.502348 Y48.180425 Z0.000000 I-6.799676 J-56.137098
G03 X192.296670 Y48.218050 Z0.000000 I-1.438198 J-19.640640
G03 X191.257956 Y48.146252 Z0.000000 I0.675688 J-17.324703
G00 Z10.000000

(End cutting path id: path112)


(Start cutting path id: path74)
(Change tool to prh Default Tool)

G00 Z10.000000
G00 X190.558773 Y46.815979

G01 Z0.000000 F1000.0(Penetrate)
G02 X196.294510 Y47.038454 Z0.000000 I106.949493 J-2683.265883 F2200.000000
G02 X204.328470 Y47.313636 Z0.000000 I43.777880 J-1160.686191
G02 X214.335022 Y47.591752 Z0.000000 I50.815558 J-1648.174179
G02 X221.175474 Y47.676410 Z0.000000 I6.840452 J-276.315450
G02 X225.354920 Y47.318404 Z0.000000 I-0.000000 J-24.574924
G02 X225.913648 Y46.987163 Z0.000000 I-0.155043 J-0.898365
G02 X226.433950 Y46.132264 Z0.000000 I-3.154990 J-2.505949
G02 X226.982818 Y44.857414 Z0.000000 I-40.417591 J-18.156782
G00 Z10.000000

(End cutting path id: path74)


(Start cutting path id: path142)
(Change tool to prh Default Tool)

G00 Z10.000000
G00 X230.882054 Y51.435063

G01 Z0.000000 F1000.0(Penetrate)
G01 X230.791625 Y44.784281 Z0.000000 F2200.000000
G00 Z10.000000

(End cutting path id: path142)


(Start cutting path id: path144)
(Change tool to prh Default Tool)

G00 Z10.000000
G00 X237.674842 Y51.904896

G01 Z0.000000 F1000.0(Penetrate)
G01 X238.052277 Y46.266912 Z0.000000 F2200.000000
G00 Z10.000000

(End cutting path id: path144)


(Start cutting path id: path122)
(Change tool to prh Default Tool)

G00 Z10.000000
G00 X238.240995 Y68.147869

G01 Z0.000000 F1000.0(Penetrate)
G01 X195.223529 Y177.589768 Z0.000000 F2200.000000
G00 Z10.000000

(End cutting path id: path122)


(Start cutting path id: path124)
(Change tool to prh Default Tool)

G00 Z10.000000
G00 X130.500965 Y219.919931

G01 Z0.000000 F1000.0(Penetrate)
G01 X191.635391 Y178.010045 Z0.000000 F2200.000000
G00 Z10.000000

(End cutting path id: path124)


(Start cutting path id: path78)
(Change tool to prh Default Tool)

G00 Z10.000000
G00 X188.616609 Y56.697283

G01 Z0.000000 F1000.0(Penetrate)
G01 X188.616609 Y51.810818 Z0.000000 F2200.000000
G00 Z10.000000

(End cutting path id: path78)


(Start cutting path id: path72)
(Change tool to prh Default Tool)

G00 Z10.000000
G00 X188.164325 Y45.888499

G01 Z0.000000 F1000.0(Penetrate)
G03 X189.381213 Y46.070328 Z0.000000 I-2.728092 J22.420687 F2200.000000
G03 X190.197308 Y46.407358 Z0.000000 I-0.359651 J2.027447
G03 X190.742850 Y47.094073 Z0.000000 I-0.869163 J1.250534
G03 X190.922733 Y47.676410 Z0.000000 I-3.558038 J1.418024
G03 X190.895347 Y48.069484 Z0.000000 I-0.675419 J0.150434
G03 X190.167863 Y49.477293 Z0.000000 I-6.266530 J-2.346357
G03 X188.526835 Y51.807277 Z0.000000 I-65.717706 J-44.542648
G02 X186.708500 Y54.332490 Z0.000000 I167.649723 J122.637193
G02 X185.611635 Y55.968824 Z0.000000 I30.947992 J21.930783
G02 X185.345963 Y56.415332 Z0.000000 I7.890023 J4.996860
G02 X189.047790 Y56.601782 Z0.000000 I81.848812 J-1588.209164
G02 X192.437449 Y56.746044 Z0.000000 I12.581921 J-255.736913
G02 X195.725361 Y56.839185 Z0.000000 I7.786399 J-216.783987
G02 X198.710907 Y56.895761 Z0.000000 I17.284885 J-833.323920
G00 Z10.000000

(End cutting path id: path72)


(Start cutting path id: path100)
(Change tool to prh Default Tool)

G00 Z10.000000
G00 X199.604481 Y47.743450

G01 Z0.000000 F1000.0(Penetrate)
G03 X211.218356 Y47.965105 Z0.000000 I-431.110838 J22892.857009 F2200.000000
G03 X218.101004 Y48.118154 Z0.000000 I-22.978535 J1188.186971
G03 X223.334037 Y48.297190 Z0.000000 I-7.253289 J288.572693
G03 X224.970060 Y48.381022 Z0.000000 I-4.469279 J103.225894
G00 Z10.000000

(End cutting path id: path100)


(Start cutting path id: path44)
(Change tool to prh Default Tool)

G00 Z10.000000
G00 X219.057713 Y28.037020

G01 Z0.000000 F1000.0(Penetrate)
G02 X218.606700 Y27.981739 Z0.000000 I-0.877948 J5.295355 F2200.000000
G02 X216.688809 Y27.896044 Z0.000000 I-2.183675 J27.367257
G02 X214.345044 Y27.891600 Z0.000000 I-1.457331 J150.528382
G03 X207.527105 Y27.911674 Z0.000000 I-6.817939 J-1157.811782
G03 X200.389862 Y27.889631 Z0.000000 I-0.000001 J-1155.482144
G03 X188.402713 Y27.764605 Z0.000000 I8.705952 J-1409.420958
G03 X176.262393 Y27.549389 Z0.000000 I29.669170 J-2016.153449
G03 X162.049550 Y27.247610 Z0.000000 I298.893240 J-14411.781635
G02 X145.249596 Y27.175877 Z0.000000 I-150.138770 J33196.873629
G02 X129.595334 Y27.134989 Z0.000000 I-22.379501 J5571.386621
G02 X113.616086 Y27.135110 Z0.000000 I-7.939348 J6577.830471
G03 X102.626005 Y27.122538 Z0.000000 I-2.838512 J-2322.386809
G03 X92.730117 Y27.041102 Z0.000000 I3.748855 J-1056.844728
G03 X86.273142 Y26.947116 Z0.000000 I25.363676 J-1964.376172
G00 Z10.000000

(End cutting path id: path44)


(Start cutting path id: path16)
(Change tool to prh Default Tool)

G00 Z10.000000
G00 X78.418629 Y46.683480

G01 Z0.000000 F1000.0(Penetrate)
G03 X89.965517 Y45.434108 Z0.000000 I578.640784 J5293.902949 F2200.000000
G03 X103.631320 Y44.030908 Z0.000000 I167.414876 J1563.210691
G03 X118.743857 Y42.608247 Z0.000000 I181.442140 J1846.429952
G03 X132.195178 Y41.468167 Z0.000000 I116.000179 J1288.713679
G03 X143.830642 Y40.648141 Z0.000000 I51.483371 J647.546328
G03 X153.026195 Y40.165197 Z0.000000 I31.696299 J515.731324
G03 X163.824466 Y39.760484 Z0.000000 I38.344095 J878.811529
G03 X171.961869 Y39.551210 Z0.000000 I22.727372 J725.419352
G03 X178.658651 Y39.484108 Z0.000000 I6.674301 J331.891912
G03 X182.176065 Y39.501143 Z0.000000 I-0.024942 J368.311873
G03 X192.040928 Y39.604398 Z0.000000 I-55.107815 J5736.223565
G03 X201.296213 Y39.751825 Z0.000000 I-11.392753 J1005.809658
G03 X210.500149 Y40.009126 Z0.000000 I-12.633505 J616.661343
G03 X218.219129 Y40.393902 Z0.000000 I-9.505034 J268.297992
G03 X226.112509 Y41.030325 Z0.000000 I-15.625774 J243.070024
G03 X231.070771 Y41.537078 Z0.000000 I-46.814584 J482.561065
G03 X235.465879 Y42.022905 Z0.000000 I-75.846888 J706.284582
G03 X238.052277 Y42.320130 Z0.000000 I-121.219881 J1066.235063
G02 X236.557965 Y40.509778 Z0.000000 I-204.245215 J167.067486
G02 X235.557436 Y39.407074 Z0.000000 I-13.510028 J11.252943
G02 X234.663263 Y38.749276 Z0.000000 I-2.522770 J2.492668
G02 X233.670616 Y38.420502 Z0.000000 I-1.532955 J2.965448
G02 X232.524296 Y38.279142 Z0.000000 I-2.344854 J14.296435
G02 X228.240706 Y37.935039 Z0.000000 I-66.691188 J803.376001
G02 X223.030516 Y37.534144 Z0.000000 I-292.545649 J3767.980861
G02 X214.781054 Y36.979736 Z0.000000 I-34.933859 J458.154813
G02 X207.316590 Y36.620808 Z0.000000 I-21.575239 J370.893800
G02 X198.511906 Y36.343752 Z0.000000 I-25.603750 J673.631520
G02 X189.240456 Y36.147598 Z0.000000 I-30.964018 J1244.337527
G02 X178.553174 Y35.967997 Z0.000000 I-149.018477 J8549.397717
G02 X172.428530 Y36.090436 Z0.000000 I21.739684 J1240.709284
G02 X164.196402 Y36.343752 Z0.000000 I11.134203 J495.721484
G02 X155.056794 Y36.759092 Z0.000000 I28.151696 J720.248985
G02 X144.556226 Y37.358678 Z0.000000 I51.536218 J994.803067
G02 X135.254236 Y37.991590 Z0.000000 I51.674993 J828.146546
G02 X123.708530 Y38.874696 Z0.000000 I152.767468 J2073.194703
G02 X110.094948 Y39.974120 Z0.000000 I369.063050 J4654.747428
G02 X97.392981 Y41.067246 Z0.000000 I137.438197 J1671.356192
G02 X86.102619 Y42.152642 Z0.000000 I82.497780 J917.411081
G02 X82.147233 Y42.558362 Z0.000000 I923.191427 J9019.731675
G03 X79.127622 Y42.853820 Z0.000000 I-32.271188 J-314.237389
G02 X77.930163 Y42.974666 Z0.000000 I7.103281 J76.379305
G02 X76.219085 Y43.173115 Z0.000000 I13.241282 J121.645608
G02 X73.549908 Y43.503591 Z0.000000 I240.499409 J1953.402051
G00 Z10.000000

(End cutting path id: path16)


(Start cutting path id: path42)
(Change tool to prh Default Tool)

G00 Z10.000000
G00 X68.157966 Y48.379433

G01 Z0.000000 F1000.0(Penetrate)
G02 X72.020426 Y46.133677 Z0.000000 I-199.840988 J-348.149526 F2200.000000
G02 X74.699955 Y44.388650 Z0.000000 I-18.023428 J-30.605137
G02 X76.758673 Y42.615709 Z0.000000 I-8.929814 J-12.450945
G02 X78.155418 Y41.017143 Z0.000000 I-14.383625 J-13.977154
G02 X79.548092 Y39.156227 Z0.000000 I-40.582933 J-31.823076
G02 X81.526457 Y36.231113 Z0.000000 I-56.900599 J-40.615610
G02 X83.594614 Y32.877439 Z0.000000 I-98.323798 J-62.949240
G02 X85.350477 Y29.878716 Z0.000000 I-248.817519 J-147.705270
G02 X86.795818 Y27.337063 Z0.000000 I-186.031922 J-107.471012
G02 X87.681791 Y25.744308 Z0.000000 I-303.223753 J-169.711642
G00 Z10.000000

(End cutting path id: path42)


(Start cutting path id: path108)
(Change tool to prh Default Tool)

G00 Z10.000000
G00 X63.475480 Y23.364141

G01 Z0.000000 F1000.0(Penetrate)
G02 X65.128757 Y23.378987 Z0.000000 I7.014993 J-689.134125 F2200.000000
G02 X68.175343 Y23.395136 Z0.000000 I4.779405 J-614.304093
G03 X71.809561 Y23.421706 Z0.000000 I-1.091021 J397.780082
G03 X76.807078 Y23.660132 Z0.000000 I-0.830395 J69.899669
G03 X81.384702 Y24.220142 Z0.000000 I-5.013761 J59.972625
G03 X85.705571 Y24.954086 Z0.000000 I-42.599173 J263.875194
G03 X97.023320 Y24.375480 Z0.000000 I80.320602 J1460.121803
G03 X108.045264 Y24.077760 Z0.000000 I12.879457 J272.641301
G03 X119.026342 Y24.231549 Z0.000000 I1.802170 J263.440334
G03 X129.410872 Y24.628143 Z0.000000 I-54.470718 J1562.430634
G02 X140.115107 Y25.050781 Z0.000000 I111.211308 J-2680.906454
G02 X148.384502 Y25.306794 Z0.000000 I23.775631 J-634.286624
G02 X155.528686 Y25.425183 Z0.000000 I11.147168 J-457.059372
G03 X164.213069 Y25.515604 Z0.000000 I-22.960826 J2622.338451
G03 X175.305478 Y25.679641 Z0.000000 I-24.135146 J2007.169823
G03 X185.982011 Y25.906997 Z0.000000 I-25.047015 J1426.993683
G03 X194.267016 Y26.158110 Z0.000000 I-19.708054 J787.031445
G02 X200.238035 Y26.350860 Z0.000000 I32.238787 J-906.111875
G02 X207.664951 Y26.530484 Z0.000000 I22.679142 J-784.086542
G02 X214.284774 Y26.637853 Z0.000000 I19.944073 J-1025.519945
G03 X219.769599 Y26.717002 Z0.000000 I-24.676028 J1900.067321
G03 X223.684157 Y26.872897 Z0.000000 I-1.299341 J81.852231
G03 X228.064653 Y27.225293 Z0.000000 I-8.400884 J131.830381
G02 X232.978880 Y27.603744 Z0.000000 I11.894005 J-122.349849
G02 X237.802716 Y27.763497 Z0.000000 I5.791294 J-101.962275
G02 X242.622668 Y27.786328 Z0.000000 I4.819952 J-508.779790
G00 Z10.000000

(End cutting path id: path108)


(Start cutting path id: path90-0)
(Change tool to prh Default Tool)

G00 Z10.000000
G00 X217.799837 Y28.037020

G01 Z0.000000 F1000.0(Penetrate)
G03 X220.402505 Y28.906100 Z0.000000 I-124.369030 J376.784194 F2200.000000
G03 X223.628104 Y30.041687 Z0.000000 I-42.852835 J126.871014
G03 X227.139955 Y31.374996 Z0.000000 I-55.570791 J151.661673
G03 X230.756470 Y32.860675 Z0.000000 I-46.716450 J118.864141
G03 X234.031598 Y34.407537 Z0.000000 I-19.743872 J46.043729
G03 X236.416954 Y35.977252 Z0.000000 I-6.282124 J12.143657
G03 X238.491308 Y38.121345 Z0.000000 I-8.220302 J10.028412
G03 X239.855395 Y40.174469 Z0.000000 I-14.582823 J11.168476
G03 X240.918225 Y42.387304 Z0.000000 I-14.914866 J8.525303
G03 X241.281066 Y43.604530 Z0.000000 I-6.832484 J2.699378
G03 X241.317880 Y44.685603 Z0.000000 I-3.154561 J0.648587
G03 X241.197021 Y45.233178 Z0.000000 I-3.369985 J-0.456691
G03 X239.984053 Y45.690725 Z0.000000 I-3.905616 J-8.517298
G03 X236.878848 Y46.269031 Z0.000000 I-4.235845 J-14.118463
G03 X232.870267 Y46.417565 Z0.000000 I-3.872013 J-50.331104
G03 X226.357444 Y46.374235 Z0.000000 I2.231789 J-824.936083
G00 Z10.000000

(End cutting path id: path90-0)


(Start cutting path id: path76)
(Change tool to prh Default Tool)

G00 Z10.000000
G00 X200.063515 Y47.770214

G01 Z0.000000 F1000.0(Penetrate)
G03 X199.428731 Y53.086776 Z0.000000 I-763.986566 J-88.521765 F2200.000000
G03 X198.931198 Y56.149011 Z0.000000 I-39.740794 J-4.885309
G03 X198.163206 Y58.314801 Z0.000000 I-8.004315 J-1.619280
G03 X197.736456 Y58.827288 Z0.000000 I-1.401381 J-0.733014
G03 X197.107109 Y59.194568 Z0.000000 I-1.659238 J-2.120318
G03 X195.681841 Y59.657246 Z0.000000 I-3.648598 J-8.812824
G03 X193.868529 Y60.035531 Z0.000000 I-7.309982 J-30.505203
G03 X191.195176 Y60.424668 Z0.000000 I-7.493708 J-42.104015
G03 X188.733574 Y60.611932 Z0.000000 I-3.758432 J-33.132155
G03 X186.310485 Y60.612549 Z0.000000 I-1.219524 J-31.333180
G03 X183.729000 Y60.436725 Z0.000000 I1.659119 J-43.398363
G02 X181.739751 Y60.252424 Z0.000000 I-18.018245 J183.651756
G02 X179.982386 Y60.134739 Z0.000000 I-3.801687 J43.589551
G02 X178.783749 Y60.095810 Z0.000000 I-1.962901 J41.966457
G02 X177.620909 Y60.080011 Z0.000000 I-2.300146 J126.491743
G03 X175.408466 Y60.048922 Z0.000000 I1.964962 J-218.571494
G03 X172.578639 Y59.985119 Z0.000000 I8.346384 J-432.971394
G03 X169.747273 Y59.908211 Z0.000000 I27.170991 J-1052.461155
G03 X167.538625 Y59.840660 Z0.000000 I15.142944 J-531.250619
G03 X166.348219 Y59.800623 Z0.000000 I20.132375 J-616.311590
G00 Z10.000000

(End cutting path id: path76)


(Start cutting path id: path70)
(Change tool to prh Default Tool)

G00 Z10.000000
G00 X159.164862 Y51.519595

G01 Z0.000000 F1000.0(Penetrate)
G02 X160.370778 Y51.422862 Z0.000000 I-26.314778 J-335.616400 F2200.000000
G02 X161.219122 Y51.339661 Z0.000000 I-2.188447 J-26.680546
G02 X161.867627 Y51.248422 Z0.000000 I-1.454019 J-12.685221
G03 X162.941351 Y51.069639 Z0.000000 I209.530544 J1255.074213
G03 X164.404871 Y50.837049 Z0.000000 I17.266205 J103.922825
G03 X166.603262 Y50.557933 Z0.000000 I6.844522 J45.112208
G03 X168.669220 Y50.402688 Z0.000000 I3.925695 J38.417847
G02 X169.971464 Y50.338784 Z0.000000 I-36.610418 J-759.342225
G02 X171.175413 Y50.263137 Z0.000000 I-2.334721 J-46.776615
G02 X171.536903 Y50.234383 Z0.000000 I-3.656284 J-48.253155
G02 X171.776565 Y50.177260 Z0.000000 I-0.067922 J-0.816285
G02 X171.844454 Y50.098706 Z0.000000 I-0.042779 J-0.105584
G02 X171.885652 Y49.872564 Z0.000000 I-1.902104 J-0.463348
G02 X171.914314 Y49.628873 Z0.000000 I-27.777794 J-3.390648
G03 X171.940585 Y49.496928 Z0.000000 I0.772681 J0.085255
G03 X171.969990 Y49.461663 Z0.000000 I0.055067 J0.016024
G03 X172.018744 Y49.448206 Z0.000000 I0.060134 J0.122812
G03 X172.920681 Y49.399145 Z0.000000 I1.297417 J15.536602
G03 X174.471172 Y49.367160 Z0.000000 I4.139075 J163.048972
G02 X176.260857 Y49.284395 Z0.000000 I-0.468655 J-29.525316
G02 X177.381930 Y49.038330 Z0.000000 I-0.316914 J-4.120697
G02 X177.868507 Y48.689225 Z0.000000 I-0.394900 J-1.064050
G02 X178.328972 Y47.990503 Z0.000000 I-3.327169 J-2.693720
G03 X178.888716 Y47.143794 Z0.000000 I4.527615 J2.384756
G03 X179.552533 Y46.544965 Z0.000000 I2.272522 J1.851803
G03 X180.286372 Y46.172861 Z0.000000 I2.026990 J3.087829
G03 X180.997834 Y45.986334 Z0.000000 I1.273438 J3.407113
G03 X182.774110 Y45.807437 Z0.000000 I2.520317 J16.116538
G03 X185.302175 Y45.738947 Z0.000000 I3.111990 J68.176295
G03 X187.470438 Y45.797106 Z0.000000 I0.262383 J30.665337
G03 X188.714971 Y46.106530 Z0.000000 I-0.219801 J3.541584
G03 X189.091564 Y46.433884 Z0.000000 I-0.359844 J0.794267
G03 X189.461649 Y47.085674 Z0.000000 I-6.421367 J4.076994
G03 X189.958175 Y48.083459 Z0.000000 I-92.734802 J46.769910
G00 Z10.000000

(End cutting path id: path70)


(Start cutting path id: path92)
(Change tool to prh Default Tool)

G00 Z10.000000
G00 X190.409076 Y45.350567

G01 Z0.000000 F1000.0(Penetrate)
G03 X190.427882 Y44.820265 Z0.000000 I68.933857 J2.179125 F2200.000000
G03 X190.456241 Y44.430514 Z0.000000 I5.857609 J0.230295
G03 X190.524532 Y44.090299 Z0.000000 I1.875365 J0.199479
G03 X190.618704 Y43.925440 Z0.000000 I0.401089 J0.119788
G03 X190.764537 Y43.834218 Z0.000000 I0.241453 J0.223821
G03 X191.226714 Y43.745240 Z0.000000 I0.655311 J2.159055
G03 X191.850933 Y43.709773 Z0.000000 I0.939490 J11.024006
G03 X192.652397 Y43.698351 Z0.000000 I0.801463 J28.114772
G03 X193.328520 Y43.733714 Z0.000000 I-0.000000 J6.481276
G03 X193.763412 Y43.870595 Z0.000000 I-0.119454 J1.138830
G03 X194.131496 Y44.197644 Z0.000000 I-0.543450 J0.982294
G03 X194.318926 Y44.622378 Z0.000000 I-0.914148 J0.657125
G03 X194.319135 Y45.103579 Z0.000000 I-1.143058 J0.241095
G03 X194.245520 Y45.397747 Z0.000000 I-3.885022 J-0.815920
G03 X194.150707 Y45.569735 Z0.000000 I-0.428706 J-0.124207
G03 X193.962449 Y45.671751 Z0.000000 I-0.234495 J-0.208019
G03 X193.649466 Y45.697039 Z0.000000 I-0.343830 J-2.306029
G03 X192.746773 Y45.703010 Z0.000000 I-0.902692 J-68.224902
G03 X191.659462 Y45.699360 Z0.000000 I-0.000000 J-161.937284
G03 X190.896479 Y45.644201 Z0.000000 I0.039264 J-5.847622
G03 X190.478250 Y45.459195 Z0.000000 I0.113225 J-0.821195
G03 X190.409076 Y45.350585 Z0.000000 I0.136268 J-0.163122
G01 X190.409076 Y45.350567 Z0.000000
G00 Z10.000000

(End cutting path id: path92)


(Start cutting path id: path68)
(Change tool to prh Default Tool)

G00 Z10.000000
G00 X174.779522 Y50.933962

G01 Z0.000000 F1000.0(Penetrate)
G01 X179.811062 Y55.538467 Z0.000000 F2200.000000
G02 X180.682204 Y55.773294 Z0.000000 I8.976914 J-31.568599
G02 X181.642195 Y55.956096 Z0.000000 I1.966959 J-7.717470
G02 X182.768430 Y56.035216 Z0.000000 I1.266261 J-9.969265
G02 X183.389259 Y56.039542 Z0.000000 I0.620828 J-44.551284
G02 X183.701764 Y55.926232 Z0.000000 I0.000000 J-0.487594
G02 X184.814930 Y54.849193 Z0.000000 I-6.785138 J-8.126508
G02 X186.908020 Y52.502400 Z0.000000 I-5946.367935 J-5305.635501
G02 X189.035913 Y49.942066 Z0.000000 I-35.810772 J-31.926723
G02 X189.931575 Y48.335184 Z0.000000 I-4.870092 J-3.767608
G02 X189.958211 Y48.020870 Z0.000000 I-0.545792 J-0.204537
G02 X185.884330 Y48.030511 Z0.000000 I0.000000 J860.727073
G02 X183.570884 Y48.104317 Z0.000000 I0.201714 J42.617581
G02 X181.995675 Y48.438545 Z0.000000 I0.317794 J5.376820
G02 X181.474412 Y48.835164 Z0.000000 I0.400767 J1.067566
G02 X180.923185 Y49.759522 Z0.000000 I4.784191 J3.479516
G03 X180.509890 Y50.505676 Z0.000000 I-6.500932 J-3.113329
G03 X180.142111 Y50.777007 Z0.000000 I-0.533219 J-0.337837
G03 X179.182118 Y50.907674 Z0.000000 I-0.980091 J-3.608792
G02 X177.637757 Y50.916645 Z0.000000 I28.800019 J5100.857056
G02 X174.779522 Y50.933900 Z0.000000 I111.442924 J18627.913298
G01 X174.779522 Y50.933962 Z0.000000
G00 Z10.000000

(End cutting path id: path68)


(Start cutting path id: path84)
(Change tool to prh Default Tool)

G00 Z10.000000
G00 X165.219448 Y48.428194

G01 Z0.000000 F1000.0(Penetrate)
G03 X165.108727 Y47.713292 Z0.000000 I28.693876 J-4.810026 F2200.000000
G03 X165.009808 Y46.736745 Z0.000000 I12.068193 J-1.715725
G03 X164.973720 Y45.546829 Z0.000000 I19.599493 J-1.189915
G03 X165.009808 Y44.653637 Z0.000000 I11.071593 J0.000000
G03 X165.167323 Y44.076931 Z0.000000 I1.612639 J0.130593
G03 X165.387243 Y43.854947 Z0.000000 I0.435825 J0.211843
G03 X165.702896 Y43.758510 Z0.000000 I0.445938 J0.894806
G03 X167.965799 Y43.572997 Z0.000000 I3.027178 J23.031483
G03 X171.572196 Y43.497414 Z0.000000 I5.004644 J152.717219
G03 X175.177891 Y43.510478 Z0.000000 I1.291512 J141.129401
G03 X177.419613 Y43.692730 Z0.000000 I-0.284790 J17.380782
G03 X177.735513 Y43.839335 Z0.000000 I-0.088909 J0.605226
G03 X177.936400 Y44.178882 Z0.000000 I-0.423388 J0.479690
G03 X178.029233 Y44.888708 Z0.000000 I-3.852245 J0.864793
G03 X178.044859 Y45.770797 Z0.000000 I-20.437533 J0.803216
G03 X178.007956 Y46.783669 Z0.000000 I-15.566216 J-0.060028
G03 X177.894552 Y47.697996 Z0.000000 I-8.360546 J-0.572765
G03 X177.756447 Y48.161890 Z0.000000 I-2.150960 J-0.387853
G03 X177.525354 Y48.372869 Z0.000000 I-0.344630 J-0.145434
G03 X175.974618 Y48.647361 Z0.000000 I-1.799659 J-5.649447
G03 X173.164500 Y48.708011 Z0.000000 I-2.891493 J-68.841824
G03 X169.999491 Y48.709880 Z0.000000 I-3.165007 J-2679.902491
G03 X167.922968 Y48.696781 Z0.000000 I-0.000000 J-164.603666
G03 X167.169072 Y48.662991 Z0.000000 I0.147968 J-11.728315
G03 X166.243747 Y48.566841 Z0.000000 I1.346092 J-17.455187
G03 X165.219448 Y48.428211 Z0.000000 I15.191422 J-116.098666
G01 X165.219448 Y48.428194 Z0.000000
G00 Z10.000000

(End cutting path id: path84)


(Start cutting path id: path82)
(Change tool to prh Default Tool)

G00 Z10.000000
G00 X149.621467 Y48.803948

G01 Z0.000000 F1000.0(Penetrate)
G03 X148.598466 Y46.906274 Z0.000000 I333.649896 J-181.088991 F2200.000000
G03 X148.048924 Y45.797079 Z0.000000 I17.277062 J-9.250523
G03 X147.771160 Y44.926781 Z0.000000 I3.491064 J-1.593680
G03 X147.776492 Y44.716438 Z0.000000 I0.484327 J-0.092961
G03 X147.885693 Y44.607082 Z0.000000 I0.144515 J0.035109
G03 X150.145408 Y44.246606 Z0.000000 I3.334927 J13.642661
G03 X154.448091 Y43.973422 Z0.000000 I12.480267 J162.545453
G03 X159.349324 Y43.745240 Z0.000000 I33.618418 J669.354783
G03 X162.498446 Y43.683011 Z0.000000 I2.926732 J68.396406
G03 X163.102042 Y43.761135 Z0.000000 I-0.007900 J2.431847
G03 X163.673482 Y44.074811 Z0.000000 I-0.333227 J1.284405
G03 X163.961560 Y44.528292 Z0.000000 I-0.726976 J0.780061
G03 X164.067129 Y45.124906 Z0.000000 I-2.140940 J0.686481
G03 X164.087143 Y46.125928 Z0.000000 I-25.023861 J1.001021
G03 X164.074981 Y47.286386 Z0.000000 I-55.370568 J-0.000000
G03 X163.940637 Y48.036527 Z0.000000 I-2.448004 J-0.051317
G03 X163.628718 Y48.301472 Z0.000000 I-0.380801 J-0.132233
G03 X161.089284 Y48.553257 Z0.000000 I-2.993753 J-17.262264
G03 X157.104529 Y48.647207 Z0.000000 I-21.085908 J-809.778990
G03 X149.621467 Y48.803940 Z0.000000 I-462.659199 J-21910.257518
G01 X149.621467 Y48.803948 Z0.000000
G00 Z10.000000

(End cutting path id: path82)


(Start cutting path id: path86)
(Change tool to prh Default Tool)

G00 Z10.000000
G00 X148.489150 Y50.401328

G01 Z0.000000 F1000.0(Penetrate)
G01 X164.464578 Y50.401328 Z0.000000 F2200.000000
G00 Z10.000000

(End cutting path id: path86)


(Start cutting path id: path52)
(Change tool to prh Default Tool)

G00 Z10.000000
G00 X145.910595 Y51.059299

G01 Z0.000000 F1000.0(Penetrate)
G01 X145.910595 Y51.998965 Z0.000000 F2200.000000
G01 X159.495830 Y52.468797 Z0.000000
G00 Z10.000000

(End cutting path id: path52)


(Start cutting path id: path54)
(Change tool to prh Default Tool)

G00 Z10.000000
G00 X145.915559 Y51.930336

G01 Z0.000000 F1000.0(Penetrate)
G01 X139.322127 Y52.662242 Z0.000000 F2200.000000
G00 Z10.000000

(End cutting path id: path54)


(Start cutting path id: path88)
(Change tool to prh Default Tool)

G00 Z10.000000
G00 X127.090917 Y50.746610

G01 Z0.000000 F1000.0(Penetrate)
G01 X139.849614 Y62.821523 Z0.000000 F2200.000000
G00 Z10.000000

(End cutting path id: path88)


(Start cutting path id: path58)
(Change tool to prh Default Tool)

G00 Z10.000000
G00 X127.314399 Y62.178653

G01 Z0.000000 F1000.0(Penetrate)
G02 X127.540087 Y62.221880 Z0.000000 I0.503796 J-2.019530 F2200.000000
G02 X127.985201 Y62.230840 Z0.000000 I0.261722 J-1.941209
G03 X128.338148 Y62.220741 Z0.000000 I0.254921 J2.736664
G03 X138.408694 Y62.738033 Z0.000000 I-11.491252 J321.993787
G03 X154.323852 Y63.859950 Z0.000000 I-155.407198 J2318.002358
G03 X185.326459 Y66.160411 Z0.000000 I-4486.208868 J60669.256024
G00 Z10.000000

(End cutting path id: path58)


(Start cutting path id: path134)
(Change tool to prh Default Tool)

G00 Z10.000000
G00 X126.790459 Y64.825661

G01 Z0.000000 F1000.0(Penetrate)
G01 X184.350944 Y67.882881 Z0.000000 F2200.000000
G00 Z10.000000

(End cutting path id: path134)


(Start cutting path id: path148)
(Change tool to prh Default Tool)

G00 Z10.000000
G00 X125.217916 Y59.610348

G01 Z0.000000 F1000.0(Penetrate)
G02 X124.901945 Y60.142140 Z0.000000 I0.877157 J0.880938 F2200.000000
G03 X124.463046 Y60.362132 Z0.000000 I-0.321782 J-0.094163
G03 X123.872712 Y59.757152 Z0.000000 I0.347061 J-0.929170
G03 X123.708530 Y59.046438 Z0.000000 I3.259695 J-1.127340
G03 X123.776438 Y58.604462 Z0.000000 I0.820624 J-0.100119
G03 X124.211537 Y58.294654 Z0.000000 I0.484539 J0.220059
G03 X126.575521 Y59.279572 Z0.000000 I0.253583 J2.720811
G03 X126.224295 Y60.925768 Z0.000000 I-0.830744 J0.683322
G03 X125.456668 Y61.116157 Z0.000000 I-0.811310 J-1.628429
G03 X124.714555 Y60.925768 Z0.000000 I-0.033854 J-1.409574
G03 X124.201415 Y60.297571 Z0.000000 I0.578889 J-0.996539
G02 X123.960039 Y59.610348 Z0.000000 I-27.704123 J9.344605
G03 X123.843322 Y59.226684 Z0.000000 I3.427472 J-1.252288
G03 X123.960039 Y58.858564 Z0.000000 I0.360338 J-0.088313
G03 X124.639227 Y58.527778 Z0.000000 I0.952333 J1.092715
G02 X125.469425 Y58.294654 Z0.000000 I-0.966353 J-5.036161
G00 Z10.000000

(End cutting path id: path148)


(Start cutting path id: path50)
(Change tool to prh Default Tool)

G00 Z10.000000
G00 X126.662393 Y51.039431

G01 Z0.000000 F1000.0(Penetrate)
G02 X129.066377 Y51.180140 Z0.000000 I54.631619 J-912.762653 F2200.000000
G02 X132.220002 Y51.345497 Z0.000000 I18.938301 J-331.028550
G02 X136.085555 Y51.516762 Z0.000000 I26.603283 J-556.744299
G02 X138.551642 Y51.615254 Z0.000000 I56.689161 J-1388.488451
G02 X140.014212 Y51.635751 Z0.000000 I1.141109 J-29.232070
G02 X140.606268 Y51.591677 Z0.000000 I-0.051551 J-4.691114
G02 X141.565807 Y51.455025 Z0.000000 I-15.423445 J-111.737003
G03 X143.163890 Y51.231551 Z0.000000 I17.177863 J117.015045
G03 X144.644430 Y51.050412 Z0.000000 I9.521592 J71.683280
G03 X145.480652 Y50.973186 Z0.000000 I2.414438 J21.578293
G03 X146.176378 Y50.952860 Z0.000000 I0.578689 J7.890596
G03 X146.476392 Y50.965239 Z0.000000 I-0.083993 J5.677435
G02 X146.730768 Y50.975065 Z0.000000 I0.296715 J-4.383994
G02 X149.002807 Y50.973186 Z0.000000 I1.046258 J-108.578377
G02 X152.418051 Y50.926867 Z0.000000 I-9.082902 J-795.631618
G02 X158.866886 Y50.824264 Z0.000000 I-252.115606 J-16048.816175
G01 X159.936044 Y52.468806 Z0.000000
G02 X155.632434 Y52.520621 Z0.000000 I37.240030 J3271.794664
G02 X152.346883 Y52.578249 Z0.000000 I4.309401 J339.384392
G02 X149.279782 Y52.670276 Z0.000000 I4.595145 J204.303128
G02 X147.776492 Y52.727171 Z0.000000 I86.709765 J2310.954362
G03 X146.400559 Y52.772769 Z0.000000 I-5.231576 J-137.081240
G03 X145.376015 Y52.797637 Z0.000000 I-3.747652 J-133.286119
G03 X144.202328 Y52.818970 Z0.000000 I-5.348890 J-261.982720
G03 X142.723663 Y52.836843 Z0.000000 I-3.062062 J-192.151776
G03 X141.172413 Y52.834283 Z0.000000 I-0.646217 J-78.399535
G03 X140.071677 Y52.758430 Z0.000000 I0.111280 J-9.639475
G03 X139.146015 Y52.506330 Z0.000000 I0.430216 J-3.405140
G03 X138.915246 Y52.306885 Z0.000000 I0.199613 J-0.464191
G03 X138.885331 Y52.009905 Z0.000000 I0.291589 J-0.179369
G03 X139.033725 Y51.685216 Z0.000000 I2.151374 J0.786998
G00 Z10.000000

(End cutting path id: path50)


(Start cutting path id: path20)
(Change tool to prh Default Tool)

G00 Z10.000000
G00 X126.595701 Y50.675058

G01 Z0.000000 F1000.0(Penetrate)
G02 X129.795323 Y50.872871 Z0.000000 I29.982140 J-458.985171 F2200.000000
G02 X132.357642 Y50.960727 Z0.000000 I3.112172 J-53.357807
G02 X134.644562 Y50.897902 Z0.000000 I0.311670 J-30.310031
G02 X136.790747 Y50.714547 Z0.000000 I-3.506729 J-53.698894
G02 X139.225826 Y50.440014 Z0.000000 I-17.811241 J-168.920401
G02 X141.822287 Y50.125735 Z0.000000 I-159.917952 J-1332.069335
G02 X144.297477 Y49.823808 Z0.000000 I-1363.244887 J-11186.018129
G02 X146.115979 Y49.599460 Z0.000000 I-88.297685 J-723.196894
G03 X147.648476 Y49.436809 Z0.000000 I5.269107 J42.344729
G03 X150.745261 Y49.261330 Z0.000000 I4.370923 J49.723274
G03 X154.701805 Y49.205975 Z0.000000 I4.354478 J169.811739
G03 X161.043171 Y49.198547 Z0.000000 I6.341369 J2706.955208
G01 X172.012249 Y49.555759 Z0.000000
G00 Z10.000000

(End cutting path id: path20)


(Start cutting path id: path46)
(Change tool to prh Default Tool)

G00 Z10.000000
G00 X126.632948 Y49.908175

G01 Z0.000000 F1000.0(Penetrate)
G02 X131.331458 Y50.020946 Z0.000000 I72.511849 J-2923.205146 F2200.000000
G02 X133.818787 Y50.052859 Z0.000000 I2.783257 J-119.981500
G02 X135.456634 Y49.955134 Z0.000000 I0.038528 J-13.128072
G02 X135.605935 Y49.884589 Z0.000000 I-0.032045 J-0.261084
G02 X135.687468 Y49.725838 Z0.000000 I-0.185703 J-0.195688
G02 X135.658419 Y49.070270 Z0.000000 I-1.799318 J-0.248698
G02 X135.370239 Y48.053352 Z0.000000 I-10.109744 J2.315662
G02 X134.924826 Y47.104817 Z0.000000 I-4.443519 J1.507742
G02 X134.466361 Y46.785676 Z0.000000 I-0.594887 J0.365714
G02 X132.953925 Y46.666252 Z0.000000 I-1.260647 J6.328621
G02 X130.645427 Y46.767328 Z0.000000 I9.507784 J243.563256
G02 X126.475780 Y46.971524 Z0.000000 I231.806915 J4776.140302
G00 Z10.000000

(End cutting path id: path46)


(Start cutting path id: path56)
(Change tool to prh Default Tool)

G00 Z10.000000
G00 X122.869934 Y46.016229

G01 Z0.000000 F1000.0(Penetrate)
G01 X123.540736 Y74.582688 Z0.000000 F2200.000000
G01 X126.028485 Y163.090174 Z0.000000
G03 X126.630978 Y184.660756 Z0.000000 I-88191.686712 J2474.678762
G03 X126.727313 Y188.158730 Z0.000000 I-6513.177789 J181.104521
G03 X126.992634 Y203.096520 Z0.000000 I-10528.298106 J194.472140
G03 X127.062890 Y211.337358 Z0.000000 I-483.273584 J8.240838
G03 X126.865484 Y217.186552 Z0.000000 I-86.755287 J0.000000
G03 X126.769170 Y217.852462 Z0.000000 I-4.411086 J-0.298081
G03 X126.548300 Y218.519997 Z0.000000 I-3.422743 J-0.762187
G03 X126.349878 Y218.792128 Z0.000000 I-0.737405 J-0.329271
G03 X125.983156 Y219.075163 Z0.000000 I-2.090702 J-2.329779
G02 X125.637219 Y219.418830 Z0.000000 I0.679696 J1.030128
G02 X125.491155 Y219.829461 Z0.000000 I0.735776 J0.493014
G02 X125.469425 Y220.295695 Z0.000000 I4.990638 J0.466234
G03 X128.787976 Y220.089786 Z0.000000 I455.286329 J7310.810497
G03 X130.585045 Y219.982467 Z0.000000 I26.530222 J429.152857
G02 X131.711363 Y219.859437 Z0.000000 I-0.629969 J-10.984371
G02 X131.758853 Y219.763326 Z0.000000 I-0.010507 J-0.064980
G02 X131.576915 Y219.515383 Z0.000000 I-0.956434 J0.511095
G03 X131.129909 Y218.917465 Z0.000000 I2.005084 J-1.965063
G03 X130.998469 Y218.482421 Z0.000000 I0.928030 J-0.517764
G03 X130.752828 Y213.342026 Z0.000000 I85.044966 J-6.640050
G03 X130.644495 Y205.457184 Z0.000000 I1007.471012 J-17.785266
G03 X130.500965 Y190.413815 Z0.000000 I26407.333979 J-259.478590
G03 X129.952388 Y176.591936 Z0.000000 I5041.721974 J-207.022673
G03 X129.061463 Y151.312850 Z0.000000 I4118.650571 J-157.811121
G03 X128.148935 Y121.568033 Z0.000000 I9969.631856 J-320.740163
G03 X126.895096 Y78.341341 Z0.000000 I120599.680338 J-3519.777500
G01 X126.559518 Y45.828347 Z0.000000
G00 Z10.000000

(End cutting path id: path56)


(Start cutting path id: path116)
(Change tool to prh Default Tool)

G00 Z10.000000
G00 X114.202383 Y44.431044

G01 Z0.000000 F1000.0(Penetrate)
G01 X124.463046 Y136.476187 Z0.000000 F2200.000000
G01 X113.896605 Y135.160758 Z0.000000
G01 X126.913548 Y218.089361 Z0.000000
G00 Z10.000000

(End cutting path id: path116)


(Start cutting path id: path32)
(Change tool to prh Default Tool)

G00 Z10.000000
G00 X69.366893 Y59.140515

G01 Z0.000000 F1000.0(Penetrate)
G01 X73.408024 Y49.432779 Z0.000000 F2200.000000
G00 Z10.000000

(End cutting path id: path32)


(Start cutting path id: path36)
(Change tool to prh Default Tool)

G00 Z10.000000
G00 X84.587451 Y52.092769

G01 Z0.000000 F1000.0(Penetrate)
G03 X67.569603 Y54.912409 Z0.000000 I-2238.876560 J-13459.900469 F2200.000000
G03 X58.108362 Y56.399694 Z0.000000 I-102.040096 J-618.282889
G03 X51.260268 Y57.204428 Z0.000000 I-16.251263 J-108.754117
G03 X50.686629 Y57.182745 Z0.000000 I-0.199409 J-2.323371
G03 X50.669951 Y57.059211 Z0.000000 I0.010423 J-0.064300
G03 X52.091366 Y56.587575 Z0.000000 I2.871263 J6.275654
G03 X54.728647 Y56.060033 Z0.000000 I20.048278 J93.369088
G02 X60.750064 Y54.912030 Z0.000000 I-110.707352 J-597.039201
G02 X66.660142 Y53.724503 Z0.000000 I-120.667560 J-615.838273
G02 X73.643563 Y52.280915 Z0.000000 I-958.607786 J-4654.921757
G00 Z10.000000

(End cutting path id: path36)


(Start cutting path id: path30)
(Change tool to prh Default Tool)

G00 Z10.000000
G00 X61.567725 Y59.140515

G01 Z0.000000 F1000.0(Penetrate)
G01 X64.468738 Y50.949857 Z0.000000 F2200.000000
G00 Z10.000000

(End cutting path id: path30)


(Start cutting path id: path24)
(Change tool to prh Default Tool)

G00 Z10.000000
G00 X55.403868 Y51.247181

G01 Z0.000000 F1000.0(Penetrate)
G01 X86.474271 Y26.063620 Z0.000000 F2200.000000
G00 Z10.000000

(End cutting path id: path24)


(Start cutting path id: path40)
(Change tool to prh Default Tool)

G00 Z10.000000
G00 X55.360947 Y52.314568

G01 Z0.000000 F1000.0(Penetrate)
G03 X62.767479 Y68.001537 Z0.000000 I-5993.254807 J2839.280264 F2200.000000
G03 X69.653167 Y82.904247 Z0.000000 I-1063.227250 J500.298406
G03 X76.567296 Y98.481190 Z0.000000 I-963.526945 J437.003114
G03 X80.946463 Y108.677415 Z0.000000 I-1265.021710 J549.351496
G03 X84.642281 Y117.504150 Z0.000000 I-860.881623 J365.644537
G03 X86.642066 Y122.380967 Z0.000000 I-1075.542805 J443.884840
G00 Z10.000000

(End cutting path id: path40)


(Start cutting path id: path28)
(Change tool to prh Default Tool)

G00 Z10.000000
G00 X56.158750 Y60.080172

G01 Z0.000000 F1000.0(Penetrate)
G01 X59.928147 Y51.585840 Z0.000000 F2200.000000
G00 Z10.000000

(End cutting path id: path28)


(Start cutting path id: path34)
(Change tool to prh Default Tool)

G00 Z10.000000
G00 X50.350342 Y61.311069

G01 Z0.000000 F1000.0(Penetrate)
G03 X54.141503 Y60.495851 Z0.000000 I534.187506 J2475.011372 F2200.000000
G03 X57.538663 Y59.784181 Z0.000000 I80.135330 J374.062103
G03 X60.744386 Y59.147253 Z0.000000 I56.120459 J274.074264
G03 X63.999775 Y58.529707 Z0.000000 I111.240089 J577.512033
G02 X67.835413 Y57.811875 Z0.000000 I-1015.141472 J-5434.874745
G02 X70.226412 Y57.308091 Z0.000000 I-10.097288 J-53.848361
G02 X71.568107 Y56.654631 Z0.000000 I-0.768556 J-3.282139
G02 X72.469389 Y55.491305 Z0.000000 I-1.976527 J-2.462102
G02 X73.375882 Y53.329579 Z0.000000 I-39.298311 J-17.750183
G02 X74.901451 Y49.367850 Z0.000000 I-858.445486 J-332.841831
G00 Z10.000000

(End cutting path id: path34)

; prh - end of generated gcode
; this is my prh footer

G54     ; change back to default coordinate system
